%
(1001)
(T2 D=13 CR=0 - ZMIN=-6.016 - flat end mill)
N10 G90 G94
N15 G17
N20 G21
N25 G28 G91 Z0
N30 G90

(Parallel1 2)
N35 M9
N40 T2 M6
N45 S9700 M3
N50 G54
N55 M8
N65 G0 X-1194.7 Y1093.48
N70 G43 Z15.24 H2
N75 Z-3.984
N80 G1 Z-4.716 F2328
N85 G18 G2 X-1193.4 Z-6.016 I1.3
N90 G1 X1193.6
N95 Y1089.48
N100 X-1193.4
N105 Y1085.48
N110 X1193.6
N115 Y1081.48
N120 X-1193.4
N125 Y1077.48
N130 X1193.6
N135 Y1073.48
N140 X-1193.4
N145 Y1069.48
N150 X1193.6
N155 Y1065.48
N160 X-1193.4
N165 Y1061.481
N170 X1193.6
N175 Y1057.481
N180 X-1193.4
N185 Y1053.481
N190 X1193.6
N195 Y1049.481
N200 X-1193.4
N205 Y1045.481
N210 X1193.6
N215 Y1041.481
N220 X-1193.4
N225 Y1037.481
N230 X1193.6
N235 Y1033.481
N240 X-1193.4
N245 Y1029.481
N250 X1193.6
N255 Y1025.481
N260 X-1193.4
N265 Y1021.481
N270 X1193.6
N275 Y1017.481
N280 X-1193.4
N285 Y1013.481
N290 X1193.6
N295 Y1009.482
N300 X-1193.4
N305 Y1005.482
N310 X1193.6
N315 Y1001.482
N320 X-1193.4
N325 Y997.482
N330 X1193.6
N335 Y993.482
N340 X-1193.4
N345 Y989.482
N350 X1193.6
N355 Y985.482
N360 X-1193.4
N365 Y981.482
N370 X1193.6
N375 Y977.482
N380 X-1193.4
N385 Y973.482
N390 X1193.6
N395 Y969.482
N400 X-1193.4
N405 Y965.482
N410 X1193.6
N415 Y961.482
N420 X-1193.4
N425 Y957.482
N430 X1193.6
N435 Y953.483
N440 X-1193.4
N445 Y949.483
N450 X1193.6
N455 Y945.483
N460 X-1193.4
N465 Y941.483
N470 X1193.6
N475 Y937.483
N480 X-1193.4
N485 Y933.483
N490 X1193.6
N495 Y929.483
N500 X-1193.4
N505 Y925.483
N510 X1193.6
N515 Y921.483
N520 X-1193.4
N525 Y917.483
N530 X1193.6
N535 Y913.483
N540 X-1193.4
N545 Y909.483
N550 X-29.677
N555 X-29.674 Z-1.681
N560 X-29.604 Z-1.016
N565 X-29.326
N570 G2 X-28.026 Z0.284 K1.3
N575 G0 Z5.08
N580 X1.464
N585 Z1.016
N590 G1 Z0.284 F2328
N595 G2 X2.76 Z-1.016 I1.3
N600 G1 X3.088 Z-1.017
N605 X3.095 Z-1.424
N610 Z-6.016
N615 X1193.6
N620 Y905.483
N625 X95.263
N630 X95.262 Z-1.016
N635 X95.249
N640 G3 X93.949 Z0.284 K1.3
N645 G0 Z5.08
N650 X-127.741
N655 Z1.016
N660 G1 Z0.284 F2328
N665 G3 X-129.041 Z-1.016 I-1.3
N670 G1 X-129.098
N675 X-129.099 Z-1.656
N680 X-129.104 Z-6.016
N685 X-1193.4
N690 Y901.484
N695 X-170.264
N700 X-170.262 Z-1.016
N705 X-170.26
N710 G2 X-168.96 Z0.284 K1.3
N715 G0 Z5.08
N720 X128.242
N725 Z1.016
N730 G1 Z0.284 F2328
N735 G2 X129.542 Z-1.016 I1.3
N740 G1 X129.554
N745 X129.555 Z-6.016
N750 X1193.6
N755 Y897.484
N760 X153.2
N765 G0 Z5.08
N770 X-197.697
N775 Z1.016
N780 G1 Z-1.016 F2328
N785 X-197.7 Z-6.016
N790 X-1193.4
N795 Y893.484
N800 X-220.929
N805 X-220.927 Z-1.016
N810 X-220.923
N815 G2 X-219.623 Z0.284 K1.3
N820 G0 Z5.08
N825 X174.02
N830 Z1.016
N835 G1 Z-1.006 F2328
N840 Z-1.016
N845 X174.026 Z-1.817
N850 Z-6.016
N855 X1193.6
N860 Y889.484
N865 X192.834
N870 X192.829 Z-1.016
N875 X192.824
N880 G3 X191.524 Z0.284 K1.3
N885 G0 Z5.08
N890 X-240.619
N895 Z1.016
N900 G1 Z0.284 F2328
N905 G3 X-241.919 Z-1.016 I-1.3
N910 G1 X-241.923
N915 X-241.924 Z-6.016
N920 X-1193.4
N925 Y885.484
N930 X-261.195
N935 X-261.193 Z-1.016
N940 X-261.189
N945 G2 X-259.889 Z0.284 K1.3
N950 G0 Z5.08
N955 X210.081
N960 Z1.016
N965 G1 Z-1.01 F2328
N970 Z-1.016
N975 X210.09 Z-3.058
N980 Z-6.016
N985 X1193.6
N990 Y881.484
N995 X226.114
N1000 Z-2.599
N1005 X226.107 Z-1.016
N1010 Z-1.01
N1015 G0 Z5.08
N1020 X-279.084
N1025 Z1.016
N1030 G1 Z-6.016 F2328
N1035 X-1193.4
N1040 Y877.484
N1045 X-295.83
N1050 X-295.829 Z-1.987
N1055 G0 Z5.08
N1060 X239.813
N1065 Z1.016
N1070 G1 Z0.284 F2328
N1075 G2 X241.113 Z-1.016 I1.3
N1080 G1 X241.119
N1085 X241.121 Z-6.016
N1090 X1193.6
N1095 Y873.484
N1100 X255.277
N1105 X255.276 Z-1.016
N1110 X255.27
N1115 G3 X253.97 Z0.284 K1.3
N1120 G0 Z5.08
N1125 X-311.607
N1130 Z1.016
N1135 G1 Z-1.016 F2328
N1140 X-311.609 Z-6.016
N1145 X-1193.4
N1150 Y869.484
N1155 X-326.561
N1160 X-326.56 Z-1.525
N1165 G0 Z5.08
N1170 X268.695
N1175 Z1.016
N1180 G1 Z-1.016 F2328
N1185 X268.698 Z-6.016
N1190 X1193.6
N1195 Y865.484
N1200 X281.485
N1205 X281.484 Z-1.308
N1210 X281.479 Z-1.016
N1215 Z-0.992
N1220 G0 Z5.08
N1225 X-340.786
N1230 Z1.016
N1235 G1 Z-1.016 F2328
N1240 X-340.789 Z-6.016
N1245 X-1193.4
N1250 Y861.484
N1255 X-354.379
N1260 X-354.377 Z-1.016
N1265 G0 Z5.08
N1270 X293.702
N1275 Z1.016
N1280 G1 Z-1.016 F2328
N1285 X293.709 Z-2.165
N1290 X293.71 Z-6.016
N1295 X1193.6
N1300 Y857.484
N1305 X305.433
N1310 X305.428 Z-1.016
N1315 Z-1.015
N1320 G0 Z5.08
N1325 X-366.099
N1330 Z1.016
N1335 G1 Z0.284 F2328
N1340 G3 X-367.399 Z-1.016 I-1.3
N1345 G1 X-367.404
N1350 X-367.405 Z-6.016
N1355 X-1193.4
N1360 Y853.484
N1365 X-379.919
N1370 G0 Z5.08
N1375 X316.712
N1380 Z1.016
N1385 G1 Z-6.016 F2328
N1390 X1193.6
N1395 Y849.484
N1400 X327.581
N1405 X327.577 Z-1.016
N1410 Z-1.015
N1415 G0 Z5.08
N1420 X-391.971
N1425 Z1.016
N1430 G1 Z-1.016 F2328
N1435 X-391.972 Z-6.016
N1440 X-1193.4
N1445 Y845.485
N1450 X-403.608
N1455 X-403.605 Z-1.016
N1460 Z-1.015
N1465 G0 Z5.08
N1470 X338.085
N1475 Z1.016
N1480 G1 Z-6.016 F2328
N1485 X1193.6
N1490 Y841.485
N1495 X348.25
N1500 X348.244 Z-1.016
N1505 Z-1.015
N1510 G0 Z5.08
N1515 X-413.558
N1520 Z1.016
N1525 G1 Z0.284 F2328
N1530 G3 X-414.858 Z-1.016 I-1.3
N1535 G1 X-414.86
N1540 X-414.861 Z-6.016
N1545 X-1193.4
N1550 Y837.485
N1555 X-425.761
N1560 X-425.757 Z-1.016
N1565 Z-1.015
N1570 G0 Z5.08
N1575 X358.098
N1580 Z1.016
N1585 G1 Z-1.016 F2328
N1590 X358.103 Z-6.016
N1595 X1193.6
N1600 Y833.485
N1605 X367.667
N1610 X367.666 Z-1.016
N1615 G0 Z5.08
N1620 X-436.333
N1625 Z1.016
N1630 G1 Z-2.161 F2328
N1635 X-436.334 Z-6.016
N1640 X-1193.4
N1645 Y829.485
N1650 X-446.605
N1655 X-446.604 Z-1.016
N1660 G0 Z5.08
N1665 X376.96
N1670 Z1.016
N1675 G1 Z-1.016 F2328
N1680 X376.965 Z-6.016
N1685 X1193.6
N1690 Y825.485
N1695 X386.013
N1700 Z-1.016
N1705 X386.007
N1710 G3 X384.707 Z0.284 K1.3
N1715 G0 Z5.08
N1720 X-456.592
N1725 Z1.016
N1730 G1 Z-1.016 F2328
N1735 X-456.595 Z-6.016
N1740 X-1193.4
N1745 Y821.485
N1750 X-466.32
N1755 X-466.319 Z-1.016
N1760 G0 Z5.08
N1765 X394.822
N1770 Z1.016
N1775 G1 Z-1.016 F2328
N1780 X394.826 Z-6.016
N1785 X1193.6
N1790 Y817.485
N1795 X403.422
N1800 X403.419 Z-1.016
N1805 Z-1.015
N1810 G0 Z5.08
N1815 X-475.8
N1820 Z1.016
N1825 G1 Z-1.016 F2328
N1830 X-475.802 Z-6.016
N1835 X-1193.4
N1840 Y813.485
N1845 X-485.052
N1850 X-485.048 Z-1.016
N1855 Z-1.015
N1860 G0 Z5.08
N1865 X411.81
N1870 Z1.016
N1875 G1 Z-1.016 F2328
N1880 X411.813 Z-6.016
N1885 X1193.6
N1890 Y809.485
N1895 X420.01
N1900 X420.007 Z-1.016
N1905 Z-1.015
N1910 G0 Z5.08
N1915 X-494.081
N1920 Z1.016
N1925 G1 Z-1.042 F2328
N1930 X-494.083 Z-6.016
N1935 X-1193.4
N1940 Y805.485
N1945 X-502.908
N1950 Z-1.016
N1955 X-502.905
N1960 G2 X-501.605 Z0.284 K1.3
N1965 G0 Z5.08
N1970 X-97.743
N1975 Z1.016
N1980 G1 Z-6.016 F2328
N1985 X71.901
N1990 G0 Z5.08
N1995 X428.017
N2000 Z1.016
N2005 G1 Z-1.016 F2328
N2010 X428.02 Z-6.016
N2015 X1193.6
N2020 Y801.485
N2025 X435.86
N2030 X435.856 Z-1.016
N2035 Z-1.015
N2040 G0 Z5.08
N2045 X104.895
N2050 Z1.016
N2055 G1 Z-6.016 F2328
N2060 X-146.363
N2065 G0 Z5.08
N2070 X-511.538
N2075 Z1.016
N2080 G1 Z-1.016 F2328
N2085 X-511.54 Z-6.016
N2090 X-1193.4
N2095 Y797.485
N2100 X-519.986
N2105 X-519.985 Z-1.016
N2110 G0 Z5.08
N2115 X-179.513
N2120 Z1.016
N2125 G1 Z-6.016 F2328
N2130 X130.67
N2135 G0 Z5.08
N2140 X443.527
N2145 Z1.016
N2150 G1 Z-1.016 F2328
N2155 X443.532 Z-6.016
N2160 X1193.6
N2165 Y793.485
N2170 X451.049
N2175 X451.043 Z-1.016
N2180 Z-1.015
N2185 G0 Z5.08
N2190 X152.547
N2195 Z1.016
N2200 G1 Z-6.016 F2328
N2205 X-204.202
N2210 G0 Z5.08
N2215 X-528.254
N2220 Z1.016
N2225 G1 Z-1.016 F2328
N2230 X-528.257 Z-6.016
N2235 X-1193.4
N2240 Y789.486
N2245 X-536.361
N2250 X-536.359 Z-1.016
N2255 Z-1.015
N2260 G0 Z5.08
N2265 X-225.137
N2270 Z1.016
N2275 G1 Z-1.016 F2328
N2280 X-225.134 Z-6.016
N2285 X171.844
N2290 G0 Z5.08
N2295 X458.41
N2300 Z1.016
N2305 G1 Z-1.016 F2328
N2310 X458.413 Z-6.016
N2315 X1193.6
N2320 Y785.486
N2325 X465.636
N2330 X465.632 Z-1.016
N2335 Z-1.015
N2340 G0 Z5.08
N2345 X189.281
N2350 Z1.016
N2355 G1 Z-6.016 F2328
N2360 X-244.096
N2365 X-244.098 Z-1.016
N2370 Z-1.015
N2375 G0 Z5.08
N2380 X-544.308
N2385 Z1.016
N2390 G1 Z-6.016 F2328
N2395 X-1193.4
N2400 Y781.486
N2405 X-552.101
N2410 X-552.099 Z-1.016
N2415 G0 Z5.08
N2420 X-261.542
N2425 Z1.016
N2430 G1 Z-6.016 F2328
N2435 X205.287
N2440 G0 Z5.08
N2445 X472.722
N2450 Z1.016
N2455 G1 Z-6.016 F2328
N2460 X1193.6
N2465 Y777.486
N2470 X479.676
N2475 X479.673 Z-1.016
N2480 Z-1.015
N2485 G0 Z5.08
N2490 X220.145
N2495 Z1.016
N2500 G1 Z-6.016 F2328
N2505 X-277.773
N2510 G0 Z5.08
N2515 X-558.448
N2520 Z1.016
N2525 G1 Z0.284 F2328
N2530 G3 X-559.748 Z-1.016 I-1.3
N2535 G1 X-559.75
N2540 X-559.751 Z-6.016
N2545 X-1193.4
N2550 Y773.486
N2555 X-567.262
N2560 X-567.259 Z-1.016
N2565 Z-1.015
N2570 G0 Z5.08
N2575 X-293.008
N2580 Z1.016
N2585 G1 Z-1.016 F2328
N2590 X-293.005 Z-6.016
N2595 X234.061
N2600 X234.063 Z-1.016
N2605 G0 Z5.08
N2610 X485.199
N2615 Z1.016
N2620 G1 Z0.284 F2328
N2625 G2 X486.499 Z-1.016 I1.3
N2630 G1 X486.503
N2635 X486.505 Z-6.016
N2640 X1193.6
N2645 Y769.486
N2650 X493.213
N2655 X493.209 Z-1.016
N2660 Z-1.015
N2665 G0 Z5.08
N2670 X247.179
N2675 Z1.016
N2680 G1 Z-6.016 F2328
N2685 X-307.386
N2690 G0 Z5.08
N2695 X-574.637
N2700 Z1.016
N2705 G1 Z-1.016 F2328
N2710 X-574.64 Z-6.016
N2715 X-1193.4
N2720 Y765.486
N2725 X-581.89
N2730 X-581.889 Z-1.018
N2735 G0 Z5.08
N2740 X-321.045
N2745 Z1.016
N2750 G1 Z-6.016 F2328
N2755 X259.615
N2760 G0 Z5.08
N2765 X499.804
N2770 Z1.016
N2775 G1 Z-1.016 F2328
N2780 X499.805 Z-6.016
N2785 X1193.6
N2790 Y761.486
N2795 X506.285
N2800 X506.281 Z-1.016
N2805 Z-1.015
N2810 G0 Z5.08
N2815 X271.457
N2820 Z1.016
N2825 G1 Z-6.016 F2328
N2830 X-334.068
N2835 X-334.07 Z-1.016
N2840 G0 Z5.08
N2845 X-589.018
N2850 Z1.016
N2855 G1 Z-2.591 F2328
N2860 Z-6.016
N2865 X-1193.4
N2870 Y757.486
N2875 X-596.028
N2880 Z-1.243
N2885 G0 Z5.08
N2890 X-346.532
N2895 Z1.016
N2900 G1 Z-6.016 F2328
N2905 X282.777
N2910 Z-1.016
N2915 G0 Z5.08
N2920 X512.654
N2925 Z1.016
N2930 G1 Z-1.016 F2328
N2935 X512.657 Z-6.016
N2940 X1193.6
N2945 Y753.486
N2950 X518.927
N2955 G0 Z5.08
N2960 X293.627
N2965 Z1.016
N2970 G1 Z-6.016 F2328
N2975 X-358.497
N2980 G0 Z5.08
N2985 X-602.925
N2990 Z1.016
N2995 G1 Z-1.016 F2328
N3000 X-602.926 Z-6.016
N3005 X-1193.4
N3010 Y749.486
N3015 X-609.714
N3020 Z-2.914
N3025 G0 Z5.08
N3030 X-370.015
N3035 Z1.016
N3040 G1 Z-6.016 F2328
N3045 X304.06
N3050 X304.061 Z-2.658
N3055 G0 Z5.08
N3060 X525.091
N3065 Z1.016
N3070 G1 Z-1.016 F2328
N3075 X525.096 Z-6.016
N3080 X1193.6
N3085 Y745.486
N3090 X531.167
N3095 X531.164 Z-1.016
N3100 Z-1.015
N3105 G0 Z5.08
N3110 X314.113
N3115 Z1.016
N3120 G1 Z-6.016 F2328
N3125 X-381.126
N3130 X-381.129 Z-3.286
N3135 Z-3.284
N3140 G0 Z5.08
N3145 X-616.396
N3150 Z1.016
N3155 G1 Z-6.016 F2328
N3160 X-1193.4
N3165 Y741.486
N3170 X-622.977
N3175 X-622.976 Z-1.016
N3180 G0 Z5.08
N3185 X-391.871
N3190 Z1.016
N3195 G1 Z-6.016 F2328
N3200 X323.817
N3205 G0 Z5.08
N3210 X537.143
N3215 Z1.016
N3220 G1 Z-1.016 F2328
N3225 X537.145 Z-6.016
N3230 X1193.6
N3235 Y737.487
N3240 X543.033
N3245 X543.029 Z-1.016
N3250 Z-1.015
N3255 G0 Z5.08
N3260 X333.209
N3265 Z1.016
N3270 G1 Z-6.016 F2328
N3275 X-402.277
N3280 G0 Z5.08
N3285 X-629.458
N3290 Z1.016
N3295 G1 Z-1.016 F2328
N3300 X-629.46 Z-6.016
N3305 X-1193.4
N3310 Y733.487
N3315 X-635.848
N3320 X-635.846 Z-1.016
N3325 Z-1.015
N3330 G0 Z5.08
N3335 X-412.373
N3340 Z1.016
N3345 G1 Z-1.016 F2328
N3350 X-412.37 Z-6.016
N3355 X342.309
N3360 G0 Z5.08
N3365 X548.831
N3370 Z1.016
N3375 G1 Z-1.422 F2328
N3380 X548.832 Z-6.016
N3385 X1193.6
N3390 Y729.487
N3395 X554.546
N3400 X554.543 Z-1.016
N3405 Z-1.015
N3410 G0 Z5.08
N3415 X351.14
N3420 Z1.016
N3425 G1 Z-6.016 F2328
N3430 X-422.174
N3435 G0 Z5.08
N3440 X-642.142
N3445 Z1.016
N3450 G1 Z-1.016 F2328
N3455 X-642.144 Z-6.016
N3460 X-1193.4
N3465 Y725.487
N3470 X-648.352
N3475 X-648.35 Z-1.016
N3480 Z-1.015
N3485 G0 Z5.08
N3490 X-431.709
N3495 Z1.016
N3500 G1 Z-6.016 F2328
N3505 X359.719
N3510 G0 Z5.08
N3515 X560.179
N3520 Z1.016
N3525 G1 Z-6.016 F2328
N3530 X1193.6
N3535 Y721.487
N3540 X565.729
N3545 X565.725 Z-1.016
N3550 Z-1.015
N3555 G0 Z5.08
N3560 X368.067
N3565 Z1.016
N3570 G1 Z-6.016 F2328
N3575 X-440.989
N3580 G0 Z5.08
N3585 X-654.471
N3590 Z1.016
N3595 G1 Z-1.016 F2328
N3600 X-654.472 Z-6.016
N3605 X-1193.4
N3610 Y717.487
N3615 X-660.511
N3620 X-660.51 Z-1.167
N3625 G0 Z5.08
N3630 X-450.04
N3635 Z1.016
N3640 G1 Z-6.016 F2328
N3645 X376.197
N3650 G0 Z5.08
N3655 X571.202
N3660 Z1.016
N3665 G1 Z-6.016 F2328
N3670 X1193.6
N3675 Y713.487
N3680 X576.6
N3685 X576.598 Z-1.016
N3690 X576.596
N3695 G3 X575.296 Z0.284 K1.3
N3700 G0 Z5.08
N3705 X384.124
N3710 Z1.016
N3715 G1 Z-1.016 F2328
N3720 X384.122 Z-6.016
N3725 X-458.874
N3730 G0 Z5.08
N3735 X-666.467
N3740 Z1.016
N3745 G1 Z-1.027 F2328
N3750 X-666.468 Z-6.016
N3755 X-1193.4
N3760 Y709.487
N3765 X-672.347
N3770 X-672.345 Z-1.016
N3775 G0 Z5.08
N3780 X-467.496
N3785 Z1.016
N3790 G1 Z-6.016 F2328
N3795 X391.854
N3800 G0 Z5.08
N3805 X581.924
N3810 Z1.016
N3815 G1 Z-6.016 F2328
N3820 X1193.6
N3825 Y705.487
N3830 X587.175
N3835 X587.172 Z-1.016
N3840 Z-1.015
N3845 G0 Z5.08
N3850 X399.403
N3855 Z1.016
N3860 G1 Z-6.016 F2328
N3865 X-475.933
N3870 G0 Z5.08
N3875 X-678.146
N3880 Z1.016
N3885 G1 Z-1.016 F2328
N3890 X-678.149 Z-6.016
N3895 X-1193.4
N3900 Y701.487
N3905 X-683.877
N3910 X-683.875 Z-1.016
N3915 G0 Z5.08
N3920 X-484.171
N3925 Z1.016
N3930 G1 Z-6.016 F2328
N3935 X406.784
N3940 Z-1.016
N3945 G0 Z5.08
N3950 X592.355
N3955 Z1.016
N3960 G1 Z-1.016 F2328
N3965 X592.356 Z-6.016
N3970 X1193.6
N3975 Y697.487
N3980 X597.47
N3985 X597.467 Z-1.016
N3990 Z-1.015
N3995 G0 Z5.08
N4000 X413.999
N4005 Z1.016
N4010 G1 Z-6.016 F2328
N4015 X-492.249
N4020 G0 Z5.08
N4025 X-689.532
N4030 Z1.016
N4035 G1 Z-2.343 F2328
N4040 Z-6.016
N4045 X-1193.4
N4050 Y693.487
N4055 X-695.118
N4060 Z-1.016
N4065 X-695.115
N4070 G2 X-693.815 Z0.284 K1.3
N4075 G0 Z5.08
N4080 X-500.151
N4085 Z1.016
N4090 G1 Z-6.016 F2328
N4095 X421.063
N4100 Z-1.016
N4105 G0 Z5.08
N4110 X602.514
N4115 Z1.016
N4120 G1 Z-1.016 F2328
N4125 X602.517 Z-6.016
N4130 X1193.6
N4135 Y689.487
N4140 X607.498
N4145 X607.497 Z-1.016
N4150 G0 Z5.08
N4155 X427.976
N4160 Z1.016
N4165 G1 Z-6.016 F2328
N4170 X-507.894
N4175 G0 Z5.08
N4180 X-699.333
N4185 Z1.016
N4190 G1 Z0.284 F2328
N4195 G3 X-700.633 Z-1.016 I-1.3
N4200 G1 X-700.634
N4205 X-700.636 Z-6.016
N4210 X-1193.4
N4215 Y685.487
N4220 X-706.086
N4225 X-706.085 Z-1.016
N4230 G0 Z5.08
N4235 X-515.494
N4240 Z1.016
N4245 G1 Z-6.016 F2328
N4250 X434.754
N4255 Z-2.446
N4260 G0 Z5.08
N4265 X612.413
N4270 Z1.016
N4275 G1 Z-1.016 F2328
N4280 X612.417 Z-6.016
N4285 X1193.6
N4290 Y681.488
N4295 X617.273
N4300 X617.272 Z-2.207
N4305 G0 Z5.08
N4310 X441.396
N4315 Z1.016
N4320 G1 Z-3.513 F2328
N4325 Z-6.016
N4330 X-522.948
N4335 G0 Z5.08
N4340 X-711.471
N4345 Z1.016
N4350 G1 Z-1.016 F2328
N4355 Z-6.016
N4360 X-1193.4
N4365 Y677.488
N4370 X-716.795
N4375 X-716.793 Z-1.016
N4380 Z-1.015
N4385 G0 Z5.08
N4390 X-530.256
N4395 Z1.016
N4400 G1 Z-6.016 F2328
N4405 X447.91
N4410 G0 Z5.08
N4415 X622.066
N4420 Z1.016
N4425 G1 Z-1.016 F2328
N4430 X622.07 Z-6.016
N4435 X1193.6
N4440 Y673.488
N4445 X626.806
N4450 X626.802 Z-1.016
N4455 Z-1.015
N4460 G0 Z5.08
N4465 X454.305
N4470 Z1.016
N4475 G1 Z-1.016 F2328
N4480 X454.303 Z-6.016
N4485 X-537.44
N4490 G0 Z5.08
N4495 X-722.056
N4500 Z1.016
N4505 G1 Z-1.016 F2328
N4510 Z-6.016
N4515 X-1193.4
N4520 Y669.488
N4525 X-727.257
N4530 X-727.256 Z-1.016
N4535 G0 Z5.08
N4540 X-544.501
N4545 Z1.016
N4550 G1 Z-6.016 F2328
N4555 X460.578
N4560 G0 Z5.08
N4565 X631.485
N4570 Z1.016
N4575 G1 Z-1.016 F2328
N4580 Z-6.016
N4585 X1193.6
N4590 Y665.488
N4595 X636.107
N4600 X636.106 Z-1.016
N4605 X636.104
N4610 G3 X634.805 Z0.284 K1.3
N4615 G0 Z5.08
N4620 X466.741
N4625 Z1.016
N4630 G1 Z-6.016 F2328
N4635 X-551.435
N4640 G0 Z5.08
N4645 X-732.398
N4650 Z1.016
N4655 G1 Z-1.016 F2328
N4660 X-732.399 Z-6.016
N4665 X-1193.4
N4670 Y661.488
N4675 X-737.485
N4680 G0 Z5.08
N4685 X-558.248
N4690 Z1.016
N4695 G1 Z-6.016 F2328
N4700 X472.797
N4705 G0 Z5.08
N4710 X640.671
N4715 Z1.016
N4720 G1 Z-1.016 F2328
N4725 X640.673 Z-6.016
N4730 X1193.6
N4735 Y657.488
N4740 X645.188
N4745 G0 Z5.08
N4750 X478.75
N4755 Z1.016
N4760 G1 Z-1.016 F2328
N4765 X478.749 Z-6.016
N4770 X-564.952
N4775 G0 Z5.08
N4780 X-742.512
N4785 Z1.016
N4790 G1 Z-1.016 F2328
N4795 X-742.515 Z-6.016
N4800 X-1193.4
N4805 Y653.488
N4810 X-747.489
N4815 Z-1.016
N4820 G0 Z5.08
N4825 X-571.551
N4830 Z1.016
N4835 G1 Z-6.016 F2328
N4840 X484.601
N4845 Z-2.639
N4850 G0 Z5.08
N4855 X648.343
N4860 Z1.016
N4865 G1 Z0.284 F2328
N4870 G2 X649.643 Z-1.016 I1.3
N4875 G1 X649.646
N4880 X649.647 Z-6.016
N4885 X1193.6
N4890 Y649.488
N4895 X654.053
N4900 X654.051 Z-1.016
N4905 Z-1.015
N4910 G0 Z5.08
N4915 X490.356
N4920 Z1.016
N4925 G1 Z-6.016 F2328
N4930 X-578.047
N4935 G0 Z5.08
N4940 X-751.108
N4945 Z1.016
N4950 G1 Z0.284 F2328
N4955 G3 X-752.408 Z-1.016 I-1.3
N4960 G1 X-752.41
N4965 Z-6.016
N4970 X-1193.4
N4975 Y645.488
N4980 X-757.279
N4985 X-757.277 Z-1.016
N4990 Z-1.015
N4995 G0 Z5.08
N5000 X-584.441
N5005 Z1.016
N5010 G1 Z-6.016 F2328
N5015 X496.017
N5020 G0 Z5.08
N5025 X658.409
N5030 Z1.016
N5035 G1 Z-6.016 F2328
N5040 X1193.6
N5045 Y641.488
N5050 X662.716
N5055 X662.714 Z-1.016
N5060 Z-1.015
N5065 G0 Z5.08
N5070 X501.59
N5075 Z1.016
N5080 G1 Z-6.016 F2328
N5085 X-590.732
N5090 G0 Z5.08
N5095 X-762.095
N5100 Z1.016
N5105 G1 Z-1.016 F2328
N5110 X-762.097 Z-6.016
N5115 X-1193.4
N5120 Y637.488
N5125 X-766.865
N5130 X-766.863 Z-1.016
N5135 Z-1.015
N5140 G0 Z5.08
N5145 X-596.929
N5150 Z1.016
N5155 G1 Z-6.016 F2328
N5160 X507.075
N5165 G0 Z5.08
N5170 X666.971
N5175 Z1.016
N5180 G1 Z-1.016 F2328
N5185 X666.974 Z-6.016
N5190 X1193.6
N5195 Y633.488
N5200 X671.182
N5205 X671.181 Z-1.016
N5210 G0 Z5.08
N5215 X512.476
N5220 Z1.016
N5225 G1 Z-6.016 F2328
N5230 X-603.037
N5235 G0 Z5.08
N5240 X-771.583
N5245 Z1.016
N5250 G1 Z-1.2 F2328
N5255 X-771.584 Z-6.016
N5260 X-1193.4
N5265 Y629.488
N5270 X-776.255
N5275 X-776.253 Z-1.016
N5280 Z-1.015
N5285 G0 Z5.08
N5290 X-609.056
N5295 Z1.016
N5300 G1 Z-6.016 F2328
N5305 X517.796
N5310 G0 Z5.08
N5315 X675.344
N5320 Z1.016
N5325 G1 Z-6.016 F2328
N5330 X1193.6
N5335 Y625.489
N5340 X679.46
N5345 X679.458 Z-1.016
N5350 Z-1.015
N5355 G0 Z5.08
N5360 X523.037
N5365 Z1.016
N5370 G1 Z-6.016 F2328
N5375 X-614.99
N5380 G0 Z5.08
N5385 X-780.879
N5390 Z1.016
N5395 G1 Z-6.016 F2328
N5400 X-1193.4
N5405 Y621.489
N5410 X-785.457
N5415 X-785.455 Z-1.016
N5420 Z-1.015
N5425 G0 Z5.08
N5430 X-620.842
N5435 Z1.016
N5440 G1 Z-6.016 F2328
N5445 X528.202
N5450 G0 Z5.08
N5455 X683.527
N5460 Z1.016
N5465 G1 Z-1.016 F2328
N5470 X683.529 Z-6.016
N5475 X1193.6
N5480 Y617.489
N5485 X687.553
N5490 X687.552 Z-1.016
N5495 G0 Z5.08
N5500 X533.292
N5505 Z1.016
N5510 G1 Z-6.016 F2328
N5515 X-626.613
N5520 G0 Z5.08
N5525 X-789.99
N5530 Z1.016
N5535 G1 Z-6.016 F2328
N5540 X-1193.4
N5545 Y613.489
N5550 X-794.479
N5555 X-794.478 Z-1.016
N5560 G0 Z5.08
N5565 X-632.307
N5570 Z1.016
N5575 G1 Z-6.016 F2328
N5580 X538.31
N5585 G0 Z5.08
N5590 X691.536
N5595 Z1.016
N5600 G1 Z-6.016 F2328
N5605 X1193.6
N5610 Y609.489
N5615 X695.473
N5620 X695.471 Z-1.016
N5625 G0 Z5.08
N5630 X543.258
N5635 Z1.016
N5640 G1 Z-6.016 F2328
N5645 X-637.923
N5650 G0 Z5.08
N5655 X-798.925
N5660 Z1.016
N5665 G1 Z-6.016 F2328
N5670 X-1193.4
N5675 Y605.489
N5680 X-803.328
N5685 X-803.327 Z-1.016
N5690 G0 Z5.08
N5695 X-643.465
N5700 Z1.016
N5705 G1 Z-1.016 F2328
N5710 X-643.464 Z-6.016
N5715 X548.14
N5720 G0 Z5.08
N5725 X698.065
N5730 Z1.016
N5735 G1 Z0.284 F2328
N5740 G2 X699.365 Z-1.016 I1.3
N5745 G1 X699.367
N5750 Z-6.016
N5755 X1193.6
N5760 Y601.489
N5765 X703.222
N5770 X703.218 Z-1.016
N5775 Z-1.015
N5780 G0 Z5.08
N5785 X552.954
N5790 Z1.016
N5795 G1 Z-6.016 F2328
N5800 X-648.929
N5805 X-648.932 Z-2.539
N5810 Z-2.538
N5815 G0 Z5.08
N5820 X-807.688
N5825 Z1.016
N5830 G1 Z-1.016 F2328
N5835 X-807.69 Z-6.016
N5840 X-1193.4
N5845 Y597.489
N5850 X-812.011
N5855 X-812.01 Z-1.016
N5860 X-812.009
N5865 G2 X-810.709 Z0.284 K1.3
N5870 G0 Z5.08
N5875 X-654.329
N5880 Z1.016
N5885 G1 Z-6.016 F2328
N5890 X557.703
N5895 X557.704 Z-1.016
N5900 G0 Z5.08
N5905 X707.032
N5910 Z1.016
N5915 G1 Z-6.016 F2328
N5920 X1193.6
N5925 Y593.489
N5930 X710.805
N5935 X710.804 Z-1.016
N5940 G0 Z5.08
N5945 X562.39
N5950 Z1.016
N5955 G1 Z-1.016 F2328
N5960 Z-6.016
N5965 X-659.657
N5970 G0 Z5.08
N5975 X-816.29
N5980 Z1.016
N5985 G1 Z-1.016 F2328
N5990 X-816.291 Z-6.016
N5995 X-1193.4
N6000 Y589.489
N6005 X-820.532
N6010 X-820.531 Z-1.016
N6015 G0 Z5.08
N6020 X-664.918
N6025 Z1.016
N6030 G1 Z-6.016 F2328
N6035 X567.015
N6040 G0 Z5.08
N6045 X714.534
N6050 Z1.016
N6055 G1 Z-1.016 F2328
N6060 X714.536 Z-6.016
N6065 X1193.6
N6070 Y585.489
N6075 X718.228
N6080 X718.226 Z-1.016
N6085 Z-1.015
N6090 G0 Z5.08
N6095 X571.579
N6100 Z1.016
N6105 G1 Z-6.016 F2328
N6110 X-670.114
N6115 G0 Z5.08
N6120 X-824.732
N6125 Z1.016
N6130 G1 Z-1.016 F2328
N6135 X-824.734 Z-6.016
N6140 X-1193.4
N6145 Y581.489
N6150 X-828.899
N6155 G0 Z5.08
N6160 X-675.246
N6165 Z1.016
N6170 G1 Z-6.016 F2328
N6175 X576.086
N6180 G0 Z5.08
N6185 X720.579
N6190 Z1.016
N6195 G1 Z0.284 F2328
N6200 G2 X721.879 Z-1.016 I1.3
N6205 G1 X721.882
N6210 Z-6.016
N6215 X1193.6
N6220 Y577.489
N6225 X725.497
N6230 X725.496 Z-1.76
N6235 Z-1.759
N6240 G0 Z5.08
N6245 X580.538
N6250 Z1.016
N6255 G1 Z-6.016 F2328
N6260 X-680.315
N6265 G0 Z5.08
N6270 X-833.024
N6275 Z1.016
N6280 G1 Z-1.016 F2328
N6285 X-833.026 Z-6.016
N6290 X-1193.4
N6295 Y573.49
N6300 X-837.117
N6305 X-837.115 Z-1.016
N6310 G0 Z5.08
N6315 X-685.325
N6320 Z1.016
N6325 G1 Z-6.016 F2328
N6330 X584.933
N6335 Z-1.016
N6340 G0 Z5.08
N6345 X729.076
N6350 Z1.016
N6355 G1 Z-6.016 F2328
N6360 X1193.6
N6365 Y569.49
N6370 X732.616
N6375 X732.615 Z-1.047
N6380 G0 Z5.08
N6385 X589.273
N6390 Z1.016
N6395 G1 Z-6.016 F2328
N6400 X-690.274
N6405 X-690.275 Z-1.016
N6410 G0 Z5.08
N6415 X-841.17
N6420 Z1.016
N6425 G1 Z-1.016 F2328
N6430 X-841.171 Z-6.016
N6435 X-1193.4
N6440 Y565.49
N6445 X-845.19
N6450 X-845.188 Z-1.016
N6455 Z-1.015
N6460 G0 Z5.08
N6465 X-695.166
N6470 Z1.016
N6475 G1 Z-1.774 F2328
N6480 X-695.163 Z-6.016
N6485 X593.559
N6490 G0 Z5.08
N6495 X736.118
N6500 Z1.016
N6505 G1 Z-1.016 F2328
N6510 X736.121 Z-6.016
N6515 X1193.6
N6520 Y561.49
N6525 X739.589
N6530 X739.587 Z-1.016
N6535 Z-1.015
N6540 G0 Z5.08
N6545 X597.796
N6550 Z1.016
N6555 G1 Z-6.016 F2328
N6560 X-699.998
N6565 X-699.999 Z-1.016
N6570 G0 Z5.08
N6575 X-849.174
N6580 Z1.016
N6585 G1 Z-6.016 F2328
N6590 X-1193.4
N6595 Y557.49
N6600 X-853.124
N6605 X-853.123 Z-1.016
N6610 G0 Z5.08
N6615 X-704.775
N6620 Z1.016
N6625 G1 Z-6.016 F2328
N6630 X601.98
N6635 G0 Z5.08
N6640 X743.02
N6645 Z1.016
N6650 G1 Z-1.016 F2328
N6655 X743.022 Z-6.016
N6660 X1193.6
N6665 Y553.49
N6670 X746.421
N6675 X746.418 Z-1.016
N6680 Z-1.015
N6685 G0 Z5.08
N6690 X606.115
N6695 Z1.016
N6700 G1 Z-6.016 F2328
N6705 X-709.496
N6710 G0 Z5.08
N6715 X-857.039
N6720 Z1.016
N6725 G1 Z-1.016 F2328
N6730 X-857.04 Z-6.016
N6735 X-1193.4
N6740 Y549.49
N6745 X-860.938
N6750 G0 Z5.08
N6755 X-714.164
N6760 Z1.016
N6765 G1 Z-6.016 F2328
N6770 X610.202
N6775 G0 Z5.08
N6780 X749.784
N6785 Z1.016
N6790 G1 Z-1.769 F2328
N6795 Z-6.016
N6800 X1193.6
N6805 Y545.49
N6810 X753.114
N6815 X753.113 Z-2.261
N6820 G0 Z5.08
N6825 X614.243
N6830 Z1.016
N6835 G1 Z-1.016 F2328
N6840 Z-6.016
N6845 X-718.781
N6850 G0 Z5.08
N6855 X-864.851
N6860 Z1.016
N6865 G1 Z-1.016 F2328
N6870 Z-6.016
N6875 X-1193.4
N6880 Y541.49
N6885 X-868.792
N6890 G0 Z5.08
N6895 X-723.344
N6900 Z1.016
N6905 G1 Z-6.016 F2328
N6910 X618.233
N6915 G0 Z5.08
N6920 X756.409
N6925 Z1.016
N6930 G1 Z-1.114 F2328
N6935 Z-6.016
N6940 X1193.6
N6945 Y537.49
N6950 X759.672
N6955 X759.67 Z-1.016
N6960 Z-1.015
N6965 G0 Z5.08
N6970 X622.18
N6975 Z1.016
N6980 G1 Z-6.016 F2328
N6985 X-727.858
N6990 G0 Z5.08
N6995 X-872.758
N7000 Z1.016
N7005 G1 Z-6.016 F2328
N7010 X-1193.4
N7015 Y533.49
N7020 X-876.749
N7025 G0 Z5.08
N7030 X-732.323
N7035 Z1.016
N7040 G1 Z-6.016 F2328
N7045 X626.083
N7050 X626.085 Z-1.016
N7055 G0 Z5.08
N7060 X762.9
N7065 Z1.016
N7070 G1 Z-1.016 F2328
N7075 X762.902 Z-6.016
N7080 X1193.6
N7085 Y529.49
N7090 X766.1
N7095 X766.098 Z-1.016
N7100 Z-1.015
N7105 G0 Z5.08
N7110 X629.94
N7115 Z1.016
N7120 G1 Z-6.016 F2328
N7125 X-736.74
N7130 G0 Z5.08
N7135 X-880.77
N7140 Z1.016
N7145 G1 Z-6.016 F2328
N7150 X-1193.4
N7155 Y525.49
N7160 X-884.822
N7165 G0 Z5.08
N7170 X-741.109
N7175 Z1.016
N7180 G1 Z-6.016 F2328
N7185 X633.756
N7190 Z-1.016
N7195 G0 Z5.08
N7200 X769.264
N7205 Z1.016
N7210 G1 Z-1.016 F2328
N7215 X769.267 Z-6.016
N7220 X1193.6
N7225 Y521.49
N7230 X772.401
N7235 X772.398 Z-1.016
N7240 Z-1.015
N7245 G0 Z5.08
N7250 X637.525
N7255 Z1.016
N7260 G1 Z-6.016 F2328
N7265 X-745.433
N7270 G0 Z5.08
N7275 X-888.904
N7280 Z1.016
N7285 G1 Z-6.016 F2328
N7290 X-1193.4
N7295 Y517.491
N7300 X-893.02
N7305 G0 Z5.08
N7310 X-749.71
N7315 Z1.016
N7320 G1 Z-6.016 F2328
N7325 X641.254
N7330 G0 Z5.08
N7335 X775.502
N7340 Z1.016
N7345 G1 Z-1.016 F2328
N7350 X775.505 Z-6.016
N7355 X1193.6
N7360 Y513.491
N7365 X778.577
N7370 X778.576 Z-1.292
N7375 G0 Z5.08
N7380 X644.938
N7385 Z1.016
N7390 G1 Z-6.016 F2328
N7395 X-753.943
N7400 X-753.944 Z-1.016
N7405 G0 Z5.08
N7410 X-897.173
N7415 Z1.016
N7420 G1 Z-6.016 F2328
N7425 X-1193.4
N7430 Y509.491
N7435 X-901.36
N7440 Z-1.016
N7445 G0 Z5.08
N7450 X-758.127
N7455 Z1.016
N7460 G1 Z-6.016 F2328
N7465 X648.584
N7470 G0 Z5.08
N7475 X781.619
N7480 Z1.016
N7485 G1 Z-1.016 F2328
N7490 X781.62 Z-6.016
N7495 X1193.6
N7500 Y505.491
N7505 X784.632
N7510 X784.631 Z-1.627
N7515 Z-1.626
N7520 G0 Z5.08
N7525 X652.185
N7530 Z1.016
N7535 G1 Z-6.016 F2328
N7540 X-762.267
N7545 G0 Z5.08
N7550 X-905.591
N7555 Z1.016
N7560 G1 Z-6.016 F2328
N7565 X-1193.4
N7570 Y501.491
N7575 X-909.86
N7580 G0 Z5.08
N7585 X-766.364
N7590 Z1.016
N7595 G1 Z-6.016 F2328
N7600 X655.748
N7605 G0 Z5.08
N7610 X787.614
N7615 Z1.016
N7620 G1 Z-1.016 F2328
N7625 Z-6.016
N7630 X1193.6
N7635 Y497.491
N7640 X790.568
N7645 X790.566 Z-1.016
N7650 Z-1.015
N7655 G0 Z5.08
N7660 X659.27
N7665 Z1.016
N7670 G1 Z-6.016 F2328
N7675 X-770.42
N7680 G0 Z5.08
N7685 X-914.179
N7690 Z1.016
N7695 G1 Z-6.016 F2328
N7700 X-1193.4
N7705 Y493.491
N7710 X-918.542
N7715 G0 Z5.08
N7720 X-774.436
N7725 Z1.016
N7730 G1 Z-6.016 F2328
N7735 X662.754
N7740 Z-1.016
N7745 G0 Z5.08
N7750 X793.491
N7755 Z1.016
N7760 G1 Z-1.016 F2328
N7765 X793.492 Z-6.016
N7770 X1193.6
N7775 Y489.491
N7780 X796.388
N7785 X796.385 Z-1.016
N7790 Z-1.015
N7795 G0 Z5.08
N7800 X666.196
N7805 Z1.016
N7810 G1 Z-6.016 F2328
N7815 X-778.412
N7820 G0 Z5.08
N7825 X-922.96
N7830 Z1.016
N7835 G1 Z-6.016 F2328
N7840 X-1193.4
N7845 Y485.491
N7850 X-927.432
N7855 G0 Z5.08
N7860 X-782.348
N7865 Z1.016
N7870 G1 Z-2.295 F2328
N7875 X-782.345 Z-6.016
N7880 X669.603
N7885 X669.604 Z-1.016
N7890 G0 Z5.08
N7895 X799.252
N7900 Z1.016
N7905 G1 Z-1.016 F2328
N7910 X799.255 Z-6.016
N7915 X1193.6
N7920 Y481.491
N7925 X802.095
N7930 X802.092 Z-1.016
N7935 Z-1.015
N7940 G0 Z5.08
N7945 X672.97
N7950 Z1.016
N7955 G1 Z-6.016 F2328
N7960 X-786.24
N7965 X-786.244 Z-1.016
N7970 Z-1.015
N7975 G0 Z5.08
N7980 X-931.965
N7985 Z1.016
N7990 G1 Z-6.016 F2328
N7995 X-1193.4
N8000 Y477.491
N8005 X-936.561
N8010 Z-3.073
N8015 G0 Z5.08
N8020 X-790.095
N8025 Z1.016
N8030 G1 Z-6.016 F2328
N8035 X676.301
N8040 X676.302 Z-1.016
N8045 G0 Z5.08
N8050 X804.904
N8055 Z1.016
N8060 G1 Z-1.016 F2328
N8065 X804.906 Z-6.016
N8070 X1193.6
N8075 Y473.491
N8080 X807.69
N8085 X807.688 Z-1.016
N8090 Z-1.015
N8095 G0 Z5.08
N8100 X679.593
N8105 Z1.016
N8110 G1 Z-6.016 F2328
N8115 X-793.909
N8120 G0 Z5.08
N8125 X-941.231
N8130 Z1.016
N8135 G1 Z-6.016 F2328
N8140 X-1193.4
N8145 Y469.491
N8150 X-945.978
N8155 G0 Z5.08
N8160 X-797.687
N8165 Z1.016
N8170 G1 Z-6.016 F2328
N8175 X682.85
N8180 G0 Z5.08
N8185 X809.145
N8190 Z1.016
N8195 G1 Z0.284 F2328
N8200 G2 X810.445 Z-1.016 I1.3
N8205 G1 X810.447
N8210 X810.448 Z-6.016
N8215 X1193.6
N8220 Y465.491
N8225 X813.177
N8230 X813.175 Z-1.016
N8235 G0 Z5.08
N8240 X686.071
N8245 Z1.016
N8250 G1 Z-6.016 F2328
N8255 X-801.429
N8260 G0 Z5.08
N8265 X-950.81
N8270 Z1.016
N8275 G1 Z-6.016 F2328
N8280 X-1193.4
N8285 Y461.492
N8290 X-955.735
N8295 G0 Z5.08
N8300 X-805.134
N8305 Z1.016
N8310 G1 Z-6.016 F2328
N8315 X689.256
N8320 G0 Z5.08
N8325 X815.879
N8330 Z1.016
N8335 G1 Z-1.016 F2328
N8340 X815.881 Z-6.016
N8345 X1193.6
N8350 Y457.492
N8355 X818.559
N8360 X818.556 Z-1.016
N8365 Z-1.015
N8370 G0 Z5.08
N8375 X692.407
N8380 Z1.016
N8385 G1 Z-3.202 F2328
N8390 Z-6.016
N8395 X-808.799
N8400 X-808.806 Z-1.016
N8405 Z-1.014
N8410 G0 Z5.08
N8415 X-960.763
N8420 Z1.016
N8425 G1 Z-6.016 F2328
N8430 X-1193.4
N8435 Y453.492
N8440 X-965.909
N8445 G0 Z5.08
N8450 X-812.433
N8455 Z1.016
N8460 G1 Z-6.016 F2328
N8465 X695.521
N8470 G0 Z5.08
N8475 X821.208
N8480 Z1.016
N8485 G1 Z-1.016 F2328
N8490 X821.209 Z-6.016
N8495 X1193.6
N8500 Y449.492
N8505 X823.835
N8510 X823.833 Z-1.016
N8515 Z-1.015
N8520 G0 Z5.08
N8525 X698.604
N8530 Z1.016
N8535 G1 Z-1.016 F2328
N8540 X698.603 Z-6.016
N8545 X-816.027
N8550 G0 Z5.08
N8555 X-971.188
N8560 Z1.016
N8565 G1 Z-6.016 F2328
N8570 X-1193.4
N8575 Y445.492
N8580 X-976.612
N8585 G0 Z5.08
N8590 X-819.588
N8595 Z1.016
N8600 G1 Z-6.016 F2328
N8605 X701.649
N8610 G0 Z5.08
N8615 X826.432
N8620 Z1.016
N8625 G1 Z-1.016 F2328
N8630 X826.435 Z-6.016
N8635 X1193.6
N8640 Y441.492
N8645 X829.008
N8650 Z-1.016
N8655 G0 Z5.08
N8660 X704.663
N8665 Z1.016
N8670 G1 Z-6.016 F2328
N8675 X-823.116
N8680 G0 Z5.08
N8685 X-982.212
N8690 Z1.016
N8695 G1 Z-6.016 F2328
N8700 X-1193.4
N8705 Y437.492
N8710 X-988.01
N8715 G0 Z5.08
N8720 X-826.611
N8725 Z1.016
N8730 G1 Z-3.074 F2328
N8735 Z-6.016
N8740 X707.643
N8745 G0 Z5.08
N8750 X830.257
N8755 Z1.016
N8760 G1 Z0.284 F2328
N8765 G2 X831.557 Z-1.016 I1.3
N8770 G1 X831.559
N8775 Z-6.016
N8780 X1193.6
N8785 Y433.492
N8790 X834.083
N8795 X834.081 Z-1.016
N8800 G0 Z5.08
N8805 X710.589
N8810 Z1.016
N8815 G1 Z-6.016 F2328
N8820 X-830.066
N8825 X-830.069 Z-3.457
N8830 Z-3.455
N8835 G0 Z5.08
N8840 X-994.043
N8845 Z1.016
N8850 G1 Z-6.016 F2328
N8855 X-1193.4
N8860 X-1191.029 Y429.492 Z-1.016
N8865 X-1191.014
N8870 X-1191.012 Z-6.016
N8875 X-1000.364
N8880 G0 Z5.08
N8885 X-833.492
N8890 Z1.016
N8895 G1 Z-6.016 F2328
N8900 X713.505
N8905 X713.506 Z-1.016
N8910 G0 Z5.08
N8915 X836.582
N8920 Z1.016
N8925 G1 Z-1.016 F2328
N8930 X836.583 Z-6.016
N8935 X1193.6
N8940 Y425.492
N8945 X839.058
N8950 Z-2.342
N8955 G0 Z5.08
N8960 X716.387
N8965 Z1.016
N8970 G1 Z-6.016 F2328
N8975 X-836.885
N8980 G0 Z5.08
N8985 X-1007.03
N8990 Z1.016
N8995 G1 Z-1.016 F2328
N9000 X-1007.034 Z-6.016
N9005 X-1177.387
N9010 X-1177.388 Z-1.016
N9015 X-1177.393
N9020 G3 X-1178.693 Z0.284 K1.3
N9025 G0 Z5.08
N9030 X-1165.167 Y421.492
N9035 Z1.016
N9040 G1 Z-6.016 F2328
N9045 X-1014.155
N9050 X-1014.153 Z-1.016
N9055 Z-1.015
N9060 G0 Z5.08
N9065 X-840.247
N9070 Z1.016
N9075 G1 Z-6.016 F2328
N9080 X719.238
N9085 Z-3.168
N9090 G0 Z5.08
N9095 X841.507
N9100 Z1.016
N9105 G1 Z-6.016 F2328
N9110 X1193.6
N9115 Y417.492
N9120 X843.928
N9125 X843.927 Z-1.016
N9130 G0 Z5.08
N9135 X722.057
N9140 Z1.016
N9145 G1 Z-2.73 F2328
N9150 Z-6.016
N9155 X-843.579
N9160 G0 Z5.08
N9165 X-1021.879
N9170 Z1.016
N9175 G1 Z-6.016 F2328
N9180 X-1153.603
N9185 Z-1.016
N9190 X-1153.606
N9195 G3 X-1154.906 Z0.284 K1.3
N9200 G0 Z5.08
N9205 X-1142.091 Y413.492
N9210 Z1.016
N9215 G1 Z-6.016 F2328
N9220 X-1030.45
N9225 G0 Z5.08
N9230 X-846.875
N9235 Z1.016
N9240 G1 Z-6.016 F2328
N9245 X724.844
N9250 G0 Z5.08
N9255 X846.321
N9260 Z1.016
N9265 G1 Z-1.016 F2328
N9270 X846.323 Z-6.016
N9275 X1193.6
N9280 Y409.493
N9285 X848.692
N9290 X848.69 Z-1.016
N9295 G0 Z5.08
N9300 X727.602
N9305 Z1.016
N9310 G1 Z-1.016 F2328
N9315 Z-6.016
N9320 X-850.138
N9325 G0 Z5.08
N9330 X-1040.372
N9335 Z1.016
N9340 G1 Z-1.016 F2328
N9345 X-1040.375 Z-6.016
N9350 X-1129.973
N9355 G0 Z5.08
N9360 X-1115.791 Y405.493
N9365 Z1.016
N9370 G1 Z-6.016 F2328
N9375 X-1052.923
N9380 Z-1.016
N9385 X-1052.917
N9390 G2 X-1051.617 Z0.284 K1.3
N9395 G0 Z5.08
N9400 X-853.373
N9405 Z1.016
N9410 G1 Z-6.016 F2328
N9415 X730.329
N9420 G0 Z5.08
N9425 X851.035
N9430 Z1.016
N9435 G1 Z-1.016 F2328
N9440 Z-6.016
N9445 X1193.6
N9450 Y401.493
N9455 X853.354
N9460 G0 Z5.08
N9465 X733.025
N9470 Z1.016
N9475 G1 Z-6.016 F2328
N9480 X-856.58
N9485 X-859.758 Y397.493 Z-1.016
N9490 X-859.755 Z-6.016
N9495 X735.692
N9500 X735.693 Z-1.594
N9505 Z-1.593
N9510 G0 Z5.08
N9515 X855.646
N9520 Z1.016
N9525 G1 Z-1.016 F2328
N9530 X855.647 Z-6.016
N9535 X1193.6
N9540 Y393.493
N9545 X857.915
N9550 X857.913 Z-1.016
N9555 G0 Z5.08
N9560 X-1090.638 Y401.493
N9565 Z1.016
N9570 G1 Z-6.016 F2328
N9575 X-1076.947
N9580 X-1076.945 Z-3.307
N9585 X-1076.929 Z-1.877
N9590 X-1076.928 Z-1.016
N9595 Z-1.015
N9600 G0 Z5.08
N9605 X738.328 Y393.493
N9610 Z1.016
N9615 G1 Z-6.016 F2328
N9620 X-862.898
N9625 X-866.012 Y389.493
N9630 X740.936
N9635 G0 Z5.08
N9640 X860.156
N9645 Z1.016
N9650 G1 Z-1.016 F2328
N9655 X860.158 Z-6.016
N9660 X1193.6
N9665 Y385.493
N9670 X862.378
N9675 X862.377 Z-1.016
N9680 G0 Z5.08
N9685 X743.516
N9690 Z1.016
N9695 G1 Z-1.016 F2328
N9700 X743.515 Z-6.016
N9705 X-869.099
N9710 X-872.159 Y381.493 Z-2.866
N9715 X-872.156 Z-6.016
N9720 X746.064
N9725 G0 Z5.08
N9730 X864.573
N9735 Z1.016
N9740 G1 Z-1.016 F2328
N9745 Z-6.016
N9750 X1193.6
N9755 Y377.493
N9760 X866.746
N9765 X866.745 Z-1.016
N9770 G0 Z5.08
N9775 X748.585
N9780 Z1.016
N9785 G1 Z-6.016 F2328
N9790 X-875.186
N9795 X-878.184 Y373.493
N9800 X751.079
N9805 X751.08 Z-1.016
N9810 G0 Z5.08
N9815 X868.893
N9820 Z1.016
N9825 G1 Z-1.366 F2328
N9830 X868.894 Z-6.016
N9835 X1193.6
N9840 Y369.493
N9845 X871.02
N9850 X871.018 Z-1.016
N9855 G0 Z5.08
N9860 X753.544
N9865 Z1.016
N9870 G1 Z-6.016 F2328
N9875 X-881.157
N9880 X-884.105 Y365.493
N9885 X755.981
N9890 G0 Z5.08
N9895 X873.12
N9900 Z1.016
N9905 G1 Z-1.016 F2328
N9910 X873.122 Z-6.016
N9915 X1193.6
N9920 Y361.493
N9925 X875.202
N9930 X875.2 Z-1.016
N9935 G0 Z5.08
N9940 X758.392
N9945 Z1.016
N9950 G1 Z-2.04 F2328
N9955 X758.391 Z-6.016
N9960 X-887.021
N9965 X-889.909 Y357.493
N9970 X760.773
N9975 G0 Z5.08
N9980 X877.257
N9985 Z1.016
N9990 G1 Z-1.016 F2328
N9995 X877.258 Z-6.016
N10000 X1193.6
N10005 Y353.494
N10010 X879.294
N10015 X879.293 Z-1.016
N10020 G0 Z5.08
N10025 X763.128
N10030 Z1.016
N10035 G1 Z-6.016 F2328
N10040 X-892.773
N10045 X-895.613 Y349.494
N10050 X765.458
N10055 Z-1.016
N10060 G0 Z5.08
N10065 X881.307
N10070 Z1.016
N10075 G1 Z-6.016 F2328
N10080 X1193.6
N10085 Y345.494
N10090 X883.298
N10095 X883.297 Z-1.016
N10100 G0 Z5.08
N10105 X767.76
N10110 Z1.016
N10115 G1 Z-6.016 F2328
N10120 X-898.422
N10125 X-901.203 Y341.494
N10130 X770.034
N10135 G0 Z5.08
N10140 X885.266
N10145 Z1.016
N10150 G1 Z-1.1 F2328
N10155 X885.267 Z-6.016
N10160 X1193.6
N10165 Y337.494
N10170 X887.215
N10175 X887.214 Z-1.016
N10180 G0 Z5.08
N10185 X772.285
N10190 Z1.016
N10195 G1 Z-1.016 F2328
N10200 Z-6.016
N10205 X-903.963
N10210 X-906.7 Y333.494 Z-2.808
N10215 X-906.697 Z-6.016
N10220 X774.509
N10225 Z-1.016
N10230 G0 Z5.08
N10235 X889.14
N10240 Z1.016
N10245 G1 Z-1.016 F2328
N10250 X889.141 Z-6.016
N10255 X1193.6
N10260 Y329.494
N10265 X891.048
N10270 X891.046 Z-1.016
N10275 G0 Z5.08
N10280 X776.706
N10285 Z1.016
N10290 G1 Z-6.016 F2328
N10295 X-909.404
N10300 X-912.085 Y325.494
N10305 X778.879
N10310 G0 Z5.08
N10315 X892.931
N10320 Z1.016
N10325 G1 Z-1.016 F2328
N10330 X892.932 Z-6.016
N10335 X1193.6
N10340 Y321.494
N10345 X894.796
N10350 X894.795 Z-1.016
N10355 G0 Z5.08
N10360 X781.027
N10365 Z1.016
N10370 G1 Z-1.016 F2328
N10375 X781.026 Z-6.016
N10380 X-914.744
N10385 X-917.38 Y317.494 Z-2.443
N10390 X-917.377 Z-6.016
N10395 X783.148
N10400 G0 Z5.08
N10405 X896.639
N10410 Z1.016
N10415 G1 Z-1.627 F2328
N10420 Z-6.016
N10425 X1193.6
N10430 Y313.494
N10435 X898.463
N10440 Z-1.016
N10445 G0 Z5.08
N10450 X785.245
N10455 Z1.016
N10460 G1 Z-6.016 F2328
N10465 X-919.984
N10470 X-922.568 Y309.494
N10475 X787.318
N10480 G0 Z5.08
N10485 X900.265
N10490 Z1.016
N10495 G1 Z-6.016 F2328
N10500 X1193.6
N10505 Y305.494
N10510 X902.048
N10515 X902.047 Z-1.016
N10520 G0 Z5.08
N10525 X789.366
N10530 Z1.016
N10535 G1 Z-6.016 F2328
N10540 X-925.128
N10545 X-925.131 Z-3.426
N10550 X-927.666 Y301.494 Z-6.016
N10555 X791.388
N10560 G0 Z5.08
N10565 X903.81
N10570 Z1.016
N10575 G1 Z-1.016 F2328
N10580 X903.811 Z-6.016
N10585 X1193.6
N10590 Y297.495
N10595 X905.554
N10600 X905.552 Z-1.016
N10605 Z-1.015
N10610 G0 Z5.08
N10615 X793.388
N10620 Z1.016
N10625 G1 Z-6.016 F2328
N10630 X-930.176
N10635 X-932.666 Y293.495
N10640 X795.364
N10645 X795.365 Z-1.016
N10650 G0 Z5.08
N10655 X907.276
N10660 Z1.016
N10665 G1 Z-1.016 F2328
N10670 X907.278 Z-6.016
N10675 X1193.6
N10680 Y289.495
N10685 X908.982
N10690 X908.981 Z-1.016
N10695 G0 Z5.08
N10700 X797.316
N10705 Z1.016
N10710 G1 Z-6.016 F2328
N10715 X-935.132
N10720 X-935.135 Z-2.461
N10725 X-937.574 Y285.495 Z-6.016
N10730 X27.78
N10735 X27.782 Z-2.544
N10740 X27.789 Z-1.016
N10745 X27.799
N10750 G2 X29.099 Z0.284 K1.3
N10755 G0 Z5.08
N10760 X102.104
N10765 Z1.016
N10770 G1 Z-1.372 F2328
N10775 X102.105 Z-6.016
N10780 X799.242
N10785 G0 Z5.08
N10790 X910.666
N10795 Z1.016
N10800 G1 Z-1.016 F2328
N10805 Z-6.016
N10810 X1193.6
N10815 Y281.495
N10820 X912.331
N10825 Z-1.016
N10830 G0 Z5.08
N10835 X801.147
N10840 Z1.016
N10845 G1 Z-6.016 F2328
N10850 X135.658
N10855 G0 Z5.08
N10860 X-5.466
N10865 Z1.016
N10870 G1 Z0.284 F2328
N10875 G3 X-6.766 Z-1.016 I-1.3
N10880 G1 X-6.77
N10885 X-6.773 Z-6.016
N10890 X-939.994
N10895 X-942.394 Y277.495
N10900 X-29.54
N10905 Z-1.016
N10910 X-29.533
N10915 G2 X-28.233 Z0.284 K1.3
N10920 G0 Z5.08
N10925 X156.117
N10930 Z1.016
N10935 G1 Z0.284 F2328
N10940 G2 X157.417 Z-1.016 I1.3
N10945 G1 X157.424
N10950 Z-6.016
N10955 X803.029
N10960 X803.03 Z-1.016
N10965 G0 Z5.08
N10970 X913.978
N10975 Z1.016
N10980 G1 Z-1.016 F2328
N10985 X913.979 Z-6.016
N10990 X1193.6
N10995 Y273.495
N11000 X915.606
N11005 G0 Z5.08
N11010 X804.886
N11015 Z1.016
N11020 G1 Z-1.016 F2328
N11025 Z-6.016
N11030 X174.712
N11035 X174.71 Z-1.016
N11040 X174.705
N11045 G3 X173.405 Z0.284 K1.3
N11050 G0 Z5.08
N11055 X-46.526
N11060 Z1.016
N11065 G1 Z0.284 F2328
N11070 G3 X-47.826 Z-1.016 I-1.3
N11075 G1 X-47.834
N11080 Z-6.016
N11085 X-944.766
N11090 X-947.117 Y269.495
N11095 X-63.559
N11100 X-63.558 Z-1.016
N11105 X-63.553
N11110 G2 X-62.253 Z0.284 K1.3
N11115 G0 Z5.08
N11120 X189.423
N11125 Z1.016
N11130 G1 Z-1.009 F2328
N11135 Z-1.016
N11140 X189.429 Z-2.24
N11145 Z-6.016
N11150 X806.72
N11155 G0 Z5.08
N11160 X917.215
N11165 Z1.016
N11170 G1 Z-1.016 F2328
N11175 Z-6.016
N11180 X1193.6
N11185 Y265.495
N11190 X918.805
N11195 Z-2.229
N11200 G0 Z5.08
N11205 X808.533
N11210 Z1.016
N11215 G1 Z-6.016 F2328
N11220 X202.414
N11225 X202.41 Z-1.016
N11230 Z-1.015
N11235 G0 Z5.08
N11240 X-77.551
N11245 Z1.016
N11250 G1 Z-1.016 F2328
N11255 X-77.557 Z-6.016
N11260 X-949.449
N11265 X-951.757 Y261.495
N11270 X-90.287
N11275 X-90.284 Z-1.016
N11280 Z-1.015
N11285 G0 Z5.08
N11290 X214.124
N11295 Z1.016
N11300 G1 Z-1.015 F2328
N11305 Z-1.016
N11310 X214.129 Z-6.016
N11315 X810.322
N11320 X810.323 Z-1.016
N11325 G0 Z5.08
N11330 X920.375
N11335 Z1.016
N11340 G1 Z-1.016 F2328
N11345 X920.377 Z-6.016
N11350 X1193.6
N11355 Y257.495
N11360 X921.929
N11365 X921.927 Z-1.016
N11370 G0 Z5.08
N11375 X812.089
N11380 Z1.016
N11385 G1 Z-6.016 F2328
N11390 X224.861
N11395 G0 Z5.08
N11400 X-102.024
N11405 Z1.016
N11410 G1 Z-1.016 F2328
N11415 X-102.028 Z-6.016
N11420 X-954.04
N11425 X-956.306 Y253.495
N11430 X-112.954
N11435 X-112.952 Z-1.016
N11440 X-112.948
N11445 G2 X-111.648 Z0.284 K1.3
N11450 G0 Z5.08
N11455 X234.795
N11460 Z1.016
N11465 G1 Z-1.016 F2328
N11470 X234.796 Z-6.016
N11475 X813.833
N11480 G0 Z5.08
N11485 X923.462
N11490 Z1.016
N11495 G1 Z-1.016 F2328
N11500 X923.464 Z-6.016
N11505 X1193.6
N11510 Y249.495
N11515 X924.981
N11520 X924.979 Z-1.016
N11525 Z-1.015
N11530 G0 Z5.08
N11535 X815.554
N11540 Z1.016
N11545 G1 Z-6.016 F2328
N11550 X244.074
N11555 X244.072 Z-1.666
N11560 Z-1.665
N11565 G0 Z5.08
N11570 X-123.19
N11575 Z1.016
N11580 G1 Z-1.016 F2328
N11585 X-123.195 Z-6.016
N11590 X-958.55
N11595 X-960.768 Y245.496
N11600 X-132.852
N11605 G0 Z5.08
N11610 X252.79
N11615 Z1.016
N11620 G1 Z-1.016 F2328
N11625 X252.792 Z-6.016
N11630 X817.255
N11635 G0 Z5.08
N11640 X926.477
N11645 Z1.016
N11650 G1 Z-1.016 F2328
N11655 X926.479 Z-6.016
N11660 X1193.6
N11665 Y241.496
N11670 X927.959
N11675 X927.958 Z-1.016
N11680 G0 Z5.08
N11685 X818.933
N11690 Z1.016
N11695 G1 Z-6.016 F2328
N11700 X261.029
N11705 X261.026 Z-1.016
N11710 Z-1.015
N11715 G0 Z5.08
N11720 X-141.994
N11725 Z1.016
N11730 G1 Z-1.016 F2328
N11735 X-141.997 Z-6.016
N11740 X-962.969
N11745 X-965.151 Y237.496 Z-1.016
N11750 Z-6.016
N11755 X-150.699
N11760 X-150.696 Z-1.016
N11765 Z-1.015
N11770 G0 Z5.08
N11775 X268.843
N11780 Z1.016
N11785 G1 Z-1.016 F2328
N11790 Z-6.016
N11795 X820.588
N11800 G0 Z5.08
N11805 X929.421
N11810 Z1.016
N11815 G1 Z-1.016 F2328
N11820 X929.422 Z-6.016
N11825 X1193.6
N11830 Y233.496
N11835 X930.866
N11840 X930.865 Z-1.016
N11845 G0 Z5.08
N11850 X822.222
N11855 Z1.016
N11860 G1 Z-6.016 F2328
N11865 X276.286
N11870 X276.285 Z-1.016
N11875 G0 Z5.08
N11880 X-159
N11885 Z1.016
N11890 G1 Z-6.016 F2328
N11895 X-967.305
N11900 X-969.441 Y229.496
N11905 X-166.945
N11910 G0 Z5.08
N11915 X283.392
N11920 Z1.016
N11925 G1 Z-1.016 F2328
N11930 X283.393 Z-6.016
N11935 X823.835
N11940 G0 Z5.08
N11945 X932.292
N11950 Z1.016
N11955 G1 Z-6.016 F2328
N11960 X1193.6
N11965 Y225.496
N11970 X933.702
N11975 Z-1.292
N11980 G0 Z5.08
N11985 X825.427
N11990 Z1.016
N11995 G1 Z-1.016 F2328
N12000 Z-6.016
N12005 X290.2
N12010 X290.198 Z-1.016
N12015 Z-1.015
N12020 G0 Z5.08
N12025 X-174.565
N12030 Z1.016
N12035 G1 Z-1.053 F2328
N12040 X-174.566 Z-6.016
N12045 X-971.559
N12050 X-971.562 Z-1.158
N12055 X-973.654 Y221.496 Z-6.016
N12060 X-181.894
N12065 X-181.892 Z-1.84
N12070 G0 Z5.08
N12075 X296.731
N12080 Z1.016
N12085 G1 Z-1.016 F2328
N12090 X296.734 Z-6.016
N12095 X826.996
N12100 G0 Z5.08
N12105 X935.094
N12110 Z1.016
N12115 G1 Z-6.016 F2328
N12120 X1193.6
N12125 Y217.496
N12130 X936.468
N12135 X936.467 Z-1.992
N12140 G0 Z5.08
N12145 X828.544
N12150 Z1.016
N12155 G1 Z-6.016 F2328
N12160 X303.017
N12165 X303.015 Z-1.016
N12170 G0 Z5.08
N12175 X-188.951
N12180 Z1.016
N12185 G1 Z-6.016 F2328
N12190 X-975.728
N12195 X-977.787 Y213.496 Z-2.296
N12200 X-977.784 Z-6.016
N12205 X-195.759
N12210 X-195.757 Z-1.016
N12215 X-195.756
N12220 G2 X-194.456 Z0.284 K1.3
N12225 G0 Z5.08
N12230 X309.069
N12235 Z1.016
N12240 G1 Z-1.016 F2328
N12245 X309.07 Z-6.016
N12250 X830.073
N12255 G0 Z5.08
N12260 X937.824
N12265 Z1.016
N12270 G1 Z-1.016 F2328
N12275 Z-6.016
N12280 X1193.6
N12285 Y209.496
N12290 X939.163
N12295 Z-1.473
N12300 G0 Z5.08
N12305 X831.58
N12310 Z1.016
N12315 G1 Z-1.016 F2328
N12320 Z-6.016
N12325 X314.909
N12330 X314.908 Z-1.016
N12335 G0 Z5.08
N12340 X-202.333
N12345 Z1.016
N12350 G1 Z-1.016 F2328
N12355 X-202.335 Z-6.016
N12360 X-979.819
N12365 X-981.833 Y205.496
N12370 X-208.7
N12375 X-208.699 Z-1.016
N12380 G0 Z5.08
N12385 X319.251
N12390 Z1.016
N12395 G1 Z0.284 F2328
N12400 G2 X320.551 Z-1.016 I1.3
N12405 G1 X320.552
N12410 X320.553 Z-6.016
N12415 X833.065
N12420 Z-1.016
N12425 G0 Z5.08
N12430 X940.485
N12435 Z1.016
N12440 G1 Z-1.016 F2328
N12445 X940.486 Z-6.016
N12450 X1193.6
N12455 Y201.496
N12460 X941.791
N12465 X941.79 Z-1.016
N12470 G0 Z5.08
N12475 X834.53
N12480 Z1.016
N12485 G1 Z-6.016 F2328
N12490 X326.012
N12495 G0 Z5.08
N12500 X-214.86
N12505 Z1.016
N12510 G1 Z-1.016 F2328
N12515 X-214.862 Z-6.016
N12520 X-983.828
N12525 X-983.831 Z-2.329
N12530 X-985.803 Y197.496 Z-6.016
N12535 X-220.84
N12540 X-220.837 Z-1.016
N12545 Z-1.015
N12550 G0 Z5.08
N12555 X331.296
N12560 Z1.016
N12565 G1 Z-1.016 F2328
N12570 X331.299 Z-6.016
N12575 X835.974
N12580 G0 Z5.08
N12585 X943.078
N12590 Z1.016
N12595 G1 Z-1.016 F2328
N12600 X943.079 Z-6.016
N12605 X1193.6
N12610 Y193.496
N12615 X944.35
N12620 X944.349 Z-1.016
N12625 G0 Z5.08
N12630 X837.398
N12635 Z1.016
N12640 G1 Z-6.016 F2328
N12645 X336.425
N12650 G0 Z5.08
N12655 X-226.638
N12660 Z1.016
N12665 G1 Z-1.016 F2328
N12670 X-226.639 Z-6.016
N12675 X-987.758
N12680 X-989.698 Y189.497 Z-2.552
N12685 X-989.695 Z-6.016
N12690 X-232.275
N12695 X-232.273 Z-1.016
N12700 Z-1.015
N12705 G0 Z5.08
N12710 X341.396
N12715 Z1.016
N12720 G1 Z-1.016 F2328
N12725 X341.399 Z-6.016
N12730 X838.802
N12735 G0 Z5.08
N12740 X945.603
N12745 Z1.016
N12750 G1 Z-1.016 F2328
N12755 X945.604 Z-6.016
N12760 X1193.6
N12765 Y185.497
N12770 X946.842
N12775 X946.84 Z-1.016
N12780 G0 Z5.08
N12785 X840.185
N12790 Z1.016
N12795 G1 Z-1.016 F2328
N12800 Z-6.016
N12805 X346.23
N12810 X346.228 Z-1.016
N12815 G0 Z5.08
N12820 X-237.749
N12825 Z1.016
N12830 G1 Z-1.016 F2328
N12835 X-237.752 Z-6.016
N12840 X-991.611
N12845 X-993.507 Y181.497
N12850 X-243.083
N12855 G0 Z5.08
N12860 X22.027
N12865 Z1.016
N12870 G1 Z-6.016 F2328
N12875 X116.544
N12880 G0 Z5.08
N12885 X350.924
N12890 Z1.016
N12895 G1 Z-1.321 F2328
N12900 Z-6.016
N12905 X841.547
N12910 G0 Z5.08
N12915 X948.06
N12920 Z1.016
N12925 G1 Z-1.016 F2328
N12930 X948.061 Z-6.016
N12935 X1193.6
N12940 Y177.497
N12945 X949.265
N12950 X949.264 Z-1.016
N12955 G0 Z5.08
N12960 X842.89
N12965 Z1.016
N12970 G1 Z-6.016 F2328
N12975 X355.491
N12980 X355.49 Z-1.016
N12985 X355.488
N12990 G3 X354.188 Z0.284 K1.3
N12995 G0 Z5.08
N13000 X140.901
N13005 Z1.016
N13010 G1 Z-6.016 F2328
N13015 X-6.22
N13020 G0 Z5.08
N13025 X-248.268
N13030 Z1.016
N13035 G1 Z-1.016 F2328
N13040 X-248.271 Z-6.016
N13045 X-995.389
N13050 X-997.245 Y173.497
N13055 X-253.325
N13060 X-253.322 Z-1.016
N13065 Z-1.015
N13070 G0 Z5.08
N13075 X-26.55
N13080 Z1.016
N13085 G1 Z-6.016 F2328
N13090 X157.382
N13095 G0 Z5.08
N13100 X359.932
N13105 Z1.016
N13110 G1 Z-1.016 F2328
N13115 X359.934 Z-6.016
N13120 X844.213
N13125 G0 Z5.08
N13130 X950.45
N13135 Z1.016
N13140 G1 Z-1.016 F2328
N13145 X950.452 Z-6.016
N13150 X1193.6
N13155 Y169.497
N13160 X951.622
N13165 X951.621 Z-1.016
N13170 G0 Z5.08
N13175 X845.516
N13180 Z1.016
N13185 G1 Z-3.375 F2328
N13190 Z-6.016
N13195 X364.261
N13200 X364.26 Z-1.016
N13205 G0 Z5.08
N13210 X170.178
N13215 Z1.016
N13220 G1 Z-6.016 F2328
N13225 X-43.135
N13230 G0 Z5.08
N13235 X-258.25
N13240 Z1.016
N13245 G1 Z-1.016 F2328
N13250 X-258.252 Z-6.016
N13255 X-999.083
N13260 X-1000.906 Y165.497
N13265 X-263.056
N13270 X-263.055 Z-1.016
N13275 G0 Z5.08
N13280 X-58.681
N13285 Z1.016
N13290 G1 Z0.284 F2328
N13295 G2 X-57.381 Z-1.016 I1.3
N13300 G1 X-57.375
N13305 Z-6.016
N13310 X181.254
N13315 G0 Z5.08
N13320 X368.478
N13325 Z1.016
N13330 G1 Z-6.016 F2328
N13335 X846.8
N13340 X846.801 Z-1.016
N13345 G0 Z5.08
N13350 X952.775
N13355 Z1.016
N13360 G1 Z-1.016 F2328
N13365 X952.777 Z-6.016
N13370 X1193.6
N13375 Y161.497
N13380 X953.913
N13385 X953.912 Z-1.016
N13390 G0 Z5.08
N13395 X848.063
N13400 Z1.016
N13405 G1 Z-6.016 F2328
N13410 X372.587
N13415 X372.586 Z-1.016
N13420 G0 Z5.08
N13425 X191.328
N13430 Z1.016
N13435 G1 Z-6.016 F2328
N13440 X-69.936
N13445 G0 Z5.08
N13450 X-267.742
N13455 Z1.016
N13460 G1 Z-1.016 F2328
N13465 X-267.744 Z-6.016
N13470 X-1002.703
N13475 X-1004.488 Y157.497
N13480 X-272.32
N13485 Z-1.016
N13490 X-272.317
N13495 G2 X-271.017 Z0.284 K1.3
N13500 G0 Z5.08
N13505 X-81.214
N13510 Z1.016
N13515 G1 Z-6.016 F2328
N13520 X200.596
N13525 G0 Z5.08
N13530 X376.595
N13535 Z1.016
N13540 G1 Z-1.016 F2328
N13545 X376.596 Z-6.016
N13550 X849.306
N13555 G0 Z5.08
N13560 X955.033
N13565 Z1.016
N13570 G1 Z-1.016 F2328
N13575 X955.035 Z-6.016
N13580 X1193.6
N13585 Y153.497
N13590 X956.138
N13595 Z-1.016
N13600 G0 Z5.08
N13605 X850.531
N13610 Z1.016
N13615 G1 Z-6.016 F2328
N13620 X380.509
N13625 X380.508 Z-1.016
N13630 G0 Z5.08
N13635 X209.206
N13640 Z1.016
N13645 G1 Z-6.016 F2328
N13650 X-91.454
N13655 G0 Z5.08
N13660 X-276.785
N13665 Z1.016
N13670 G1 Z-1.016 F2328
N13675 X-276.788 Z-6.016
N13680 X-1006.257
N13685 X-1006.26 Z-1.016
N13690 X-1008.002 Y149.497 Z-6.016
N13695 X-281.153
N13700 X-281.151 Z-1.016
N13705 Z-1.015
N13710 G0 Z5.08
N13715 X-100.822
N13720 Z1.016
N13725 G1 Z-6.016 F2328
N13730 X217.256
N13735 G0 Z5.08
N13740 X384.329
N13745 Z1.016
N13750 G1 Z-1.016 F2328
N13755 X384.331 Z-6.016
N13760 X851.736
N13765 G0 Z5.08
N13770 X957.227
N13775 Z1.016
N13780 G1 Z-6.016 F2328
N13785 X1193.6
N13790 Y145.497
N13795 X958.299
N13800 Z-1.016
N13805 G0 Z5.08
N13810 X852.923
N13815 Z1.016
N13820 G1 Z-1.016 F2328
N13825 Z-6.016
N13830 X388.064
N13835 G0 Z5.08
N13840 X224.822
N13845 Z1.016
N13850 G1 Z-6.016 F2328
N13855 X-109.449
N13860 G0 Z5.08
N13865 X-285.418
N13870 Z1.016
N13875 G1 Z-1.016 F2328
N13880 X-285.419 Z-6.016
N13885 X-1009.732
N13890 G0 Z5.08
N13895 X-1011.448 Y141.497
N13900 Z1.016
N13905 G1 Z-1.016 F2328
N13910 X-1011.444 Z-6.016
N13915 X-289.589
N13920 X-289.588 Z-1.016
N13925 G0 Z5.08
N13930 X-117.456
N13935 Z1.016
N13940 G1 Z-6.016 F2328
N13945 X231.964
N13950 G0 Z5.08
N13955 X391.708
N13960 Z1.016
N13965 G1 Z-1.016 F2328
N13970 X391.709 Z-6.016
N13975 X854.089
N13980 X854.09 Z-1.016
N13985 G0 Z5.08
N13990 X959.354
N13995 Z1.016
N14000 G1 Z-6.016 F2328
N14005 X1193.6
N14010 Y137.497
N14015 X960.393
N14020 G0 Z5.08
N14025 X855.236
N14030 Z1.016
N14035 G1 Z-6.016 F2328
N14040 X395.273
N14045 X395.272 Z-1.016
N14050 G0 Z5.08
N14055 X238.739
N14060 Z1.016
N14065 G1 Z-6.016 F2328
N14070 X-125.016
N14075 G0 Z5.08
N14080 X-293.666
N14085 Z1.016
N14090 G1 Z-1.016 F2328
N14095 X-293.667 Z-6.016
N14100 X-1013.136
N14105 X-1014.811 Y133.498 Z-1.016
N14110 X-1014.81 Z-6.016
N14115 X-297.656
N14120 X-297.655 Z-1.759
N14125 Z-1.758
N14130 G0 Z5.08
N14135 X-132.206
N14140 Z1.016
N14145 G1 Z-1.016 F2328
N14150 X-132.205 Z-6.016
N14155 X245.178
N14160 X245.18 Z-2.204
N14165 G0 Z5.08
N14170 X398.755
N14175 Z1.016
N14180 G1 Z-1.016 F2328
N14185 X398.757 Z-6.016
N14190 X856.364
N14195 G0 Z5.08
N14200 X961.416
N14205 Z1.016
N14210 G1 Z-1.016 F2328
N14215 Z-6.016
N14220 X1193.6
N14225 Y129.498
N14230 X962.423
N14235 G0 Z5.08
N14240 X857.474
N14245 Z1.016
N14250 G1 Z-6.016 F2328
N14255 X402.161
N14260 X402.16 Z-1.016
N14265 G0 Z5.08
N14270 X251.318
N14275 Z1.016
N14280 G1 Z-1.016 F2328
N14285 X251.316 Z-6.016
N14290 X-139.064
N14295 G0 Z5.08
N14300 X-301.557
N14305 Z1.016
N14310 G1 Z-1.016 F2328
N14315 X-301.558 Z-6.016
N14320 X-1016.464
N14325 X-1018.099 Y125.498
N14330 X-305.377
N14335 X-305.376 Z-1.016
N14340 G0 Z5.08
N14345 X-145.626
N14350 Z1.016
N14355 G1 Z-6.016 F2328
N14360 X257.181
N14365 G0 Z5.08
N14370 X405.488
N14375 Z1.016
N14380 G1 Z-1.016 F2328
N14385 X405.49 Z-6.016
N14390 X858.564
N14395 G0 Z5.08
N14400 X963.413
N14405 Z1.016
N14410 G1 Z-1.016 F2328
N14415 X963.414 Z-6.016
N14420 X1193.6
N14425 Y121.498
N14430 X964.389
N14435 X964.388 Z-1.178
N14440 Z-1.177
N14445 G0 Z5.08
N14450 X859.637
N14455 Z1.016
N14460 G1 Z-1.016 F2328
N14465 Z-6.016
N14470 X408.743
N14475 X408.742 Z-1.016
N14480 G0 Z5.08
N14485 X262.796
N14490 Z1.016
N14495 G1 Z-1.595 F2328
N14500 X262.793 Z-6.016
N14505 X-151.919
N14510 X-151.922 Z-2.441
N14515 Z-2.44
N14520 G0 Z5.08
N14525 X-309.114
N14530 Z1.016
N14535 G1 Z-1.016 F2328
N14540 X-309.115 Z-6.016
N14545 X-1019.719
N14550 X-1019.722 Z-3.151
N14555 X-1021.32 Y117.498 Z-6.016
N14560 X-312.775
N14565 X-312.773 Z-1.016
N14570 Z-1.015
N14575 G0 Z5.08
N14580 X-157.971
N14585 Z1.016
N14590 G1 Z-6.016 F2328
N14595 X268.179
N14600 X268.18 Z-3.087
N14605 G0 Z5.08
N14610 X411.925
N14615 Z1.016
N14620 G1 Z-6.016 F2328
N14625 X860.69
N14630 Z-1.016
N14635 G0 Z5.08
N14640 X965.347
N14645 Z1.016
N14650 G1 Z-1.016 F2328
N14655 Z-6.016
N14660 X1193.6
N14665 Y113.498
N14670 X966.291
N14675 X966.289 Z-1.016
N14680 G0 Z5.08
N14685 X861.724
N14690 Z1.016
N14695 G1 Z-6.016 F2328
N14700 X415.038
N14705 G0 Z5.08
N14710 X273.349
N14715 Z1.016
N14720 G1 Z-6.016 F2328
N14725 X-163.797
N14730 G0 Z5.08
N14735 X-316.356
N14740 Z1.016
N14745 G1 Z-1.016 F2328
N14750 X-316.358 Z-6.016
N14755 X-1022.903
N14760 X-1024.476 Y109.498 Z-3.195
N14765 X-1024.473 Z-6.016
N14770 X-319.868
N14775 X-319.866 Z-1.016
N14780 Z-1.015
N14785 G0 Z5.08
N14790 X-169.419
N14795 Z1.016
N14800 G1 Z-1.016 F2328
N14805 X-169.417 Z-6.016
N14810 X278.321
N14815 G0 Z5.08
N14820 X418.08
N14825 Z1.016
N14830 G1 Z-6.016 F2328
N14835 X862.739
N14840 G0 Z5.08
N14845 X967.216
N14850 Z1.016
N14855 G1 Z-1.016 F2328
N14860 X967.217 Z-6.016
N14865 X1193.6
N14870 Y105.498
N14875 X968.128
N14880 X968.126 Z-1.016
N14885 G0 Z5.08
N14890 X863.737
N14895 Z1.016
N14900 G1 Z-6.016 F2328
N14905 X421.056
N14910 G0 Z5.08
N14915 X283.112
N14920 Z1.016
N14925 G1 Z-6.016 F2328
N14930 X-174.844
N14935 X-174.845 Z-1.016
N14940 G0 Z5.08
N14945 X-323.304
N14950 Z1.016
N14955 G1 Z-1.016 F2328
N14960 X-323.306 Z-6.016
N14965 X-1026.02
N14970 X-1027.559 Y101.498
N14975 X-326.674
N14980 X-326.673 Z-1.016
N14985 G0 Z5.08
N14990 X-180.093
N14995 Z1.016
N15000 G1 Z-6.016 F2328
N15005 X287.734
N15010 G0 Z5.08
N15015 X423.966
N15020 Z1.016
N15025 G1 Z-1.016 F2328
N15030 Z-6.016
N15035 X864.716
N15040 G0 Z5.08
N15045 X969.021
N15050 Z1.016
N15055 G1 Z-1.016 F2328
N15060 X969.022 Z-6.016
N15065 X1193.6
N15070 Y97.498
N15075 X969.901
N15080 X969.9 Z-1.016
N15085 G0 Z5.08
N15090 X865.677
N15095 Z1.016
N15100 G1 Z-6.016 F2328
N15105 X426.813
N15110 X426.812 Z-1.016
N15115 G0 Z5.08
N15120 X292.192
N15125 Z1.016
N15130 G1 Z-6.016 F2328
N15135 X-185.175
N15140 Z-3.321
N15145 G0 Z5.08
N15150 X-329.974
N15155 Z1.016
N15160 G1 Z-2.901 F2328
N15165 Z-6.016
N15170 X-1029.074
N15175 X-1029.075 Z-1.016
N15180 X-1030.568 Y93.498 Z-6.016
N15185 X-333.207
N15190 Z-1.123
N15195 G0 Z5.08
N15200 X-190.1
N15205 Z1.016
N15210 G1 Z-6.016 F2328
N15215 X296.493
N15220 G0 Z5.08
N15225 X429.596
N15230 Z1.016
N15235 G1 Z-1.016 F2328
N15240 Z-6.016
N15245 X866.62
N15250 X866.621 Z-1.016
N15255 G0 Z5.08
N15260 X970.763
N15265 Z1.016
N15270 G1 Z-1.016 F2328
N15275 X970.765 Z-6.016
N15280 X1193.6
N15285 Y89.498
N15290 X971.612
N15295 X971.611 Z-1.016
N15300 G0 Z5.08
N15305 X867.544
N15310 Z1.016
N15315 G1 Z-3.495 F2328
N15320 Z-6.016
N15325 X432.319
N15330 Z-1.016
N15335 G0 Z5.08
N15340 X300.656
N15345 Z1.016
N15350 G1 Z-6.016 F2328
N15355 X-194.878
N15360 G0 Z5.08
N15365 X-336.374
N15370 Z1.016
N15375 G1 Z-1.016 F2328
N15380 X-336.376 Z-6.016
N15385 X-1032.051
N15390 X-1032.053 Z-1.016
N15395 X-1033.514 Y85.498 Z-3.196
N15400 X-1033.511 Z-6.016
N15405 X-339.482
N15410 X-339.479 Z-1.016
N15415 Z-1.015
N15420 G0 Z5.08
N15425 X-199.516
N15430 Z1.016
N15435 G1 Z-2.55 F2328
N15440 X-199.513 Z-6.016
N15445 X304.681
N15450 G0 Z5.08
N15455 X434.982
N15460 Z1.016
N15465 G1 Z-6.016 F2328
N15470 X868.45
N15475 G0 Z5.08
N15480 X972.442
N15485 Z1.016
N15490 G1 Z-1.016 F2328
N15495 X972.444 Z-6.016
N15500 X1193.6
N15505 Y81.499
N15510 X973.259
N15515 X973.258 Z-1.016
N15520 G0 Z5.08
N15525 X869.337
N15530 Z1.016
N15535 G1 Z-6.016 F2328
N15540 X437.585
N15545 G0 Z5.08
N15550 X308.574
N15555 Z1.016
N15560 G1 Z-6.016 F2328
N15565 X-204.023
N15570 Z-1.016
N15575 G0 Z5.08
N15580 X-342.524
N15585 Z1.016
N15590 G1 Z-1.016 F2328
N15595 X-342.526 Z-6.016
N15600 X-1034.96
N15605 X-1036.391 Y77.499 Z-3.137
N15610 Z-6.016
N15615 X-345.51
N15620 G0 Z5.08
N15625 X-208.403
N15630 Z1.016
N15635 G1 Z-6.016 F2328
N15640 X312.351
N15645 G0 Z5.08
N15650 X440.131
N15655 Z1.016
N15660 G1 Z-1.171 F2328
N15665 Z-6.016
N15670 X870.208
N15675 G0 Z5.08
N15680 X974.058
N15685 Z1.016
N15690 G1 Z-1.016 F2328
N15695 X974.059 Z-6.016
N15700 X1193.6
N15705 Y73.499
N15710 X974.843
N15715 X974.842 Z-1.016
N15720 G0 Z5.08
N15725 X871.061
N15730 Z1.016
N15735 G1 Z-3.474 F2328
N15740 Z-6.016
N15745 X442.62
N15750 G0 Z5.08
N15755 X316.001
N15760 Z1.016
N15765 G1 Z-6.016 F2328
N15770 X-212.664
N15775 G0 Z5.08
N15780 X-348.434
N15785 Z1.016
N15790 G1 Z-1.016 F2328
N15795 Z-6.016
N15800 X-1037.803
N15805 X-1039.197 Y69.499
N15810 X-351.302
N15815 X-351.3 Z-1.016
N15820 G0 Z5.08
N15825 X-216.811
N15830 Z1.016
N15835 G1 Z-6.016 F2328
N15840 X319.548
N15845 G0 Z5.08
N15850 X445.053
N15855 Z1.016
N15860 G1 Z-1.016 F2328
N15865 X445.054 Z-6.016
N15870 X871.895
N15875 X871.896 Z-1.016
N15880 G0 Z5.08
N15885 X975.61
N15890 Z1.016
N15895 G1 Z-1.016 F2328
N15900 X975.612 Z-6.016
N15905 X1193.6
N15910 Y65.499
N15915 X976.364
N15920 X976.363 Z-1.016
N15925 G0 Z5.08
N15930 X872.713
N15935 Z1.016
N15940 G1 Z-2.563 F2328
N15945 X872.712 Z-6.016
N15950 X447.432
N15955 Z-1.016
N15960 G0 Z5.08
N15965 X322.978
N15970 Z1.016
N15975 G1 Z-6.016 F2328
N15980 X-220.847
N15985 X-220.85 Z-2.633
N15990 Z-2.632
N15995 G0 Z5.08
N16000 X-354.112
N16005 Z1.016
N16010 G1 Z-1.016 F2328
N16015 Z-6.016
N16020 X-1040.581
N16025 X-1040.583 Z-1.016
N16030 X-1041.943 Y61.499 Z-3.15
N16035 X-1041.94 Z-6.016
N16040 X-356.87
N16045 G0 Z5.08
N16050 X-224.783
N16055 Z1.016
N16060 G1 Z-6.016 F2328
N16065 X326.315
N16070 G0 Z5.08
N16075 X449.756
N16080 Z1.016
N16085 G1 Z-1.016 F2328
N16090 X449.758 Z-6.016
N16095 X873.511
N16100 G0 Z5.08
N16105 X977.1
N16110 Z1.016
N16115 G1 Z-1.016 F2328
N16120 X977.101 Z-6.016
N16125 X1193.6
N16130 Y57.499
N16135 X977.822
N16140 Z-1.367
N16145 G0 Z5.08
N16150 X874.292
N16155 Z1.016
N16160 G1 Z-6.016 F2328
N16165 X452.03
N16170 X452.029 Z-1.016
N16175 G0 Z5.08
N16180 X329.544
N16185 Z1.016
N16190 G1 Z-6.016 F2328
N16195 X-228.617
N16200 X-228.618 Z-1.016
N16205 G0 Z5.08
N16210 X-359.57
N16215 Z1.016
N16220 G1 Z-1.016 F2328
N16225 X-359.572 Z-6.016
N16230 X-1043.286
N16235 X-1044.622 Y53.499 Z-1.016
N16240 X-1044.617 Z-6.016
N16245 X-362.221
N16250 X-362.219 Z-1.016
N16255 Z-1.015
N16260 G0 Z5.08
N16265 X-232.353
N16270 Z1.016
N16275 G1 Z-6.016 F2328
N16280 X332.685
N16285 G0 Z5.08
N16290 X454.249
N16295 Z1.016
N16300 G1 Z-1.016 F2328
N16305 X454.25 Z-6.016
N16310 X875.055
N16315 G0 Z5.08
N16320 X978.527
N16325 Z1.016
N16330 G1 Z-1.016 F2328
N16335 X978.528 Z-6.016
N16340 X1193.6
N16345 Y49.499
N16350 X979.217
N16355 X979.216 Z-1.016
N16360 G0 Z5.08
N16365 X875.802
N16370 Z1.016
N16375 G1 Z-6.016 F2328
N16380 X456.419
N16385 X456.417 Z-1.016
N16390 G0 Z5.08
N16395 X335.728
N16400 Z1.016
N16405 G1 Z-6.016 F2328
N16410 X-235.996
N16415 X-235.999 Z-1.529
N16420 Z-1.528
N16425 G0 Z5.08
N16430 X-364.818
N16435 Z1.016
N16440 G1 Z-6.016 F2328
N16445 X-1045.929
N16450 X-1045.932 Z-2.145
N16455 X-1047.231 Y45.499 Z-1.016
N16460 X-1047.227 Z-6.016
N16465 X-367.365
N16470 X-367.363 Z-1.016
N16475 G0 Z5.08
N16480 X-239.553
N16485 Z1.016
N16490 G1 Z-6.016 F2328
N16495 X338.687
N16500 G0 Z5.08
N16505 X458.537
N16510 Z1.016
N16515 G1 Z-1.016 F2328
N16520 X458.538 Z-6.016
N16525 X876.531
N16530 G0 Z5.08
N16535 X979.891
N16540 Z1.016
N16545 G1 Z-6.016 F2328
N16550 X1193.6
N16555 Y41.499
N16560 X980.55
N16565 X980.549 Z-1.016
N16570 G0 Z5.08
N16575 X877.243
N16580 Z1.016
N16585 G1 Z-6.016 F2328
N16590 X460.607
N16595 G0 Z5.08
N16600 X341.561
N16605 Z1.016
N16610 G1 Z-6.016 F2328
N16615 X-243.022
N16620 G0 Z5.08
N16625 X-368.56
N16630 Z1.016
N16635 G1 Z0.284 F2328
N16640 G3 X-369.86 Z-1.016 I-1.3
N16645 G1 X-369.861
N16650 X-369.862 Z-6.016
N16655 X-1048.51
N16660 X-1048.513 Z-1.016
N16665 Z-1.015
N16670 G0 Z5.08
N16675 X-1049.774 Y37.499
N16680 Z1.016
N16685 G1 Z-6.016 F2328
N16690 X-372.309
N16695 Z-1.106
N16700 G0 Z5.08
N16705 X-246.406
N16710 Z1.016
N16715 G1 Z-6.016 F2328
N16720 X344.348
N16725 G0 Z5.08
N16730 X462.627
N16735 Z1.016
N16740 G1 Z-6.016 F2328
N16745 X877.937
N16750 X877.938 Z-1.016
N16755 G0 Z5.08
N16760 X981.193
N16765 Z1.016
N16770 G1 Z-6.016 F2328
N16775 X1193.6
N16780 Y33.499
N16785 X981.82
N16790 G0 Z5.08
N16795 X878.614
N16800 Z1.016
N16805 G1 Z-1.016 F2328
N16810 Z-6.016
N16815 X464.599
N16820 X464.598 Z-1.016
N16825 G0 Z5.08
N16830 X347.061
N16835 Z1.016
N16840 G1 Z-6.016 F2328
N16845 X-249.71
N16850 G0 Z5.08
N16855 X-374.707
N16860 Z1.016
N16865 G1 Z-1.016 F2328
N16870 X-374.709 Z-6.016
N16875 X-1051.018
N16880 G0 Z5.08
N16885 X-1052.26 Y29.499
N16890 Z1.016
N16895 G1 Z-1.016 F2328
N16900 X-1052.253 Z-6.016
N16905 X-377.061
N16910 X-377.059 Z-1.016
N16915 G0 Z5.08
N16920 X-252.935
N16925 Z1.016
N16930 G1 Z-6.016 F2328
N16935 X67.339
N16940 X67.344 Z-1.016
N16945 Z-1.015
N16950 G0 Z5.08
N16955 X123.815
N16960 Z1.016
N16965 G1 Z0.284 F2328
N16970 G2 X125.115 Z-1.016 I1.3
N16975 G1 X125.167
N16980 X125.168 Z-6.016
N16985 X349.694
N16990 G0 Z5.08
N16995 X466.521
N17000 Z1.016
N17005 G1 Z-1.016 F2328
N17010 X466.522 Z-6.016
N17015 X879.273
N17020 G0 Z5.08
N17025 X982.43
N17030 Z1.016
N17035 G1 Z-6.016 F2328
N17040 X1193.6
N17045 Y25.5
N17050 X983.026
N17055 X983.025 Z-1.308
N17060 G0 Z5.08
N17065 X879.915
N17070 Z1.016
N17075 G1 Z-6.016 F2328
N17080 X468.398
N17085 Z-1.016
N17090 G0 Z5.08
N17095 X352.25
N17100 Z1.016
N17105 G1 Z-6.016 F2328
N17110 X156.164
N17115 X156.157 Z-1.016
N17120 Z-1.014
N17125 G0 Z5.08
N17130 X45.731
N17135 Z1.016
N17140 G1 Z0.284 F2328
N17145 G3 X44.431 Z-1.016 I-1.3
N17150 G1 X44.425
N17155 Z-6.016
N17160 X-256.085
N17165 G0 Z5.08
N17170 X-379.366
N17175 Z1.016
N17180 G1 Z-1.913 F2328
N17185 Z-6.016
N17190 X-1053.469
N17195 X-1053.474 Z-1.016
N17200 X-1054.672 Y21.5 Z-2.036
N17205 X-1054.67 Z-6.016
N17210 X-381.627
N17215 X-381.624 Z-1.016
N17220 Z-1.015
N17225 G0 Z5.08
N17230 X-259.159
N17235 Z1.016
N17240 G1 Z-6.016 F2328
N17245 X30.998
N17250 X30.999 Z-1.016
N17255 X31
N17260 G2 X32.3 Z0.284 K1.3
N17265 G0 Z5.08
N17270 X166.875
N17275 Z1.016
N17280 G1 Z0.284 F2328
N17285 G2 X168.175 Z-1.016 I1.3
N17290 G1 X168.18
N17295 Z-6.016
N17300 X354.737
N17305 G0 Z5.08
N17310 X470.228
N17315 Z1.016
N17320 G1 Z-1.016 F2328
N17325 X470.229 Z-6.016
N17330 X880.54
N17335 G0 Z5.08
N17340 X983.605
N17345 Z1.016
N17350 G1 Z-1.016 F2328
N17355 Z-6.016
N17360 X1193.6
N17365 Y17.5
N17370 X984.169
N17375 G0 Z5.08
N17380 X881.149
N17385 Z1.016
N17390 G1 Z-6.016 F2328
N17395 X472.014
N17400 X472.013 Z-1.016
N17405 G0 Z5.08
N17410 X357.152
N17415 Z1.016
N17420 G1 Z-6.016 F2328
N17425 X177.418
N17430 X177.417 Z-1.016
N17435 X177.407
N17440 G3 X176.107 Z0.284 K1.3
N17445 G0 Z5.08
N17450 X21.02
N17455 Z1.016
N17460 G1 Z0.284 F2328
N17465 G3 X19.72 Z-1.016 I-1.3
N17470 G1 X19.718
N17475 X19.714 Z-6.016
N17480 X-262.161
N17485 G0 Z5.08
N17490 X-383.84
N17495 Z1.016
N17500 G1 Z-1.016 F2328
N17505 X-383.842 Z-6.016
N17510 X-1055.853
N17515 X-1057.026 Y13.5 Z-1.016
N17520 X-1057.024 Z-6.016
N17525 X-386.012
N17530 X-386.011 Z-1.016
N17535 G0 Z5.08
N17540 X-265.094
N17545 Z1.016
N17550 G1 Z-1.016 F2328
N17555 Z-6.016
N17560 X9.821
N17565 G0 Z5.08
N17570 X184.505
N17575 Z1.016
N17580 G1 Z0.284 F2328
N17585 G2 X185.805 Z-1.016 I1.3
N17590 G1 X185.808
N17595 Z-6.016
N17600 X359.495
N17605 G0 Z5.08
N17610 X473.753
N17615 Z1.016
N17620 G1 Z-6.016 F2328
N17625 X881.741
N17630 G0 Z5.08
N17635 X984.717
N17640 Z1.016
N17645 G1 Z-1.016 F2328
N17650 Z-6.016
N17655 X1193.6
N17660 Y9.5
N17665 X985.25
N17670 X985.249 Z-1.016
N17675 G0 Z5.08
N17680 X882.315
N17685 Z1.016
N17690 G1 Z-3.142 F2328
N17695 Z-6.016
N17700 X475.446
N17705 Z-1.016
N17710 G0 Z5.08
N17715 X361.775
N17720 Z1.016
N17725 G1 Z-6.016 F2328
N17730 X193.833
N17735 G0 Z5.08
N17740 X2.269
N17745 Z1.016
N17750 G1 Z0.284 F2328
N17755 G3 X0.969 Z-1.016 I-1.3
N17760 G1 X0.963
N17765 X0.962 Z-6.016
N17770 X-267.958
N17775 G0 Z5.08
N17780 X-388.137
N17785 Z1.016
N17790 G1 Z-1.016 F2328
N17795 X-388.139 Z-6.016
N17800 X-1058.176
N17805 X-1059.316 Y5.5 Z-1.016
N17810 X-1059.313 Z-6.016
N17815 X-390.223
N17820 Z-1.016
N17825 G0 Z5.08
N17830 X-270.755
N17835 Z1.016
N17840 G1 Z-6.016 F2328
N17845 X-7.091
N17850 X-7.089 Z-1.016
N17855 X-7.085
N17860 G2 X-5.785 Z0.284 K1.3
N17865 G0 Z5.08
N17870 X201.226
N17875 Z1.016
N17880 G1 Z-1.016 F2328
N17885 X201.227 Z-6.016
N17890 X363.991
N17895 G0 Z5.08
N17900 X477.095
N17905 Z1.016
N17910 G1 Z-1.016 F2328
N17915 X477.096 Z-6.016
N17920 X882.873
N17925 X882.874 Z-1.016
N17930 G0 Z5.08
N17935 X985.766
N17940 Z1.016
N17945 G1 Z-1.016 F2328
N17950 X985.767 Z-6.016
N17955 X1193.6
N17960 Y1.5
N17965 X986.268
N17970 X986.267 Z-1.016
N17975 G0 Z5.08
N17980 X883.414
N17985 Z1.016
N17990 G1 Z-1.016 F2328
N17995 X883.413 Z-6.016
N18000 X478.702
N18005 X478.701 Z-1.016
N18010 G0 Z5.08
N18015 X366.139
N18020 Z1.016
N18025 G1 Z-6.016 F2328
N18030 X208.027
N18035 X208.026 Z-1.016
N18040 G0 Z5.08
N18045 X-13.184
N18050 Z1.016
N18055 G1 Z0.284 F2328
N18060 G3 X-14.484 Z-1.016 I-1.3
N18065 G1 X-14.488
N18070 X-14.491 Z-6.016
N18075 X-273.487
N18080 G0 Z5.08
N18085 X-392.264
N18090 Z1.016
N18095 G1 Z-1.016 F2328
N18100 X-392.265 Z-6.016
N18105 X-1060.432
N18110 X-1060.435 Z-2.285
N18115 X-1061.539 Y-2.5 Z-6.016
N18120 X-394.266
N18125 G0 Z5.08
N18130 X-276.156
N18135 Z1.016
N18140 G1 Z-1.016 F2328
N18145 Z-6.016
N18150 X-21.344
N18155 X-21.343 Z-1.016
N18160 X-21.338
N18165 G2 X-20.038 Z0.284 K1.3
N18170 G0 Z5.08
N18175 X214.328
N18180 Z1.016
N18185 G1 Z-1.016 F2328
N18190 X214.332 Z-6.016
N18195 X368.225
N18200 G0 Z5.08
N18205 X480.263
N18210 Z1.016
N18215 G1 Z-1.016 F2328
N18220 X480.264 Z-6.016
N18225 X883.937
N18230 G0 Z5.08
N18235 X986.752
N18240 Z1.016
N18245 G1 Z-1.016 F2328
N18250 X986.753 Z-6.016
N18255 X1193.6
N18260 Y-6.5
N18265 X987.222
N18270 X987.221 Z-1.016
N18275 G0 Z5.08
N18280 X884.443
N18285 Z1.016
N18290 G1 Z-6.016 F2328
N18295 X481.783
N18300 G0 Z5.08
N18305 X370.253
N18310 Z1.016
N18315 G1 Z-6.016 F2328
N18320 X220.207
N18325 G0 Z5.08
N18330 X-27.729
N18335 Z1.016
N18340 G1 Z-6.016 F2328
N18345 X-278.76
N18350 G0 Z5.08
N18355 X-396.223
N18360 Z1.016
N18365 G1 Z-1.016 F2328
N18370 X-396.225 Z-6.016
N18375 X-1062.628
N18380 X-1062.631 Z-2.295
N18385 X-1063.709 Y-10.5 Z-1.016
N18390 X-1063.705 Z-6.016
N18395 X-398.144
N18400 G0 Z5.08
N18405 X-281.305
N18410 Z1.016
N18415 G1 Z-6.016 F2328
N18420 X-33.71
N18425 X-33.707 Z-1.016
N18430 X-33.704
N18435 G2 X-32.404 Z0.284 K1.3
N18440 G0 Z5.08
N18445 X225.71
N18450 Z1.016
N18455 G1 Z-1.016 F2328
N18460 X225.712 Z-6.016
N18465 X372.225
N18470 G0 Z5.08
N18475 X483.258
N18480 Z1.016
N18485 G1 Z-1.016 F2328
N18490 X483.259 Z-6.016
N18495 X884.933
N18500 G0 Z5.08
N18505 X987.674
N18510 Z1.016
N18515 G1 Z-1.016 F2328
N18520 X987.676 Z-6.016
N18525 X1193.6
N18530 Y-14.5
N18535 X988.114
N18540 X988.112 Z-1.016
N18545 G0 Z5.08
N18550 X885.407
N18555 Z1.016
N18560 G1 Z-6.016 F2328
N18565 X484.694
N18570 X484.692 Z-1.016
N18575 G0 Z5.08
N18580 X374.134
N18585 Z1.016
N18590 G1 Z-6.016 F2328
N18595 X230.885
N18600 X230.882 Z-1.016
N18605 Z-1.015
N18610 G0 Z5.08
N18615 X-39.334
N18620 Z1.016
N18625 G1 Z-6.016 F2328
N18630 X-283.79
N18635 G0 Z5.08
N18640 X-400.021
N18645 Z1.016
N18650 G1 Z-1.016 F2328
N18655 X-400.022 Z-6.016
N18660 X-1064.765
N18665 X-1064.767 Z-1.016
N18670 X-1065.806 Y-18.5 Z-6.016
N18675 X-401.862
N18680 X-401.861 Z-1.393
N18685 G0 Z5.08
N18690 X-286.217
N18695 Z1.016
N18700 G1 Z-1.016 F2328
N18705 Z-6.016
N18710 X-44.64
N18715 X-44.635 Z-1.016
N18720 Z-1.015
N18725 G0 Z5.08
N18730 X235.758
N18735 Z1.016
N18740 G1 Z-1.016 F2328
N18745 X235.761 Z-6.016
N18750 X375.986
N18755 G0 Z5.08
N18760 X486.084
N18765 Z1.016
N18770 G1 Z-1.016 F2328
N18775 X486.085 Z-6.016
N18780 X885.865
N18785 G0 Z5.08
N18790 X988.534
N18795 Z1.016
N18800 G1 Z-1.016 F2328
N18805 X988.535 Z-6.016
N18810 X1193.6
N18815 Y-22.5
N18820 X988.942
N18825 X988.94 Z-1.016
N18830 G0 Z5.08
N18835 X886.305
N18840 Z1.016
N18845 G1 Z-6.016 F2328
N18850 X487.435
N18855 Z-1.695
N18860 G0 Z5.08
N18865 X377.784
N18870 Z1.016
N18875 G1 Z-6.016 F2328
N18880 X240.369
N18885 X240.367 Z-1.016
N18890 Z-1.015
N18895 G0 Z5.08
N18900 X-48.357
N18905 Z1.016
N18910 G1 Z0.284 F2328
N18915 G3 X-49.657 Z-1.016 I-1.3
N18920 G1 X-49.659
N18925 X-49.661 Z-6.016
N18930 X-288.585
N18935 Z-1.016
N18940 G0 Z5.08
N18945 X-403.661
N18950 Z1.016
N18955 G1 Z-1.016 F2328
N18960 X-403.663 Z-6.016
N18965 X-1066.836
N18970 Z-3.152
N18975 X-1067.851 Y-26.5 Z-1.016
N18980 X-1067.847 Z-6.016
N18985 X-405.425
N18990 X-405.424 Z-1.016
N18995 G0 Z5.08
N19000 X-290.897
N19005 Z1.016
N19010 G1 Z-6.016 F2328
N19015 X-54.423
N19020 G0 Z5.08
N19025 X243.431
N19030 Z1.016
N19035 G1 Z0.284 F2328
N19040 G2 X244.731 Z-1.016 I1.3
N19045 G1 X244.733
N19050 Z-6.016
N19055 X379.529
N19060 G0 Z5.08
N19065 X488.745
N19070 Z1.016
N19075 G1 Z-6.016 F2328
N19080 X886.729
N19085 X886.73 Z-1.016
N19090 G0 Z5.08
N19095 X989.33
N19100 Z1.016
N19105 G1 Z-1.016 F2328
N19110 X989.331 Z-6.016
N19115 X1193.6
N19120 Y-30.499
N19125 X989.706
N19130 X989.704 Z-1.016
N19135 Z-1.015
N19140 G0 Z5.08
N19145 X887.137
N19150 Z1.016
N19155 G1 Z-6.016 F2328
N19160 X490.013
N19165 X490.012 Z-1.016
N19170 G0 Z5.08
N19175 X381.223
N19180 Z1.016
N19185 G1 Z-6.016 F2328
N19190 X248.871
N19195 Z-1.016
N19200 G0 Z5.08
N19205 X-58.948
N19210 Z1.016
N19215 G1 Z-6.016 F2328
N19220 X-293.153
N19225 G0 Z5.08
N19230 X-407.148
N19235 Z1.016
N19240 G1 Z-1.016 F2328
N19245 X-407.15 Z-6.016
N19250 X-1068.848
N19255 X-1068.849 Z-1.016
N19260 X-1069.83 Y-34.499 Z-6.016
N19265 X-408.837
N19270 X-408.836 Z-1.169
N19275 G0 Z5.08
N19280 X-295.354
N19285 Z1.016
N19290 G1 Z-6.016 F2328
N19295 X-63.256
N19300 X-63.254 Z-1.016
N19305 Z-1.015
N19310 G0 Z5.08
N19315 X252.801
N19320 Z1.016
N19325 G1 Z-2.249 F2328
N19330 Z-6.016
N19335 X382.862
N19340 G0 Z5.08
N19345 X491.239
N19350 Z1.016
N19355 G1 Z-1.016 F2328
N19360 X491.241 Z-6.016
N19365 X887.527
N19370 X887.528 Z-1.016
N19375 G0 Z5.08
N19380 X988.762
N19385 Z1.016
N19390 G1 Z0.284 F2328
N19395 G2 X990.062 Z-1.016 I1.3
N19400 G1 X990.064
N19405 Z-6.016
N19410 X1193.6
N19415 Y-38.499
N19420 X990.407
N19425 X990.404 Z-1.016
N19430 Z-1.015
N19435 G0 Z5.08
N19440 X887.901
N19445 Z1.016
N19450 G1 Z-6.016 F2328
N19455 X492.428
N19460 X492.427 Z-1.016
N19465 G0 Z5.08
N19470 X384.449
N19475 Z1.016
N19480 G1 Z-6.016 F2328
N19485 X256.539
N19490 X256.536 Z-1.016
N19495 Z-1.015
N19500 G0 Z5.08
N19505 X-67.36
N19510 Z1.016
N19515 G1 Z-1.016 F2328
N19520 X-67.364 Z-6.016
N19525 X-297.502
N19530 G0 Z5.08
N19535 X-410.485
N19540 Z1.016
N19545 G1 Z-1.016 F2328
N19550 X-410.487 Z-6.016
N19555 X-1070.795
N19560 X-1070.796 Z-1.016
N19565 X-1071.739 Y-42.499 Z-6.016
N19570 X-412.1
N19575 Z-2.181
N19580 G0 Z5.08
N19585 X-299.597
N19590 Z1.016
N19595 G1 Z-6.016 F2328
N19600 X-71.28
N19605 X-71.279 Z-1.016
N19610 G0 Z5.08
N19615 X260.092
N19620 Z1.016
N19625 G1 Z-1.016 F2328
N19630 X260.094 Z-6.016
N19635 X385.986
N19640 G0 Z5.08
N19645 X493.574
N19650 Z1.016
N19655 G1 Z-6.016 F2328
N19660 X888.26
N19665 G0 Z5.08
N19670 X990.73
N19675 Z1.016
N19680 G1 Z-1.016 F2328
N19685 X990.732 Z-6.016
N19690 X1193.6
N19695 Y-46.499
N19700 X991.042
N19705 X991.041 Z-1.016
N19710 G0 Z5.08
N19715 X888.602
N19720 Z1.016
N19725 G1 Z-6.016 F2328
N19730 X494.681
N19735 X494.68 Z-1.016
N19740 G0 Z5.08
N19745 X387.474
N19750 Z1.016
N19755 G1 Z-6.016 F2328
N19760 X263.479
N19765 X263.478 Z-1.016
N19770 G0 Z5.08
N19775 X-75.023
N19780 Z1.016
N19785 G1 Z-1.016 F2328
N19790 X-75.025 Z-6.016
N19795 X-301.641
N19800 G0 Z5.08
N19805 X-413.676
N19810 Z1.016
N19815 G1 Z-1.016 F2328
N19820 X-413.677 Z-6.016
N19825 X-1072.665
N19830 X-1073.578 Y-50.499
N19835 X-415.219
N19840 G0 Z5.08
N19845 X-303.633
N19850 Z1.016
N19855 G1 Z-1.016 F2328
N19860 X-303.632 Z-6.016
N19865 X-78.606
N19870 X-78.604 Z-1.016
N19875 G0 Z5.08
N19880 X266.701
N19885 Z1.016
N19890 G1 Z-1.016 F2328
N19895 X266.703 Z-6.016
N19900 X388.915
N19905 G0 Z5.08
N19910 X494.447
N19915 Z1.016
N19920 G1 Z0.284 F2328
N19925 G2 X495.747 Z-1.016 I1.3
N19930 G1 X495.748
N19935 X495.749 Z-6.016
N19940 X888.927
N19945 G0 Z5.08
N19950 X991.335
N19955 Z1.016
N19960 G1 Z-1.016 F2328
N19965 X991.336 Z-6.016
N19970 X1193.6
N19975 Y-54.499
N19980 X991.614
N19985 X991.613 Z-1.016
N19990 G0 Z5.08
N19995 X889.237
N20000 Z1.016
N20005 G1 Z-6.016 F2328
N20010 X496.776
N20015 X496.775 Z-1.016
N20020 G0 Z5.08
N20025 X390.309
N20030 Z1.016
N20035 G1 Z-6.016 F2328
N20040 X269.777
N20045 X269.776 Z-1.163
N20050 G0 Z5.08
N20055 X-82.032
N20060 Z1.016
N20065 G1 Z-6.016 F2328
N20070 X-305.571
N20075 X-305.574 Z-1.323
N20080 Z-1.322
N20085 G0 Z5.08
N20090 X-416.724
N20095 Z1.016
N20100 G1 Z-1.016 F2328
N20105 X-416.725 Z-6.016
N20110 X-1074.476
N20115 X-1074.478 Z-1.016
N20120 X-1075.352 Y-58.499 Z-6.016
N20125 X-418.198
N20130 G0 Z5.08
N20135 X-307.464
N20140 Z1.016
N20145 G1 Z-6.016 F2328
N20150 X-85.312
N20155 X-85.311 Z-1.016
N20160 G0 Z5.08
N20165 X272.702
N20170 Z1.016
N20175 G1 Z-1.016 F2328
N20180 X272.704 Z-6.016
N20185 X391.658
N20190 G0 Z5.08
N20195 X497.765
N20200 Z1.016
N20205 G1 Z-2.056 F2328
N20210 Z-6.016
N20215 X889.53
N20220 G0 Z5.08
N20225 X991.874
N20230 Z1.016
N20235 G1 Z-1.016 F2328
N20240 X991.876 Z-6.016
N20245 X1193.6
N20250 Y-62.499
N20255 X992.121
N20260 X992.12 Z-1.016
N20265 G0 Z5.08
N20270 X889.807
N20275 Z1.016
N20280 G1 Z-6.016 F2328
N20285 X498.715
N20290 X498.713 Z-1.016
N20295 G0 Z5.08
N20300 X392.96
N20305 Z1.016
N20310 G1 Z-1.016 F2328
N20315 X392.959 Z-6.016
N20320 X275.494
N20325 X275.492 Z-1.016
N20330 Z-1.015
N20335 G0 Z5.08
N20340 X-88.45
N20345 Z1.016
N20350 G1 Z-1.016 F2328
N20355 X-88.454 Z-6.016
N20360 X-309.306
N20365 G0 Z5.08
N20370 X-419.633
N20375 Z1.016
N20380 G1 Z-1.016 F2328
N20385 X-419.634 Z-6.016
N20390 X-1076.215
N20395 X-1077.069 Y-66.499
N20400 X-421.037
N20405 Z-1.181
N20410 G0 Z5.08
N20415 X-311.099
N20420 Z1.016
N20425 G1 Z-1.016 F2328
N20430 Z-6.016
N20435 X-91.463
N20440 X-91.46 Z-1.016
N20445 Z-1.015
N20450 G0 Z5.08
N20455 X278.151
N20460 Z1.016
N20465 G1 Z-2.27 F2328
N20470 Z-6.016
N20475 X394.214
N20480 G0 Z5.08
N20485 X499.624
N20490 Z1.016
N20495 G1 Z-1.016 F2328
N20500 X499.626 Z-6.016
N20505 X890.068
N20510 Z-1.016
N20515 G0 Z5.08
N20520 X992.35
N20525 Z1.016
N20530 G1 Z-6.016 F2328
N20535 X1193.6
N20540 Y-70.499
N20545 X992.563
N20550 X992.562 Z-1.651
N20555 G0 Z5.08
N20560 X890.314
N20565 Z1.016
N20570 G1 Z-1.016 F2328
N20575 X890.313 Z-6.016
N20580 X500.497
N20585 G0 Z5.08
N20590 X395.423
N20595 Z1.016
N20600 G1 Z-6.016 F2328
N20605 X280.682
N20610 X280.68 Z-1.016
N20615 Z-1.015
N20620 G0 Z5.08
N20625 X-93.047
N20630 Z1.016
N20635 G1 Z0.284 F2328
N20640 G3 X-94.347 Z-1.016 I-1.3
N20645 G1 X-94.35
N20650 Z-6.016
N20655 X-312.843
N20660 G0 Z5.08
N20665 X-422.405
N20670 Z1.016
N20675 G1 Z-1.016 F2328
N20680 X-422.407 Z-6.016
N20685 X-1077.904
N20690 Z-1.016
N20695 X-1078.724 Y-74.499 Z-6.016
N20700 X-423.743
N20705 X-423.741 Z-1.016
N20710 G0 Z5.08
N20715 X-314.54
N20720 Z1.016
N20725 G1 Z-6.016 F2328
N20730 X-97.116
N20735 Z-3.318
N20740 G0 Z5.08
N20745 X66.054
N20750 Z1.016
N20755 G1 Z-6.016 F2328
N20760 X133.786
N20765 G0 Z5.08
N20770 X283.091
N20775 Z1.016
N20780 G1 Z-1.016 F2328
N20785 Z-6.016
N20790 X396.556
N20795 G0 Z5.08
N20800 X501.33
N20805 Z1.016
N20810 G1 Z-1.016 F2328
N20815 X501.331 Z-6.016
N20820 X890.542
N20825 G0 Z5.08
N20830 X992.759
N20835 Z1.016
N20840 G1 Z-1.242 F2328
N20845 Z-6.016
N20850 X1193.6
N20855 Y-78.499
N20860 X992.94
N20865 X992.939 Z-2.381
N20870 G0 Z5.08
N20875 X890.754
N20880 Z1.016
N20885 G1 Z-6.016 F2328
N20890 X502.127
N20895 X502.125 Z-1.016
N20900 G0 Z5.08
N20905 X397.602
N20910 Z1.016
N20915 G1 Z-6.016 F2328
N20920 X285.384
N20925 Z-2.235
N20930 Z-2.234
N20935 G0 Z5.08
N20940 X144.319
N20945 Z1.016
N20950 G1 Z-6.016 F2328
N20955 X52.963
N20960 G0 Z5.08
N20965 X-99.765
N20970 Z1.016
N20975 G1 Z-1.016 F2328
N20980 X-99.768 Z-6.016
N20985 X-316.19
N20990 G0 Z5.08
N20995 X-425.044
N21000 Z1.016
N21005 G1 Z-1.016 F2328
N21010 X-425.045 Z-6.016
N21015 X-1079.532
N21020 X-1079.533 Z-1.016
N21025 X-1080.329 Y-82.498
N21030 X-1080.327 Z-6.016
N21035 X-426.315
N21040 X-426.313 Z-1.016
N21045 G0 Z5.08
N21050 X-317.794
N21055 Z1.016
N21060 G1 Z-6.016 F2328
N21065 X-102.311
N21070 X-102.31 Z-1.016
N21075 X-102.307
N21080 G2 X-101.007 Z0.284 K1.3
N21085 G0 Z5.08
N21090 X43.836
N21095 Z1.016
N21100 G1 Z-1.016 F2328
N21105 X43.837 Z-6.016
N21110 X151.394
N21115 G0 Z5.08
N21120 X287.561
N21125 Z1.016
N21130 G1 Z-1.016 F2328
N21135 X287.564 Z-6.016
N21140 X398.573
N21145 Z-1.016
N21150 G0 Z5.08
N21155 X502.882
N21160 Z1.016
N21165 G1 Z-1.016 F2328
N21170 X502.884 Z-6.016
N21175 X890.95
N21180 G0 Z5.08
N21185 X993.103
N21190 Z1.016
N21195 G1 Z-6.016 F2328
N21200 X1193.6
N21205 Y-86.498
N21210 X993.25
N21215 Z-1.016
N21220 G0 Z5.08
N21225 X891.131
N21230 Z1.016
N21235 G1 Z-6.016 F2328
N21240 X503.602
N21245 G0 Z5.08
N21250 X399.472
N21255 Z1.016
N21260 G1 Z-6.016 F2328
N21265 X289.633
N21270 X289.631 Z-1.016
N21275 Z-1.015
N21280 G0 Z5.08
N21285 X157.34
N21290 Z1.016
N21295 G1 Z-6.016 F2328
N21300 X36.236
N21305 X36.233 Z-3.448
N21310 Z-3.446
N21315 G0 Z5.08
N21320 X-104.747
N21325 Z1.016
N21330 G1 Z-1.016 F2328
N21335 X-104.748 Z-6.016
N21340 X-319.352
N21345 G0 Z5.08
N21350 X-427.552
N21355 Z1.016
N21360 G1 Z-6.016 F2328
N21365 X-1081.107
N21370 X-1081.875 Y-90.498
N21375 X-428.757
N21380 X-428.755 Z-1.016
N21385 G0 Z5.08
N21390 X-320.863
N21395 Z1.016
N21400 G1 Z-6.016 F2328
N21405 X-107.084
N21410 X-107.081 Z-1.016
N21415 Z-1.015
N21420 G0 Z5.08
N21425 X29.633
N21430 Z1.016
N21435 G1 Z-1.016 F2328
N21440 X29.635 Z-6.016
N21445 X162.607
N21450 G0 Z5.08
N21455 X291.595
N21460 Z1.016
N21465 G1 Z-1.016 F2328
N21470 X291.596 Z-6.016
N21475 X400.309
N21480 G0 Z5.08
N21485 X504.282
N21490 Z1.016
N21495 G1 Z-1.016 F2328
N21500 X504.283 Z-6.016
N21505 X891.29
N21510 X891.292 Z-1.609
N21515 Z-1.608
N21520 G0 Z5.08
N21525 X993.38
N21530 Z1.016
N21535 G1 Z-2.535 F2328
N21540 Z-6.016
N21545 X1193.6
N21550 Y-94.498
N21555 X993.495
N21560 X993.494 Z-1.016
N21565 G0 Z5.08
N21570 X891.432
N21575 Z1.016
N21580 G1 Z-1.016 F2328
N21585 X891.43 Z-6.016
N21590 X504.926
N21595 X504.924 Z-1.016
N21600 G0 Z5.08
N21605 X401.086
N21610 Z1.016
N21615 G1 Z-6.016 F2328
N21620 X293.456
N21625 G0 Z5.08
N21630 X167.382
N21635 Z1.016
N21640 G1 Z-6.016 F2328
N21645 X23.771
N21650 X23.769 Z-1.016
N21655 G0 Z5.08
N21660 X-108.019
N21665 Z1.016
N21670 G1 Z0.284 F2328
N21675 G3 X-109.319 Z-1.016 I-1.3
N21680 G1 X-109.321
N21685 X-109.323 Z-6.016
N21690 X-322.329
N21695 G0 Z5.08
N21700 X-429.93
N21705 Z1.016
N21710 G1 Z-1.899 F2328
N21715 Z-6.016
N21720 X-1082.633
N21725 X-1083.374 Y-98.498
N21730 X-431.072
N21735 X-431.071 Z-1.016
N21740 G0 Z5.08
N21745 X-323.751
N21750 Z1.016
N21755 G1 Z-6.016 F2328
N21760 X-111.467
N21765 X-111.466 Z-2.922
N21770 G0 Z5.08
N21775 X18.481
N21780 Z1.016
N21785 G1 Z-6.016 F2328
N21790 X171.776
N21795 G0 Z5.08
N21800 X295.215
N21805 Z1.016
N21810 G1 Z-1.753 F2328
N21815 Z-6.016
N21820 X401.809
N21825 G0 Z5.08
N21830 X505.53
N21835 Z1.016
N21840 G1 Z-1.016 F2328
N21845 X505.532 Z-6.016
N21850 X891.549
N21855 G0 Z5.08
N21860 X993.591
N21865 Z1.016
N21870 G1 Z-1.016 F2328
N21875 X993.593 Z-6.016
N21880 X1193.6
N21885 Y-102.498
N21890 X993.672
N21895 X993.671 Z-1.016
N21900 G0 Z5.08
N21905 X891.648
N21910 Z1.016
N21915 G1 Z-6.016 F2328
N21920 X506.099
N21925 X506.098 Z-1.016
N21930 G0 Z5.08
N21935 X402.48
N21940 Z1.016
N21945 G1 Z-6.016 F2328
N21950 X296.876
N21955 X296.875 Z-1.016
N21960 G0 Z5.08
N21965 X175.849
N21970 Z1.016
N21975 G1 Z-6.016 F2328
N21980 X13.652
N21985 X13.649 Z-1.647
N21990 G0 Z5.08
N21995 X-112.215
N22000 Z1.016
N22005 G1 Z0.284 F2328
N22010 G3 X-113.515 Z-1.016 I-1.3
N22015 G1 X-113.518
N22020 X-113.519 Z-6.016
N22025 X-325.128
N22030 G0 Z5.08
N22035 X-432.18
N22040 Z1.016
N22045 G1 Z-1.016 F2328
N22050 X-432.182 Z-6.016
N22055 X-1084.109
N22060 X-1084.836 Y-106.498 Z-1.016
N22065 X-1084.835 Z-6.016
N22070 X-433.261
N22075 G0 Z5.08
N22080 X-326.462
N22085 Z1.016
N22090 G1 Z-6.016 F2328
N22095 X-115.484
N22100 X-115.482 Z-1.016
N22105 G0 Z5.08
N22110 X9.214
N22115 Z1.016
N22120 G1 Z-2.856 F2328
N22125 X9.217 Z-6.016
N22130 X179.638
N22135 G0 Z5.08
N22140 X298.44
N22145 Z1.016
N22150 G1 Z-1.016 F2328
N22155 X298.442 Z-6.016
N22160 X403.101
N22165 G0 Z5.08
N22170 X506.627
N22175 Z1.016
N22180 G1 Z-1.016 F2328
N22185 X506.629 Z-6.016
N22190 X891.725
N22195 Z-1.016
N22200 G0 Z5.08
N22205 X993.735
N22210 Z1.016
N22215 G1 Z-1.016 F2328
N22220 X993.737 Z-6.016
N22225 X1193.6
N22230 Y-110.498
N22235 X993.783
N22240 X993.782 Z-1.016
N22245 G0 Z5.08
N22250 X891.78
N22255 Z1.016
N22260 G1 Z-6.016 F2328
N22265 X507.12
N22270 Z-1.016
N22275 G0 Z5.08
N22280 X403.678
N22285 Z1.016
N22290 G1 Z-2.013 F2328
N22295 X403.677 Z-6.016
N22300 X299.915
N22305 Z-1.016
N22310 X299.913
N22315 G3 X298.613 Z0.284 K1.3
N22320 G0 Z5.08
N22325 X183.171
N22330 Z1.016
N22335 G1 Z-1.016 F2328
N22340 X183.17 Z-6.016
N22345 X5.113
N22350 G0 Z5.08
N22355 X-117.358
N22360 Z1.016
N22365 G1 Z-1.016 F2328
N22370 X-117.362 Z-6.016
N22375 X-327.751
N22380 X-327.752 Z-1.016
N22385 G0 Z5.08
N22390 X-433.008
N22395 Z1.016
N22400 G1 Z0.284 F2328
N22405 G3 X-434.307 Z-1.016 I-1.3
N22410 G1 X-434.308
N22415 X-434.31 Z-6.016
N22420 X-1085.544
N22425 X-1086.245 Y-114.498
N22430 X-435.327
N22435 Z-1.016
N22440 G0 Z5.08
N22445 X-328.998
N22450 Z1.016
N22455 G1 Z-1.016 F2328
N22460 X-328.997 Z-6.016
N22465 X-119.158
N22470 X-119.157 Z-1.016
N22475 X-119.155
N22480 G2 X-117.855 Z0.284 K1.3
N22485 G0 Z5.08
N22490 X1.306
N22495 Z1.016
N22500 G1 Z-6.016 F2328
N22505 X186.453
N22510 G0 Z5.08
N22515 X301.293
N22520 Z1.016
N22525 G1 Z-1.016 F2328
N22530 X301.296 Z-6.016
N22535 X404.208
N22540 G0 Z5.08
N22545 X507.576
N22550 Z1.016
N22555 G1 Z-6.016 F2328
N22560 X891.815
N22565 G0 Z5.08
N22570 X993.812
N22575 Z1.016
N22580 G1 Z-1.016 F2328
N22585 X993.814 Z-6.016
N22590 X1193.6
N22595 Y-118.498
N22600 X993.827
N22605 X993.825 Z-1.016
N22610 Z-1.015
N22615 G0 Z5.08
N22620 X891.829
N22625 Z1.016
N22630 G1 Z-1.016 F2328
N22635 X891.828 Z-6.016
N22640 X507.992
N22645 X507.991 Z-1.016
N22650 G0 Z5.08
N22655 X404.696
N22660 Z1.016
N22665 G1 Z-6.016 F2328
N22670 X302.587
N22675 X302.585 Z-1.016
N22680 G0 Z5.08
N22685 X189.503
N22690 Z1.016
N22695 G1 Z-6.016 F2328
N22700 X-2.241
N22705 G0 Z5.08
N22710 X-120.869
N22715 Z1.016
N22720 G1 Z-1.016 F2328
N22725 X-120.872 Z-6.016
N22730 X-330.2
N22735 Z-1.016
N22740 G0 Z5.08
N22745 X-436.314
N22750 Z1.016
N22755 G1 Z-1.153 F2328
N22760 Z-6.016
N22765 X-1086.938
N22770 X-1086.939 Z-1.016
N22775 X-1087.623 Y-122.498
N22780 X-1087.618 Z-6.016
N22785 X-437.271
N22790 X-437.27 Z-1.016
N22795 G0 Z5.08
N22800 X-331.36
N22805 Z1.016
N22810 G1 Z-1.016 F2328
N22815 Z-6.016
N22820 X-122.508
N22825 X-122.505 Z-1.016
N22830 Z-1.015
N22835 G0 Z5.08
N22840 X-5.55
N22845 Z1.016
N22850 G1 Z-1.721 F2328
N22855 X-5.547 Z-6.016
N22860 X192.32
N22865 X192.321 Z-1.016
N22870 G0 Z5.08
N22875 X303.788
N22880 Z1.016
N22885 G1 Z-1.016 F2328
N22890 X303.789 Z-6.016
N22895 X405.142
N22900 G0 Z5.08
N22905 X508.37
N22910 Z1.016
N22915 G1 Z-1.016 F2328
N22920 X508.372 Z-6.016
N22925 X891.82
N22930 X891.822 Z-1.016
N22935 G0 Z5.08
N22940 X993.821
N22945 Z1.016
N22950 G1 Z-1.016 F2328
N22955 X993.822 Z-6.016
N22960 X1193.6
N22965 Y-126.498
N22970 X993.801
N22975 X993.799 Z-1.016
N22980 Z-1.015
N22985 G0 Z5.08
N22990 X891.793
N22995 Z1.016
N23000 G1 Z-2.314 F2328
N23005 X891.792 Z-6.016
N23010 X508.714
N23015 X508.713 Z-1.776
N23020 G0 Z5.08
N23025 X405.549
N23030 Z1.016
N23035 G1 Z-6.016 F2328
N23040 X304.905
N23045 X304.904 Z-1.016
N23050 G0 Z5.08
N23055 X194.895
N23060 Z1.016
N23065 G1 Z-6.016 F2328
N23070 X-8.64
N23075 G0 Z5.08
N23080 X-124.063
N23085 Z1.016
N23090 G1 Z-1.016 F2328
N23095 X-124.066 Z-6.016
N23100 X-332.477
N23105 X-332.478 Z-1.016
N23110 G0 Z5.08
N23115 X-438.2
N23120 Z1.016
N23125 G1 Z-6.016 F2328
N23130 X-1088.287
N23135 X-1088.945 Y-130.498
N23140 X-439.097
N23145 X-439.096 Z-1.016
N23150 G0 Z5.08
N23155 X-333.552
N23160 Z1.016
N23165 G1 Z-1.016 F2328
N23170 Z-6.016
N23175 X-125.55
N23180 X-125.548 Z-1.016
N23185 G0 Z5.08
N23190 X-11.532
N23195 Z1.016
N23200 G1 Z-6.016 F2328
N23205 X197.226
N23210 G0 Z5.08
N23215 X305.934
N23220 Z1.016
N23225 G1 Z-1.016 F2328
N23230 X305.935 Z-6.016
N23235 X405.917
N23240 G0 Z5.08
N23245 X509.017
N23250 Z1.016
N23255 G1 Z-1.016 F2328
N23260 X509.018 Z-6.016
N23265 X891.742
N23270 X891.744 Z-1.411
N23275 G0 Z5.08
N23280 X993.761
N23285 Z1.016
N23290 G1 Z-1.016 F2328
N23295 X993.762 Z-6.016
N23300 X1193.6
N23305 Y-134.498
N23310 X993.708
N23315 X993.706 Z-1.016
N23320 G0 Z5.08
N23325 X891.673
N23330 Z1.016
N23335 G1 Z-1.016 F2328
N23340 X891.671 Z-6.016
N23345 X509.286
N23350 X509.284 Z-1.016
N23355 G0 Z5.08
N23360 X406.246
N23365 Z1.016
N23370 G1 Z-6.016 F2328
N23375 X306.882
N23380 G0 Z5.08
N23385 X199.297
N23390 Z1.016
N23395 G1 Z-6.016 F2328
N23400 X-14.24
N23405 X-14.241 Z-1.016
N23410 G0 Z5.08
N23415 X-126.957
N23420 Z1.016
N23425 G1 Z-1.016 F2328
N23430 X-126.961 Z-6.016
N23435 X-334.584
N23440 G0 Z5.08
N23445 X-439.957
N23450 Z1.016
N23455 G1 Z-1.016 F2328
N23460 X-439.958 Z-6.016
N23465 X-1089.597
N23470 X-1089.599 Z-1.016
N23475 X-1090.239 Y-138.497
N23480 X-1090.237 Z-6.016
N23485 X-440.74
N23490 X-440.738 Z-1.016
N23495 G0 Z5.08
N23500 X-335.575
N23505 Z1.016
N23510 G1 Z-6.016 F2328
N23515 X-128.3
N23520 X-128.298 Z-1.016
N23525 G0 Z5.08
N23530 X-16.772
N23535 Z1.016
N23540 G1 Z-6.016 F2328
N23545 X201.082
N23550 G0 Z5.08
N23555 X307.732
N23560 Z1.016
N23565 G1 Z-6.016 F2328
N23570 X406.538
N23575 G0 Z5.08
N23580 X509.514
N23585 Z1.016
N23590 G1 Z-1.016 F2328
N23595 X509.515 Z-6.016
N23600 X891.579
N23605 X891.58 Z-2.256
N23610 Z-2.255
N23615 G0 Z5.08
N23620 X993.633
N23625 Z1.016
N23630 G1 Z-1.016 F2328
N23635 X993.634 Z-6.016
N23640 X1193.6
N23645 Y-142.497
N23650 X993.544
N23655 X993.543 Z-1.016
N23660 G0 Z5.08
N23665 X891.468
N23670 Z1.016
N23675 G1 Z-1.933 F2328
N23680 X891.466 Z-6.016
N23685 X509.707
N23690 Z-1.561
N23695 G0 Z5.08
N23700 X406.793
N23705 Z1.016
N23710 G1 Z-6.016 F2328
N23715 X308.405
N23720 G0 Z5.08
N23725 X202.681
N23730 Z1.016
N23735 G1 Z-6.016 F2328
N23740 X-19.142
N23745 Z-1.016
N23750 G0 Z5.08
N23755 X-129.565
N23760 Z1.016
N23765 G1 Z-1.016 F2328
N23770 X-129.568 Z-6.016
N23775 X-336.524
N23780 G0 Z5.08
N23785 X-441.446
N23790 Z1.016
N23795 G1 Z-1.016 F2328
N23800 X-441.448 Z-6.016
N23805 X-1090.868
N23810 X-1090.869 Z-1.016
N23815 X-1091.487 Y-146.497 Z-6.016
N23820 X-442.092
N23825 X-442.091 Z-1.016
N23830 G0 Z5.08
N23835 X-337.432
N23840 Z1.016
N23845 G1 Z-6.016 F2328
N23850 X-130.769
N23855 G0 Z5.08
N23860 X-21.353
N23865 Z1.016
N23870 G1 Z-6.016 F2328
N23875 X204.13
N23880 G0 Z5.08
N23885 X308.944
N23890 Z1.016
N23895 G1 Z-1.016 F2328
N23900 X308.945 Z-6.016
N23905 X407.011
N23910 G0 Z5.08
N23915 X509.861
N23920 Z1.016
N23925 G1 Z-1.016 F2328
N23930 X509.862 Z-6.016
N23935 X891.331
N23940 X891.334 Z-1.598
N23945 Z-1.597
N23950 G0 Z5.08
N23955 X993.435
N23960 Z1.016
N23965 G1 Z-1.016 F2328
N23970 X993.436 Z-6.016
N23975 X1193.6
N23980 Y-150.497
N23985 X993.31
N23990 G0 Z5.08
N23995 X891.177
N24000 Z1.016
N24005 G1 Z-2.576 F2328
N24010 X891.176 Z-6.016
N24015 X509.979
N24020 X509.977 Z-1.016
N24025 G0 Z5.08
N24030 X407.192
N24035 Z1.016
N24040 G1 Z-6.016 F2328
N24045 X309.391
N24050 X309.387 Z-1.016
N24055 Z-1.015
N24060 G0 Z5.08
N24065 X205.428
N24070 Z1.016
N24075 G1 Z-6.016 F2328
N24080 X-23.417
N24085 G0 Z5.08
N24090 X-131.899
N24095 Z1.016
N24100 G1 Z-1.016 F2328
N24105 X-131.901 Z-6.016
N24110 X-338.298
N24115 G0 Z5.08
N24120 X-442.681
N24125 Z1.016
N24130 G1 Z-1.016 F2328
N24135 Z-6.016
N24140 X-1092.098
N24145 X-1092.703 Y-154.497
N24150 X-443.222
N24155 X-443.221 Z-2.366
N24160 G0 Z5.08
N24165 X-339.124
N24170 Z1.016
N24175 G1 Z-6.016 F2328
N24180 X-132.969
N24185 X-132.968 Z-1.016
N24190 G0 Z5.08
N24195 X-25.339
N24200 Z1.016
N24205 G1 Z-6.016 F2328
N24210 X206.574
N24215 G0 Z5.08
N24220 X309.76
N24225 Z1.016
N24230 G1 Z-1.016 F2328
N24235 X309.762 Z-6.016
N24240 X407.336
N24245 G0 Z5.08
N24250 X510.057
N24255 Z1.016
N24260 G1 Z-3.118 F2328
N24265 Z-6.016
N24270 X890.998
N24275 X891 Z-2.298
N24280 Z-2.297
N24285 G0 Z5.08
N24290 X993.168
N24295 Z1.016
N24300 G1 Z-6.016 F2328
N24305 X1193.6
N24310 Y-158.497
N24315 X993.006
N24320 Z-2.268
N24325 Z-2.267
N24330 G0 Z5.08
N24335 X890.801
N24340 Z1.016
N24345 G1 Z-2.165 F2328
N24350 X890.8 Z-6.016
N24355 X510.099
N24360 X510.098 Z-1.016
N24365 G0 Z5.08
N24370 X407.444
N24375 Z1.016
N24380 G1 Z-6.016 F2328
N24385 X310.071
N24390 X310.069 Z-1.016
N24395 G0 Z5.08
N24400 X207.57
N24405 Z1.016
N24410 G1 Z-6.016 F2328
N24415 X-27.12
N24420 G0 Z5.08
N24425 X-133.971
N24430 Z1.016
N24435 G1 Z-1.016 F2328
N24440 X-133.972 Z-6.016
N24445 X-339.908
N24450 G0 Z5.08
N24455 X-443.718
N24460 Z1.016
N24465 G1 Z-1.016 F2328
N24470 Z-6.016
N24475 X-1093.298
N24480 X-1093.3 Z-1.016
N24485 X-1093.885 Y-162.497
N24490 X-1093.883 Z-6.016
N24495 X-444.175
N24500 X-444.174 Z-1.016
N24505 G0 Z5.08
N24510 X-340.652
N24515 Z1.016
N24520 G1 Z-6.016 F2328
N24525 X-134.913
N24530 X-134.91 Z-1.016
N24535 Z-1.015
N24540 G0 Z5.08
N24545 X-28.771
N24550 Z1.016
N24555 G1 Z-6.016 F2328
N24560 X208.416
N24565 G0 Z5.08
N24570 X310.323
N24575 Z1.016
N24580 G1 Z-1.016 F2328
N24585 X310.326 Z-6.016
N24590 X407.514
N24595 G0 Z5.08
N24600 X510.102
N24605 Z1.016
N24610 G1 Z-1.016 F2328
N24615 X510.103 Z-6.016
N24620 X890.58
N24625 X890.581 Z-2.77
N24630 G0 Z5.08
N24635 X992.827
N24640 Z1.016
N24645 G1 Z-1.016 F2328
N24650 Z-6.016
N24655 X1193.6
N24660 Y-166.497
N24665 X992.63
N24670 Z-1.016
N24675 G0 Z5.08
N24680 X890.339
N24685 Z1.016
N24690 G1 Z-3.068 F2328
N24695 Z-6.016
N24700 X510.069
N24705 X510.068 Z-1.016
N24710 G0 Z5.08
N24715 X407.546
N24720 Z1.016
N24725 G1 Z-6.016 F2328
N24730 X310.53
N24735 X310.529 Z-1.016
N24740 G0 Z5.08
N24745 X209.11
N24750 Z1.016
N24755 G1 Z-6.016 F2328
N24760 X-30.292
N24765 G0 Z5.08
N24770 X-135.789
N24775 Z1.016
N24780 G1 Z-1.016 F2328
N24785 X-135.79 Z-6.016
N24790 X-341.354
N24795 X-341.355 Z-1.016
N24800 G0 Z5.08
N24805 X-444.594
N24810 Z1.016
N24815 G1 Z-1.016 F2328
N24820 X-444.595 Z-6.016
N24825 X-1094.46
N24830 X-1094.462 Z-1.016
N24835 X-1095.032 Y-170.497
N24840 X-1095.027 Z-6.016
N24845 X-444.982
N24850 Z-1.016
N24855 G0 Z5.08
N24860 X-342.017
N24865 Z1.016
N24870 G1 Z-1.016 F2328
N24875 X-342.016 Z-6.016
N24880 X-136.599
N24885 X-136.597 Z-1.016
N24890 G0 Z5.08
N24895 X-31.684
N24900 Z1.016
N24905 G1 Z-6.016 F2328
N24910 X209.645
N24915 G0 Z5.08
N24920 X310.687
N24925 Z1.016
N24930 G1 Z-1.016 F2328
N24935 X310.689 Z-6.016
N24940 X407.541
N24945 G0 Z5.08
N24950 X509.996
N24955 Z1.016
N24960 G1 Z-1.016 F2328
N24965 X509.997 Z-6.016
N24970 X890.076
N24975 Z-3.358
N24980 G0 Z5.08
N24985 X992.414
N24990 Z1.016
N24995 G1 Z-1.016 F2328
N25000 X992.415 Z-6.016
N25005 X1193.6
N25010 Y-174.497
N25015 X992.182
N25020 X992.181 Z-1.016
N25025 G0 Z5.08
N25030 X889.791
N25035 Z1.016
N25040 G1 Z-6.016 F2328
N25045 X509.886
N25050 X509.885 Z-1.016
N25055 G0 Z5.08
N25060 X407.495
N25065 Z1.016
N25070 G1 Z-6.016 F2328
N25075 X310.802
N25080 X310.8 Z-1.016
N25085 G0 Z5.08
N25090 X210.017
N25095 Z1.016
N25100 G1 Z-6.016 F2328
N25105 X-32.953
N25110 G0 Z5.08
N25115 X-137.331
N25120 Z1.016
N25125 G1 Z-6.016 F2328
N25130 X-342.637
N25135 Z-1.016
N25140 G0 Z5.08
N25145 X-445.338
N25150 Z1.016
N25155 G1 Z-1.016 F2328
N25160 Z-6.016
N25165 X-1095.584
N25170 X-1096.133 Y-178.497
N25175 X-445.666
N25180 X-445.665 Z-1.016
N25185 G0 Z5.08
N25190 X-343.215
N25195 Z1.016
N25200 G1 Z-1.016 F2328
N25205 Z-6.016
N25210 X-137.989
N25215 X-137.987 Z-1.016
N25220 G0 Z5.08
N25225 X-34.103
N25230 Z1.016
N25235 G1 Z-6.016 F2328
N25240 X210.227
N25245 Z-1.016
N25250 G0 Z5.08
N25255 X309.567
N25260 Z1.016
N25265 G1 Z0.284 F2328
N25270 G2 X310.867 Z-1.016 I1.3
N25275 G1 X310.869
N25280 Z-6.016
N25285 X407.41
N25290 G0 Z5.08
N25295 X508.437
N25300 Z1.016
N25305 G1 Z0.284 F2328
N25310 G2 X509.737 Z-1.016 I1.3
N25315 G1 X509.738
N25320 Z-6.016
N25325 X889.485
N25330 G0 Z5.08
N25335 X991.929
N25340 Z1.016
N25345 G1 Z-1.016 F2328
N25350 X991.931 Z-6.016
N25355 X1193.6
N25360 Y-182.497
N25365 X991.661
N25370 Z-1.016
N25375 X991.659
N25380 G3 X990.359 Z0.284 K1.3
N25385 G0 Z5.08
N25390 X889.157
N25395 Z1.016
N25400 G1 Z-6.016 F2328
N25405 X509.551
N25410 G0 Z5.08
N25415 X407.283
N25420 Z1.016
N25425 G1 Z-6.016 F2328
N25430 X310.89
N25435 Z-1.016
N25440 X310.887
N25445 G3 X309.587 Z0.284 K1.3
N25450 G0 Z5.08
N25455 X210.26
N25460 Z1.016
N25465 G1 Z-6.016 F2328
N25470 X-35.129
N25475 X-35.132 Z-2.651
N25480 Z-2.649
N25485 G0 Z5.08
N25490 X-138.573
N25495 Z1.016
N25500 G1 Z-1.04 F2328
N25505 X-138.574 Z-6.016
N25510 X-343.716
N25515 G0 Z5.08
N25520 X-445.961
N25525 Z1.016
N25530 G1 Z-1.016 F2328
N25535 X-445.966 Z-6.016
N25540 X-1096.678
N25545 X-1097.213 Y-186.497
N25550 X-446.241
N25555 X-446.238 Z-1.016
N25560 Z-1.015
N25565 G0 Z5.08
N25570 X-344.145
N25575 Z1.016
N25580 G1 Z-6.016 F2328
N25585 X-139.088
N25590 X-139.087 Z-1.016
N25595 G0 Z5.08
N25600 X-36.04
N25605 Z1.016
N25610 G1 Z-6.016 F2328
N25615 X210.111
N25620 G0 Z5.08
N25625 X310.86
N25630 Z1.016
N25635 G1 Z-1.016 F2328
N25640 X310.861 Z-6.016
N25645 X407.114
N25650 G0 Z5.08
N25655 X509.325
N25660 Z1.016
N25665 G1 Z-1.016 F2328
N25670 X509.327 Z-6.016
N25675 X888.806
N25680 G0 Z5.08
N25685 X991.37
N25690 Z1.016
N25695 G1 Z-1.016 F2328
N25700 X991.372 Z-6.016
N25705 X1193.6
N25710 Y-190.497
N25715 X991.066
N25720 X991.064 Z-1.016
N25725 G0 Z5.08
N25730 X888.435
N25735 Z1.016
N25740 G1 Z-1.016 F2328
N25745 Z-6.016
N25750 X509.062
N25755 X509.061 Z-1.016
N25760 G0 Z5.08
N25765 X406.899
N25770 Z1.016
N25775 G1 Z-1.016 F2328
N25780 X406.898 Z-6.016
N25785 X310.779
N25790 X310.777 Z-1.016
N25795 Z-1.015
N25800 G0 Z5.08
N25805 X209.766
N25810 Z1.016
N25815 G1 Z-6.016 F2328
N25820 X-36.832
N25825 G0 Z5.08
N25830 X-139.532
N25835 Z1.016
N25840 G1 Z-1.016 F2328
N25845 X-139.533 Z-6.016
N25850 X-344.517
N25855 G0 Z5.08
N25860 X-446.492
N25865 Z1.016
N25870 G1 Z-3.358 F2328
N25875 Z-6.016
N25880 X-1097.739
N25885 Z-1.016
N25890 X-1098.257 Y-194.496
N25895 X-1098.255 Z-6.016
N25900 X-446.719
N25905 X-446.717 Z-1.016
N25910 X-446.716
N25915 G2 X-445.416 Z0.284 K1.3
N25920 G0 Z5.08
N25925 X-344.842
N25930 Z1.016
N25935 G1 Z-6.016 F2328
N25940 X-139.909
N25945 X-139.908 Z-1.016
N25950 G0 Z5.08
N25955 X-37.507
N25960 Z1.016
N25965 G1 Z-6.016 F2328
N25970 X209.216
N25975 Z-3.137
N25980 G0 Z5.08
N25985 X310.635
N25990 Z1.016
N25995 G1 Z-1.016 F2328
N26000 X310.637 Z-6.016
N26005 X406.634
N26010 G0 Z5.08
N26015 X508.76
N26020 Z1.016
N26025 G1 Z-6.016 F2328
N26030 X888.041
N26035 Z-1.016
N26040 G0 Z5.08
N26045 X990.739
N26050 Z1.016
N26055 G1 Z-1.016 F2328
N26060 X990.74 Z-6.016
N26065 X1193.6
N26070 Y-198.496
N26075 X990.395
N26080 X990.394 Z-1.016
N26085 G0 Z5.08
N26090 X887.624
N26095 Z1.016
N26100 G1 Z-6.016 F2328
N26105 X508.418
N26110 X508.417 Z-1.016
N26115 G0 Z5.08
N26120 X406.321
N26125 Z1.016
N26130 G1 Z-6.016 F2328
N26135 X310.432
N26140 X310.429 Z-1.016
N26145 Z-1.015
N26150 G0 Z5.08
N26155 X208.429
N26160 Z1.016
N26165 G1 Z-6.016 F2328
N26170 X-38.068
N26175 G0 Z5.08
N26180 X-140.218
N26185 Z1.016
N26190 G1 Z-1.016 F2328
N26195 X-140.22 Z-6.016
N26200 X-345.123
N26205 G0 Z5.08
N26210 X-446.921
N26215 Z1.016
N26220 G1 Z-1.016 F2328
N26225 X-446.925 Z-6.016
N26230 X-1098.761
N26235 X-1099.262 Y-202.496
N26240 X-447.11
N26245 X-447.108 Z-1.016
N26250 X-447.107
N26255 G2 X-445.807 Z0.284 K1.3
N26260 G0 Z5.08
N26265 X-345.365
N26270 Z1.016
N26275 G1 Z-6.016 F2328
N26280 X-140.464
N26285 X-140.459 Z-1.016
N26290 Z-1.015
N26295 G0 Z5.08
N26300 X-38.512
N26305 Z1.016
N26310 G1 Z-1.016 F2328
N26315 X-38.511 Z-6.016
N26320 X207.389
N26325 G0 Z5.08
N26330 X310.185
N26335 Z1.016
N26340 G1 Z-1.016 F2328
N26345 X310.188 Z-6.016
N26350 X405.955
N26355 Z-1.016
N26360 G0 Z5.08
N26365 X508.037
N26370 Z1.016
N26375 G1 Z-1.016 F2328
N26380 X508.038 Z-6.016
N26385 X887.186
N26390 X887.188 Z-1.672
N26395 G0 Z5.08
N26400 X990.031
N26405 Z1.016
N26410 G1 Z-1.016 F2328
N26415 X990.032 Z-6.016
N26420 X1193.6
N26425 Y-206.496
N26430 X989.649
N26435 Z-2.367
N26440 G0 Z5.08
N26445 X886.727
N26450 Z1.016
N26455 G1 Z-2.966 F2328
N26460 X886.726 Z-6.016
N26465 X507.618
N26470 X507.617 Z-1.016
N26475 G0 Z5.08
N26480 X405.531
N26485 Z1.016
N26490 G1 Z-2.499 F2328
N26495 X405.53 Z-6.016
N26500 X309.9
N26505 X309.899 Z-1.016
N26510 G0 Z5.08
N26515 X206.059
N26520 Z1.016
N26525 G1 Z-6.016 F2328
N26530 X-38.838
N26535 X-38.839 Z-1.016
N26540 G0 Z5.08
N26545 X-139.34
N26550 Z1.016
N26555 G1 Z0.284 F2328
N26560 G3 X-140.64 Z-1.016 I-1.3
N26565 G1 X-140.643
N26570 X-140.645 Z-6.016
N26575 X-345.571
N26580 G0 Z5.08
N26585 X-447.275
N26590 Z1.016
N26595 G1 Z-6.016 F2328
N26600 X-1099.757
N26605 G0 Z5.08
N26610 X-1100.245 Y-210.496
N26615 Z1.016
N26620 G1 Z-1.016 F2328
N26625 X-1100.242 Z-6.016
N26630 X-447.419
N26635 X-447.416 Z-1.016
N26640 Z-1.015
N26645 G0 Z5.08
N26650 X-345.745
N26655 Z1.016
N26660 G1 Z-6.016 F2328
N26665 X-140.762
N26670 X-140.76 Z-1.016
N26675 Z-1.015
N26680 G0 Z5.08
N26685 X-39.048
N26690 Z1.016
N26695 G1 Z-6.016 F2328
N26700 X204.393
N26705 Z-3.148
N26710 G0 Z5.08
N26715 X309.553
N26720 Z1.016
N26725 G1 Z-1.016 F2328
N26730 X309.556 Z-6.016
N26735 X405.044
N26740 G0 Z5.08
N26745 X507.158
N26750 Z1.016
N26755 G1 Z-1.016 F2328
N26760 Z-6.016
N26765 X886.244
N26770 X886.245 Z-3.044
N26775 G0 Z5.08
N26780 X989.248
N26785 Z1.016
N26790 G1 Z-6.016 F2328
N26795 X1193.6
N26800 Y-214.496
N26805 X988.826
N26810 Z-1.686
N26815 G0 Z5.08
N26820 X885.742
N26825 Z1.016
N26830 G1 Z-1.016 F2328
N26835 X885.739 Z-6.016
N26840 X506.659
N26845 X506.658 Z-1.016
N26850 G0 Z5.08
N26855 X404.492
N26860 Z1.016
N26865 G1 Z-2.607 F2328
N26870 X404.491 Z-6.016
N26875 X309.143
N26880 X309.142 Z-1.016
N26885 G0 Z5.08
N26890 X202.306
N26895 Z1.016
N26900 G1 Z-6.016 F2328
N26905 X-39.14
N26910 G0 Z5.08
N26915 X-140.815
N26920 Z1.016
N26925 G1 Z-1.016 F2328
N26930 X-140.817 Z-6.016
N26935 X-345.891
N26940 G0 Z5.08
N26945 X-447.542
N26950 Z1.016
N26955 G1 Z-1.016 F2328
N26960 X-447.546 Z-6.016
N26965 X-1100.715
N26970 X-1101.183 Y-218.496
N26975 X-447.654
N26980 X-447.651 Z-1.016
N26985 Z-1.015
N26990 G0 Z5.08
N26995 X-346.01
N27000 Z1.016
N27005 G1 Z-6.016 F2328
N27010 X-140.811
N27015 X-140.807 Z-1.016
N27020 Z-1.015
N27025 G0 Z5.08
N27030 X-39.125
N27035 Z1.016
N27040 G1 Z-6.016 F2328
N27045 X199.699
N27050 G0 Z5.08
N27055 X308.643
N27060 Z1.016
N27065 G1 Z-6.016 F2328
N27070 X403.863
N27075 G0 Z5.08
N27080 X506.118
N27085 Z1.016
N27090 G1 Z-1.016 F2328
N27095 X506.12 Z-6.016
N27100 X885.213
N27105 X885.214 Z-2.818
N27110 G0 Z5.08
N27115 X988.384
N27120 Z1.016
N27125 G1 Z-1.016 F2328
N27130 X988.385 Z-6.016
N27135 X1193.6
N27140 Y-222.496
N27145 X987.925
N27150 X987.924 Z-1.059
N27155 G0 Z5.08
N27160 X884.665
N27165 Z1.016
N27170 G1 Z-2.391 F2328
N27175 X884.664 Z-6.016
N27180 X505.541
N27185 G0 Z5.08
N27190 X403.151
N27195 Z1.016
N27200 G1 Z-6.016 F2328
N27205 X308.039
N27210 G0 Z5.08
N27215 X196.378
N27220 Z1.016
N27225 G1 Z-2.075 F2328
N27230 X196.376 Z-6.016
N27235 X-39.021
N27240 X-39.022 Z-1.016
N27245 G0 Z5.08
N27250 X-140.74
N27255 Z1.016
N27260 G1 Z-1.016 F2328
N27265 X-140.744 Z-6.016
N27270 X-346.104
N27275 G0 Z5.08
N27280 X-447.743
N27285 Z1.016
N27290 G1 Z-1.016 F2328
N27295 X-447.744 Z-6.016
N27300 X-1101.644
N27305 X-1101.646 Z-1.016
N27310 X-1102.094 Y-226.496 Z-6.016
N27315 X-447.816
N27320 X-447.813 Z-1.016
N27325 Z-1.015
N27330 G0 Z5.08
N27335 X-346.175
N27340 Z1.016
N27345 G1 Z-6.016 F2328
N27350 X-140.618
N27355 X-140.616 Z-1.016
N27360 Z-1.015
N27365 G0 Z5.08
N27370 X-38.831
N27375 Z1.016
N27380 G1 Z-6.016 F2328
N27385 X191.945
N27390 G0 Z5.08
N27395 X307.31
N27400 Z1.016
N27405 G1 Z-6.016 F2328
N27410 X402.345
N27415 G0 Z5.08
N27420 X504.919
N27425 Z1.016
N27430 G1 Z-1.016 F2328
N27435 X504.921 Z-6.016
N27440 X884.092
N27445 X884.094 Z-1.016
N27450 Z-1.015
N27455 G0 Z5.08
N27460 X987.443
N27465 Z1.016
N27470 G1 Z-1.016 F2328
N27475 X987.445 Z-6.016
N27480 X1193.6
N27485 Y-230.496
N27490 X986.945
N27495 X986.943 Z-1.016
N27500 G0 Z5.08
N27505 X883.499
N27510 Z1.016
N27515 G1 Z-2.323 F2328
N27520 X883.498 Z-6.016
N27525 X504.26
N27530 X504.259 Z-1.016
N27535 G0 Z5.08
N27540 X401.43
N27545 Z1.016
N27550 G1 Z-1.016 F2328
N27555 Z-6.016
N27560 X306.441
N27565 X306.44 Z-1.016
N27570 G0 Z5.08
N27575 X185.341
N27580 Z1.016
N27585 G1 Z-6.016 F2328
N27590 X149.617
N27595 G0 Z5.08
N27600 X122.855
N27605 Z1.016
N27610 G1 Z0.284 F2328
N27615 G3 X121.555 Z-1.016 I-1.3
N27620 G1 X121.55
N27625 X121.549 Z-6.016
N27630 X-38.557
N27635 G0 Z5.08
N27640 X-140.432
N27645 Z1.016
N27650 G1 Z-1.016 F2328
N27655 X-140.433 Z-6.016
N27660 X-346.223
N27665 G0 Z5.08
N27670 X-446.569
N27675 Z1.016
N27680 G1 Z0.284 F2328
N27685 G3 X-447.869 Z-1.016 I-1.3
N27690 G1 X-447.871
N27695 X-447.873 Z-6.016
N27700 X-1102.533
N27705 X-1102.969 Y-234.496
N27710 X-447.911
N27715 X-447.91 Z-1.016
N27720 G0 Z5.08
N27725 X-346.25
N27730 Z1.016
N27735 G1 Z-6.016 F2328
N27740 X-140.189
N27745 X-140.186 Z-1.016
N27750 Z-1.015
N27755 G0 Z5.08
N27760 X-38.198
N27765 Z1.016
N27770 G1 Z-6.016 F2328
N27775 X116.376
N27780 X116.378 Z-1.016
N27785 Z-1.015
N27790 G0 Z5.08
N27795 X305.413
N27800 Z1.016
N27805 G1 Z-1.016 F2328
N27810 X305.414 Z-6.016
N27815 X400.383
N27820 G0 Z5.08
N27825 X503.558
N27830 Z1.016
N27835 G1 Z-1.016 F2328
N27840 X503.559 Z-6.016
