%
(1001)
(T2 D=13 CR=0 - ZMIN=-6.016 - flat end mill)
N10 G90 G94
N15 G17
N20 G21
N25 G28 G91 Z0
N30 G90

(Parallel1Adaptive 2)
N35 M9
N40 T2 M6
N45 S9700 M3
N50 G54
N55 M8
N65 G0 X1193.599 Y-1091.985
N70 G43 Z15.24 H2
N75 G1 Z-4.016 F2328
N80 Z-6.016
N85 X-1193.399
N90 G18 G3 X-1193.685 Z-5.95 K0.65
N95 G2 X-1193.971 Z-5.883 I-0.286 K-0.584
N100 G17 G2 X-1195.921 Y-1090.035 J1.95
N105 G1 Y-1089.935
N110 G2 X-1193.971 Y-1087.985 I1.95
N115 G18 G3 X-1193.685 Z-5.95 K-0.65
N120 G2 X-1193.399 Z-6.016 I0.286 K0.584
N125 G1 X1193.599
N130 G2 X1193.885 Z-5.95 K0.65
N135 G3 X1194.172 Z-5.883 I0.286 K-0.584
N140 G17 G3 X1196.121 Y-1086.035 J1.95
N145 G1 Y-1085.935
N150 G3 X1194.172 Y-1083.985 I-1.95
N155 G18 G2 X1193.885 Z-5.95 K-0.65
N160 G3 X1193.599 Z-6.016 I-0.286 K0.584
N165 G1 X-1193.399
N170 G3 X-1193.685 Z-5.95 K0.65
N175 G2 X-1193.971 Z-5.883 I-0.286 K-0.584
N180 G17 G2 X-1195.921 Y-1082.035 J1.95
N185 G1 Y-1081.935
N190 G2 X-1193.971 Y-1079.985 I1.95
N195 G18 G3 X-1193.685 Z-5.95 K-0.65
N200 G2 X-1193.399 Z-6.016 I0.286 K0.584
N205 G1 X1193.599
N210 G2 X1193.885 Z-5.95 K0.65
N215 G3 X1194.172 Z-5.883 I0.286 K-0.584
N220 G17 G3 X1196.121 Y-1078.035 J1.95
N225 G1 Y-1077.935
N230 G3 X1194.172 Y-1075.985 I-1.95
N235 G18 G2 X1193.885 Z-5.95 K-0.65
N240 G3 X1193.599 Z-6.016 I-0.286 K0.584
N245 G1 X-1193.399
N250 G3 X-1193.685 Z-5.95 K0.65
N255 G2 X-1193.971 Z-5.883 I-0.286 K-0.584
N260 G17 G2 X-1195.921 Y-1074.035 J1.95
N265 G1 Y-1073.935
N270 G2 X-1193.971 Y-1071.985 I1.95
N275 G18 G3 X-1193.685 Z-5.95 K-0.65
N280 G2 X-1193.399 Z-6.016 I0.286 K0.584
N285 G1 X1193.599
N290 G2 X1193.885 Z-5.95 K0.65
N295 G3 X1194.172 Z-5.883 I0.286 K-0.584
N300 G17 G3 X1196.121 Y-1070.035 J1.95
N305 G1 Y-1069.935
N310 G3 X1194.172 Y-1067.985 I-1.95
N315 G18 G2 X1193.885 Z-5.95 K-0.65
N320 G3 X1193.599 Z-6.016 I-0.286 K0.584
N325 G1 X-1193.399
N330 G3 X-1193.685 Z-5.95 K0.65
N335 G2 X-1193.971 Z-5.883 I-0.286 K-0.584
N340 G17 G2 X-1195.921 Y-1066.035 J1.95
N345 G1 Y-1065.935
N350 G2 X-1193.971 Y-1063.985 I1.95
N355 G18 G3 X-1193.685 Z-5.95 K-0.65
N360 G2 X-1193.399 Z-6.016 I0.286 K0.584
N365 G1 X1193.599
N370 G2 X1193.885 Z-5.95 K0.65
N375 G3 X1194.172 Z-5.883 I0.286 K-0.584
N380 G17 G3 X1196.121 Y-1062.035 J1.95
N385 G1 Y-1061.935
N390 G3 X1194.172 Y-1059.985 I-1.95
N395 G18 G2 X1193.885 Z-5.95 K-0.65
N400 G3 X1193.599 Z-6.016 I-0.286 K0.584
N405 G1 X-1193.399
N410 G3 X-1193.685 Z-5.95 K0.65
N415 G2 X-1193.971 Z-5.883 I-0.286 K-0.584
N420 G17 G2 X-1195.921 Y-1058.035 J1.95
N425 G1 Y-1057.935
N430 G2 X-1193.971 Y-1055.985 I1.95
N435 G18 G3 X-1193.685 Z-5.95 K-0.65
N440 G2 X-1193.399 Z-6.016 I0.286 K0.584
N445 G1 X1193.599
N450 G2 X1193.885 Z-5.95 K0.65
N455 G3 X1194.172 Z-5.883 I0.286 K-0.584
N460 G17 G3 X1196.121 Y-1054.035 J1.95
N465 G1 Y-1053.935
N470 G3 X1194.172 Y-1051.985 I-1.95
N475 G18 G2 X1193.885 Z-5.95 K-0.65
N480 G3 X1193.599 Z-6.016 I-0.286 K0.584
N485 G1 X-1193.399
N490 G3 X-1193.685 Z-5.95 K0.65
N495 G2 X-1193.971 Z-5.883 I-0.286 K-0.584
N500 G17 G2 X-1195.921 Y-1050.035 J1.95
N505 G1 Y-1049.936
N510 G2 X-1193.971 Y-1047.985 I1.95
N515 G18 G3 X-1193.685 Z-5.95 K-0.65
N520 G2 X-1193.399 Z-6.016 I0.286 K0.584
N525 G1 X1193.599
N530 G2 X1193.885 Z-5.95 K0.65
N535 G3 X1194.172 Z-5.883 I0.286 K-0.584
N540 G17 G3 X1196.121 Y-1046.036 J1.95
N545 G1 Y-1045.936
N550 G3 X1194.172 Y-1043.986 I-1.95
N555 G18 G2 X1193.885 Z-5.95 K-0.65
N560 G3 X1193.599 Z-6.016 I-0.286 K0.584
N565 G1 X-1193.399
N570 G3 X-1193.685 Z-5.95 K0.65
N575 G2 X-1193.971 Z-5.883 I-0.286 K-0.584
N580 G17 G2 X-1195.921 Y-1042.036 J1.95
N585 G1 Y-1041.936
N590 G2 X-1193.971 Y-1039.986 I1.95
N595 G18 G3 X-1193.685 Z-5.95 K-0.65
N600 G2 X-1193.399 Z-6.016 I0.286 K0.584
N605 G1 X1193.599
N610 G2 X1193.885 Z-5.95 K0.65
N615 G3 X1194.172 Z-5.883 I0.286 K-0.584
N620 G17 G3 X1196.121 Y-1038.036 J1.95
N625 G1 Y-1037.936
N630 G3 X1194.172 Y-1035.986 I-1.95
N635 G18 G2 X1193.885 Z-5.95 K-0.65
N640 G3 X1193.599 Z-6.016 I-0.286 K0.584
N645 G1 X-1193.399
N650 G3 X-1193.685 Z-5.95 K0.65
N655 G2 X-1193.971 Z-5.883 I-0.286 K-0.584
N660 G17 G2 X-1195.921 Y-1034.036 J1.95
N665 G1 Y-1033.936
N670 G2 X-1193.971 Y-1031.986 I1.95
N675 G18 G3 X-1193.685 Z-5.95 K-0.65
N680 G2 X-1193.399 Z-6.016 I0.286 K0.584
N685 G1 X1193.599
N690 G2 X1193.885 Z-5.95 K0.65
N695 G3 X1194.172 Z-5.883 I0.286 K-0.584
N700 G17 G3 X1196.121 Y-1030.036 J1.95
N705 G1 Y-1029.936
N710 G3 X1194.172 Y-1027.986 I-1.95
N715 G18 G2 X1193.885 Z-5.95 K-0.65
N720 G3 X1193.599 Z-6.016 I-0.286 K0.584
N725 G1 X-1193.399
N730 G3 X-1193.685 Z-5.95 K0.65
N735 G2 X-1193.971 Z-5.883 I-0.286 K-0.584
N740 G17 G2 X-1195.921 Y-1026.036 J1.95
N745 G1 Y-1025.936
N750 G2 X-1193.971 Y-1023.986 I1.95
N755 G18 G3 X-1193.685 Z-5.95 K-0.65
N760 G2 X-1193.399 Z-6.016 I0.286 K0.584
N765 G1 X1193.599
N770 G2 X1193.885 Z-5.95 K0.65
N775 G3 X1194.172 Z-5.883 I0.286 K-0.584
N780 G17 G3 X1196.121 Y-1022.036 J1.95
N785 G1 Y-1021.936
N790 G3 X1194.172 Y-1019.986 I-1.95
N795 G18 G2 X1193.885 Z-5.95 K-0.65
N800 G3 X1193.599 Z-6.016 I-0.286 K0.584
N805 G1 X-1193.399
N810 G3 X-1193.685 Z-5.95 K0.65
N815 G2 X-1193.971 Z-5.883 I-0.286 K-0.584
N820 G17 G2 X-1195.921 Y-1018.036 J1.95
N825 G1 Y-1017.936
N830 G2 X-1193.971 Y-1015.986 I1.95
N835 G18 G3 X-1193.685 Z-5.95 K-0.65
N840 G2 X-1193.399 Z-6.016 I0.286 K0.584
N845 G1 X1193.599
N850 G2 X1193.885 Z-5.95 K0.65
N855 G3 X1194.172 Z-5.883 I0.286 K-0.584
N860 G17 G3 X1196.121 Y-1014.036 J1.95
N865 G1 Y-1013.936
N870 G3 X1194.172 Y-1011.986 I-1.95
N875 G18 G2 X1193.885 Z-5.95 K-0.65
N880 G3 X1193.599 Z-6.016 I-0.286 K0.584
N885 G1 X-1193.399
N890 G3 X-1193.685 Z-5.95 K0.65
N895 G2 X-1193.971 Z-5.883 I-0.286 K-0.584
N900 G17 G2 X-1195.921 Y-1010.036 J1.95
N905 G1 Y-1009.936
N910 G2 X-1193.971 Y-1007.986 I1.95
N915 G18 G3 X-1193.685 Z-5.95 K-0.65
N920 G2 X-1193.399 Z-6.016 I0.286 K0.584
N925 G1 X1193.599
N930 G2 X1193.885 Z-5.95 K0.65
N935 G3 X1194.172 Z-5.883 I0.286 K-0.584
N940 G17 G3 X1196.121 Y-1006.036 J1.95
N945 G1 Y-1005.936
N950 G3 X1194.172 Y-1003.986 I-1.95
N955 G18 G2 X1193.885 Z-5.95 K-0.65
N960 G3 X1193.599 Z-6.016 I-0.286 K0.584
N965 G1 X-1193.399
N970 G3 X-1193.685 Z-5.95 K0.65
N975 G2 X-1193.971 Z-5.883 I-0.286 K-0.584
N980 G17 G2 X-1195.921 Y-1002.036 J1.95
N985 G1 Y-1001.936
N990 G2 X-1193.971 Y-999.986 I1.95
N995 G18 G3 X-1193.685 Z-5.95 K-0.65
N1000 G2 X-1193.399 Z-6.016 I0.286 K0.584
N1005 G1 X1193.599
N1010 G2 X1193.885 Z-5.95 K0.65
N1015 G3 X1194.172 Z-5.883 I0.286 K-0.584
N1020 G17 G3 X1196.121 Y-998.036 J1.95
N1025 G1 Y-997.936
N1030 G3 X1194.172 Y-995.986 I-1.95
N1035 G18 G2 X1193.885 Z-5.95 K-0.65
N1040 G3 X1193.599 Z-6.016 I-0.286 K0.584
N1045 G1 X-1193.399
N1050 G3 X-1193.685 Z-5.95 K0.65
N1055 G2 X-1193.971 Z-5.883 I-0.286 K-0.584
N1060 G17 G2 X-1195.921 Y-994.036 J1.95
N1065 G1 Y-993.937
N1070 G2 X-1193.971 Y-991.987 I1.95
N1075 G18 G3 X-1193.685 Z-5.95 K-0.65
N1080 G2 X-1193.399 Z-6.016 I0.286 K0.584
N1085 G1 X1193.599
N1090 G2 X1193.885 Z-5.95 K0.65
N1095 G3 X1194.172 Z-5.883 I0.286 K-0.584
N1100 G17 G3 X1196.121 Y-990.037 J1.95
N1105 G1 Y-989.937
N1110 G3 X1194.172 Y-987.987 I-1.95
N1115 G18 G2 X1193.885 Z-5.95 K-0.65
N1120 G3 X1193.599 Z-6.016 I-0.286 K0.584
N1125 G1 X-1193.399
N1130 G3 X-1193.685 Z-5.95 K0.65
N1135 G2 X-1193.971 Z-5.883 I-0.286 K-0.584
N1140 G17 G2 X-1195.921 Y-986.037 J1.95
N1145 G1 Y-985.937
N1150 G2 X-1193.971 Y-983.987 I1.95
N1155 G18 G3 X-1193.685 Z-5.95 K-0.65
N1160 G2 X-1193.399 Z-6.016 I0.286 K0.584
N1165 G1 X1193.599
N1170 G2 X1193.885 Z-5.95 K0.65
N1175 G3 X1194.172 Z-5.883 I0.286 K-0.584
N1180 G17 G3 X1196.121 Y-982.037 J1.95
N1185 G1 Y-981.937
N1190 G3 X1194.172 Y-979.987 I-1.95
N1195 G18 G2 X1193.885 Z-5.95 K-0.65
N1200 G3 X1193.599 Z-6.016 I-0.286 K0.584
N1205 G1 X-1193.399
N1210 G3 X-1193.685 Z-5.95 K0.65
N1215 G2 X-1193.971 Z-5.883 I-0.286 K-0.584
N1220 G17 G2 X-1195.921 Y-978.037 J1.95
N1225 G1 Y-977.937
N1230 G2 X-1193.971 Y-975.987 I1.95
N1235 G18 G3 X-1193.685 Z-5.95 K-0.65
N1240 G2 X-1193.399 Z-6.016 I0.286 K0.584
N1245 G1 X1193.599
N1250 G2 X1193.885 Z-5.95 K0.65
N1255 G3 X1194.172 Z-5.883 I0.286 K-0.584
N1260 G17 G3 X1196.121 Y-974.037 J1.95
N1265 G1 Y-973.937
N1270 G3 X1194.172 Y-971.987 I-1.95
N1275 G18 G2 X1193.885 Z-5.95 K-0.65
N1280 G3 X1193.599 Z-6.016 I-0.286 K0.584
N1285 G1 X-1193.399
N1290 G3 X-1193.685 Z-5.95 K0.65
N1295 G2 X-1193.971 Z-5.883 I-0.286 K-0.584
N1300 G17 G2 X-1195.921 Y-970.037 J1.95
N1305 G1 Y-969.937
N1310 G2 X-1193.971 Y-967.987 I1.95
N1315 G18 G3 X-1193.685 Z-5.95 K-0.65
N1320 G2 X-1193.399 Z-6.016 I0.286 K0.584
N1325 G1 X1193.599
N1330 G2 X1193.885 Z-5.95 K0.65
N1335 G3 X1194.172 Z-5.883 I0.286 K-0.584
N1340 G17 G3 X1196.121 Y-966.037 J1.95
N1345 G1 Y-965.937
N1350 G3 X1194.172 Y-963.987 I-1.95
N1355 G18 G2 X1193.885 Z-5.95 K-0.65
N1360 G3 X1193.599 Z-6.016 I-0.286 K0.584
N1365 G1 X-1193.399
N1370 G3 X-1193.685 Z-5.95 K0.65
N1375 G2 X-1193.971 Z-5.883 I-0.286 K-0.584
N1380 G17 G2 X-1195.921 Y-962.037 J1.95
N1385 G1 Y-961.937
N1390 G2 X-1193.971 Y-959.987 I1.95
N1395 G18 G3 X-1193.685 Z-5.95 K-0.65
N1400 G2 X-1193.399 Z-6.016 I0.286 K0.584
N1405 G1 X1193.599
N1410 G2 X1193.885 Z-5.95 K0.65
N1415 G3 X1194.172 Z-5.883 I0.286 K-0.584
N1420 G17 G3 X1196.121 Y-958.037 J1.95
N1425 G1 Y-957.937
N1430 G3 X1194.172 Y-955.987 I-1.95
N1435 G18 G2 X1193.885 Z-5.95 K-0.65
N1440 G3 X1193.599 Z-6.016 I-0.286 K0.584
N1445 G1 X-1193.399
N1450 G3 X-1193.685 Z-5.95 K0.65
N1455 G2 X-1193.971 Z-5.883 I-0.286 K-0.584
N1460 G17 G2 X-1195.921 Y-954.037 J1.95
N1465 G1 Y-953.937
N1470 G2 X-1193.971 Y-951.987 I1.95
N1475 G18 G3 X-1193.685 Z-5.95 K-0.65
N1480 G2 X-1193.399 Z-6.016 I0.286 K0.584
N1485 G1 X1193.599
N1490 G2 X1193.885 Z-5.95 K0.65
N1495 G3 X1194.172 Z-5.883 I0.286 K-0.584
N1500 G17 G3 X1196.121 Y-950.037 J1.95
N1505 G1 Y-949.937
N1510 G3 X1194.172 Y-947.987 I-1.95
N1515 G18 G2 X1193.885 Z-5.95 K-0.65
N1520 G3 X1193.599 Z-6.016 I-0.286 K0.584
N1525 G1 X-1193.399
N1530 G3 X-1193.685 Z-5.95 K0.65
N1535 G2 X-1193.971 Z-5.883 I-0.286 K-0.584
N1540 G17 G2 X-1195.921 Y-946.037 J1.95
N1545 G1 Y-945.937
N1550 G2 X-1193.971 Y-943.987 I1.95
N1555 G18 G3 X-1193.685 Z-5.95 K-0.65
N1560 G2 X-1193.399 Z-6.016 I0.286 K0.584
N1565 G1 X1193.599
N1570 G2 X1193.885 Z-5.95 K0.65
N1575 G3 X1194.172 Z-5.883 I0.286 K-0.584
N1580 G17 G3 X1196.121 Y-942.037 J1.95
N1585 G1 Y-941.938
N1590 G3 X1194.172 Y-939.987 I-1.95
N1595 G18 G2 X1193.885 Z-5.95 K-0.65
N1600 G3 X1193.599 Z-6.016 I-0.286 K0.584
N1605 G1 X-1193.399
N1610 G3 X-1193.685 Z-5.95 K0.65
N1615 G2 X-1193.971 Z-5.883 I-0.286 K-0.584
N1620 G17 G2 X-1195.921 Y-938.037 J1.95
N1625 G1 Y-937.938
N1630 G2 X-1193.971 Y-935.988 I1.95
N1635 G18 G3 X-1193.685 Z-5.95 K-0.65
N1640 G2 X-1193.399 Z-6.016 I0.286 K0.584
N1645 G1 X1193.599
N1650 G2 X1193.885 Z-5.95 K0.65
N1655 G3 X1194.172 Z-5.883 I0.286 K-0.584
N1660 G17 G3 X1196.121 Y-934.038 J1.95
N1665 G1 Y-933.938
N1670 G3 X1194.172 Y-931.988 I-1.95
N1675 G18 G2 X1193.885 Z-5.95 K-0.65
N1680 G3 X1193.599 Z-6.016 I-0.286 K0.584
N1685 G1 X-1193.399
N1690 G3 X-1193.685 Z-5.95 K0.65
N1695 G2 X-1193.971 Z-5.883 I-0.286 K-0.584
N1700 G17 G2 X-1195.921 Y-930.038 J1.95
N1705 G1 Y-929.938
N1710 G2 X-1193.971 Y-927.988 I1.95
N1715 G18 G3 X-1193.685 Z-5.95 K-0.65
N1720 G2 X-1193.399 Z-6.016 I0.286 K0.584
N1725 G1 X1193.599
N1730 G2 X1193.885 Z-5.95 K0.65
N1735 G3 X1194.172 Z-5.883 I0.286 K-0.584
N1740 G17 G3 X1196.121 Y-926.038 J1.95
N1745 G1 Y-925.938
N1750 G3 X1194.172 Y-923.988 I-1.95
N1755 G18 G2 X1193.885 Z-5.95 K-0.65
N1760 G3 X1193.599 Z-6.016 I-0.286 K0.584
N1765 G1 X-1193.399
N1770 G3 X-1193.685 Z-5.95 K0.65
N1775 G2 X-1193.971 Z-5.883 I-0.286 K-0.584
N1780 G17 G2 X-1195.921 Y-922.038 J1.95
N1785 G1 Y-921.938
N1790 G2 X-1193.971 Y-919.988 I1.95
N1795 G18 G3 X-1193.684 Z-5.95 K-0.65
N1800 G2 X-1193.398 Z-6.016 I0.286 K0.584
N1805 G1 X152.188
N1810 Z0.984
N1815 G0 X118.886 Y-915.988
N1820 G1 Z-6.016 F2328
N1825 X-1193.398
N1830 G3 X-1193.684 Z-5.95 K0.65
N1835 G2 X-1193.97 Z-5.883 I-0.286 K-0.584
N1840 G17 G2 X-1195.921 Y-914.038 J1.95
N1845 G1 Y-913.938
N1850 G2 X-1193.97 Y-911.988 I1.95
N1855 G18 G3 X-1193.684 Z-5.95 K-0.65
N1860 G2 X-1193.398 Z-6.016 I0.286 K0.584
N1865 G1 X95.424
N1870 Z0.984
N1875 G0 X76.03 Y-907.988
N1880 G1 Z-6.016 F2328
N1885 X-1193.398
N1890 G3 X-1193.684 Z-5.95 K0.65
N1895 G2 X-1193.97 Z-5.883 I-0.286 K-0.584
N1900 G17 G2 X-1195.92 Y-906.038 J1.95
N1905 G1 Y-905.938
N1910 G2 X-1193.97 Y-903.988 I1.95
N1915 G18 G3 X-1193.684 Z-5.95 K-0.65
N1920 G2 X-1193.398 Z-6.016 I0.286 K0.584
N1925 G1 X59.157
N1930 Z0.984
N1935 G0 X44.061 Y-899.988
N1940 G1 Z-6.016 F2328
N1945 X-1193.398
N1950 G3 X-1193.684 Z-5.95 K0.65
N1955 G2 X-1193.97 Z-5.883 I-0.286 K-0.584
N1960 G17 G2 X-1195.92 Y-898.038 J1.95
N1965 G1 Y-897.938
N1970 G2 X-1193.97 Y-895.988 I1.95
N1975 G18 G3 X-1193.684 Z-5.95 K-0.65
N1980 G2 X-1193.398 Z-6.016 I0.286 K0.584
N1985 G1 X30.291
N1990 Z0.984
N1995 G0 X17.563 Y-891.988
N2000 G1 Z-6.016 F2328
N2005 X-1193.398
N2010 G3 X-1193.684 Z-5.95 K0.65
N2015 G2 X-1193.97 Z-5.883 I-0.286 K-0.584
N2020 G17 G2 X-1195.921 Y-890.038 J1.95
N2025 G1 Y-889.938
N2030 G2 X-1193.97 Y-887.988 I1.95
N2035 G18 G3 X-1193.684 Z-5.95 K-0.65
N2040 G2 X-1193.398 Z-6.016 I0.286 K0.584
N2045 G1 X5.685
N2050 Z0.984
N2055 G0 X-5.485 Y-883.989
N2060 G1 Z-6.016 F2328
N2065 X-1193.398
N2070 G3 X-1193.684 Z-5.95 K0.65
N2075 G2 X-1193.97 Z-5.883 I-0.286 K-0.584
N2080 G17 G2 X-1195.92 Y-882.039 J1.95
N2085 G1 Y-881.939
N2090 G2 X-1193.97 Y-879.989 I1.95
N2095 G18 G3 X-1193.684 Z-5.95 K-0.65
N2100 G2 X-1193.398 Z-6.016 I0.286 K0.584
N2105 G1 X-16.055
N2110 X-16.37 Y-879.866
N2115 X-17 Y-879.621
N2120 X-17.315 Y-879.498
N2125 X-17.63 Y-879.375
N2130 X-17.945 Y-879.252
N2135 X-19.203 Y-878.757
N2140 X-19.518 Y-878.633
N2145 X-20.146 Y-878.384
N2150 X-21.403 Y-877.884
N2155 X-21.717 Y-877.759
N2160 X-22.345 Y-877.508
N2165 X-22.658 Y-877.382
N2170 X-23.599 Y-877.004
N2175 X-23.913 Y-876.878
N2180 X-24.54 Y-876.625
N2185 X-24.853 Y-876.498
N2190 X-25.793 Y-876.116
N2195 X-26.106 Y-875.989
N2200 X-1193.398
N2205 G3 X-1193.684 Z-5.95 K0.65
N2210 G2 X-1193.97 Z-5.883 I-0.286 K-0.584
N2215 G17 G2 X-1195.92 Y-874.039 J1.95
N2220 G1 Y-873.939
N2225 G2 X-1193.97 Y-871.989 I1.95
N2230 G18 G3 X-1193.684 Z-5.95 K-0.65
N2235 G2 X-1193.398 Z-6.016 I0.286 K0.584
N2240 G1 X-35.699
N2245 X-36.275 Y-871.743
N2250 X-36.851 Y-871.496
N2255 X-37.139 Y-871.373
N2260 X-38.291 Y-870.878
N2265 X-38.578 Y-870.754
N2270 X-39.153 Y-870.505
N2275 X-39.441 Y-870.38
N2280 X-40.59 Y-869.881
N2285 X-40.878 Y-869.756
N2290 X-41.452 Y-869.505
N2295 X-41.739 Y-869.379
N2300 X-43.173 Y-868.749
N2305 X-43.46 Y-868.623
N2310 X-43.746 Y-868.496
N2315 X-44.606 Y-868.115
N2320 X-44.892 Y-867.989
N2325 X-1193.398
N2330 G3 X-1193.684 Z-5.95 K0.65
N2335 G2 X-1193.97 Z-5.883 I-0.286 K-0.584
N2340 G17 G2 X-1195.92 Y-866.039 J1.95
N2345 G1 Y-865.939
N2350 G2 X-1193.97 Y-863.989 I1.95
N2355 G18 G3 X-1193.684 Z-5.95 K-0.65
N2360 G2 X-1193.398 Z-6.016 I0.286 K0.584
N2365 G1 X-53.725
N2370 X-53.991 Y-863.864
N2375 X-54.524 Y-863.618
N2380 X-54.791 Y-863.494
N2385 X-56.655 Y-862.627
N2390 X-56.921 Y-862.502
N2395 X-58.782 Y-861.628
N2400 X-59.047 Y-861.502
N2405 X-59.313 Y-861.377
N2410 X-60.905 Y-860.621
N2415 X-61.171 Y-860.495
N2420 X-61.436 Y-860.369
N2425 X-61.966 Y-860.115
N2430 X-62.231 Y-859.989
N2435 X-1193.398
N2440 G3 X-1193.684 Z-5.95 K0.65
N2445 G2 X-1193.97 Z-5.883 I-0.286 K-0.584
N2450 G17 G2 X-1195.92 Y-858.039 J1.95
N2455 G1 Y-857.939
N2460 G2 X-1193.97 Y-855.989 I1.95
N2465 G18 G3 X-1193.684 Z-5.95 K-0.65
N2470 G2 X-1193.398 Z-6.016 I0.286 K0.584
N2475 G1 X-70.445
N2480 X-70.694 Y-855.865
N2485 X-71.939 Y-855.247
N2490 X-72.436 Y-854.999
N2495 X-72.685 Y-854.874
N2500 X-72.934 Y-854.75
N2505 X-73.928 Y-854.252
N2510 X-74.176 Y-854.127
N2515 X-74.921 Y-853.752
N2520 X-75.169 Y-853.626
N2525 X-76.162 Y-853.124
N2530 X-76.409 Y-852.999
N2535 X-77.153 Y-852.621
N2540 X-77.401 Y-852.495
N2545 X-78.391 Y-851.989
N2550 X-1193.398
N2555 G3 X-1193.684 Z-5.95 K0.65
N2560 G2 X-1193.97 Z-5.883 I-0.286 K-0.584
N2565 G17 G2 X-1195.92 Y-850.039 J1.95
N2570 G1 Y-849.939
N2575 G2 X-1193.97 Y-847.989 I1.95
N2580 G18 G3 X-1193.684 Z-5.95 K-0.65
N2585 G2 X-1193.398 Z-6.016 I0.286 K0.584
N2590 G1 X-86.092
N2595 X-86.327 Y-847.866
N2600 X-87.029 Y-847.494
N2605 X-87.263 Y-847.37
N2610 X-88.433 Y-846.749
N2615 X-88.667 Y-846.624
N2620 X-89.135 Y-846.375
N2625 X-89.369 Y-846.25
N2630 X-90.77 Y-845.5
N2635 X-91.003 Y-845.374
N2640 X-91.237 Y-845.249
N2645 X-91.47 Y-845.123
N2650 X-92.869 Y-844.368
N2655 X-93.102 Y-844.242
N2660 X-93.335 Y-844.116
N2665 X-93.567 Y-843.989
N2670 X-1193.398
N2675 G3 X-1193.684 Z-5.95 K0.65
N2680 G2 X-1193.971 Z-5.883 I-0.286 K-0.584
N2685 G17 G2 X-1195.921 Y-842.039 J1.95
N2690 G1 Y-841.939
N2695 G2 X-1193.971 Y-839.989 I1.95
N2700 G1 X-1193.97
N2705 G18 G3 X-1193.684 Z-5.95 K-0.65
N2710 G2 X-1193.398 Z-6.016 I0.286 K0.584
N2715 G1 X-100.832
N2720 X-101.719 Y-839.494
N2725 X-102.162 Y-839.246
N2730 X-103.932 Y-838.25
N2735 X-104.374 Y-838
N2740 X-106.141 Y-836.997
N2745 X-106.582 Y-836.746
N2750 X-107.904 Y-835.989
N2755 X-1193.398
N2760 G3 X-1193.684 Z-5.95 K0.65
N2765 G2 X-1193.97 Z-5.883 I-0.286 K-0.584
N2770 G1 X-1193.971
N2775 G17 G2 X-1195.921 Y-834.039 J1.95
N2780 G1 Y-833.939
N2785 G2 X-1193.971 Y-831.989 I1.95
N2790 G18 G3 X-1193.685 Z-5.95 K-0.65
N2795 G2 X-1193.398 Z-6.016 I0.286 K0.584
N2800 G1 X-114.797
N2805 X-115.218 Y-831.742
N2810 X-115.639 Y-831.493
N2815 X-116.902 Y-830.747
N2820 X-117.322 Y-830.498
N2825 X-117.743 Y-830.248
N2830 X-119.003 Y-829.498
N2835 X-119.422 Y-829.247
N2840 X-119.842 Y-828.996
N2845 X-121.099 Y-828.242
N2850 X-121.518 Y-827.99
N2855 X-1193.398
N2860 G3 X-1193.684 Z-5.95 K0.65
N2865 G2 X-1193.97 Z-5.883 I-0.286 K-0.584
N2870 G17 G2 X-1195.92 Y-826.039 J1.95
N2875 G1 Y-825.94
N2880 G2 X-1193.97 Y-823.99 I1.95
N2885 G18 G3 X-1193.684 Z-5.95 K-0.65
N2890 G2 X-1193.398 Z-6.016 I0.286 K0.584
N2895 G1 X-128.082
N2900 X-128.484 Y-823.741
N2905 X-128.886 Y-823.493
N2910 X-129.288 Y-823.244
N2915 X-129.689 Y-822.995
N2920 X-130.492 Y-822.497
N2925 X-130.893 Y-822.247
N2930 X-131.694 Y-821.748
N2935 X-132.095 Y-821.497
N2940 X-132.896 Y-820.996
N2945 X-133.296 Y-820.745
N2950 X-133.696 Y-820.493
N2955 X-134.095 Y-820.242
N2960 X-134.495 Y-819.99
N2965 X-1193.398
N2970 G3 X-1193.684 Z-5.95 K0.65
N2975 G2 X-1193.97 Z-5.883 I-0.286 K-0.584
N2980 G17 G2 X-1195.92 Y-818.04 J1.95
N2985 G1 Y-817.94
N2990 G2 X-1193.97 Y-815.99 I1.95
N2995 G18 G3 X-1193.684 Z-5.95 K-0.65
N3000 G2 X-1193.398 Z-6.016 I0.286 K0.584
N3005 G1 X-140.768
N3010 X-141.538 Y-815.493
N3015 X-141.923 Y-815.245
N3020 X-142.307 Y-814.996
N3025 X-143.844 Y-813.997
N3030 X-144.228 Y-813.748
N3035 X-144.611 Y-813.497
N3040 X-146.144 Y-812.493
N3045 X-146.527 Y-812.242
N3050 X-146.909 Y-811.99
N3055 X-1193.398
N3060 G3 X-1193.684 Z-5.95 K0.65
N3065 G2 X-1193.97 Z-5.883 I-0.286 K-0.584
N3070 G17 G2 X-1195.92 Y-810.04 J1.95
N3075 G1 Y-809.94
N3080 G2 X-1193.97 Y-807.99 I1.95
N3085 G18 G3 X-1193.684 Z-5.95 K-0.65
N3090 G2 X-1193.398 Z-6.016 I0.286 K0.584
N3095 G1 X-152.915
N3100 X-153.279 Y-807.743
N3105 X-153.642 Y-807.496
N3110 X-154.005 Y-807.248
N3115 X-154.368 Y-807
N3120 X-154.731 Y-806.751
N3125 X-155.455 Y-806.253
N3130 X-155.817 Y-806.003
N3135 X-156.178 Y-805.753
N3140 X-156.539 Y-805.502
N3145 X-156.9 Y-805.251
N3150 X-157.261 Y-805
N3155 X-157.621 Y-804.748
N3160 X-157.981 Y-804.495
N3165 X-158.341 Y-804.243
N3170 X-158.7 Y-803.99
N3175 X-1193.398
N3180 G3 X-1193.684 Z-5.95 K0.65
N3185 G2 X-1193.97 Z-5.883 I-0.286 K-0.584
N3190 G1 X-1193.971
N3195 G17 G2 X-1195.921 Y-802.04 J1.95
N3200 G1 Y-801.94
N3205 G2 X-1193.971 Y-799.99 I1.95
N3210 G18 G3 X-1193.685 Z-5.95 K-0.65
N3215 G2 X-1193.399 Z-6.016 I0.286 K0.584
N3220 G1 X-164.282
N3225 X-164.621 Y-799.742
N3230 X-165.3 Y-799.245
N3235 X-165.64 Y-798.997
N3240 X-165.979 Y-798.748
N3245 X-166.994 Y-798
N3250 X-167.332 Y-797.749
N3255 X-167.67 Y-797.499
N3260 X-168.345 Y-796.997
N3265 X-168.683 Y-796.746
N3270 X-169.02 Y-796.494
N3275 X-169.356 Y-796.242
N3280 X-169.693 Y-795.99
N3285 X-1193.398
N3290 G3 X-1193.684 Z-5.95 K0.65
N3295 G2 X-1193.97 Z-5.883 I-0.286 K-0.584
N3300 G17 G2 X-1195.92 Y-794.04 J1.95
N3305 G1 Y-793.94
N3310 G2 X-1193.97 Y-791.99 I1.95
N3315 G18 G3 X-1193.684 Z-5.95 K-0.65
N3320 G2 X-1193.398 Z-6.016 I0.286 K0.584
N3325 G1 X-174.958
N3330 X-175.603 Y-791.493
N3335 X-175.925 Y-791.245
N3340 X-176.247 Y-790.996
N3345 X-176.89 Y-790.497
N3350 X-177.211 Y-790.247
N3355 X-177.854 Y-789.747
N3360 X-178.174 Y-789.497
N3365 X-178.495 Y-789.246
N3370 X-179.456 Y-788.493
N3375 X-179.776 Y-788.242
N3380 X-180.096 Y-787.99
N3385 X-1193.398
N3390 G3 X-1193.684 Z-5.95 K0.65
N3395 G2 X-1193.97 Z-5.883 I-0.286 K-0.584
N3400 G17 G2 X-1195.92 Y-786.04 J1.95
N3405 G1 Y-785.94
N3410 G2 X-1193.97 Y-783.99 I1.95
N3415 G18 G3 X-1193.684 Z-5.95 K-0.65
N3420 G2 X-1193.398 Z-6.016 I0.286 K0.584
N3425 G1 X-185.119
N3430 X-185.428 Y-783.742
N3435 X-185.737 Y-783.493
N3440 X-186.662 Y-782.745
N3445 X-186.97 Y-782.496
N3450 X-187.277 Y-782.246
N3455 X-188.507 Y-781.245
N3460 X-188.814 Y-780.995
N3465 X-189.735 Y-780.242
N3470 X-190.041 Y-779.99
N3475 X-1193.398
N3480 G3 X-1193.684 Z-5.95 K0.65
N3485 G2 X-1193.97 Z-5.883 I-0.286 K-0.584
N3490 G17 G2 X-1195.92 Y-778.04 J1.95
N3495 G1 Y-777.94
N3500 G2 X-1193.97 Y-775.99 I1.95
N3505 G18 G3 X-1193.684 Z-5.95 K-0.65
N3510 G2 X-1193.398 Z-6.016 I0.286 K0.584
N3515 G1 X-194.87
N3520 X-195.465 Y-775.493
N3525 X-195.762 Y-775.244
N3530 X-196.059 Y-774.994
N3535 X-197.247 Y-773.996
N3540 X-197.543 Y-773.746
N3545 X-197.839 Y-773.495
N3550 X-198.728 Y-772.744
N3555 X-199.023 Y-772.493
N3560 X-199.319 Y-772.242
N3565 X-199.615 Y-771.991
N3570 X-1193.398
N3575 G3 X-1193.684 Z-5.95 K0.65
N3580 G2 X-1193.97 Z-5.883 I-0.286 K-0.584
N3585 G17 G2 X-1195.92 Y-770.041 J1.95
N3590 G1 Y-769.941
N3595 G2 X-1193.97 Y-767.991 I1.95
N3600 G18 G3 X-1193.684 Z-5.95 K-0.65
N3605 G2 X-1193.398 Z-6.016 I0.286 K0.584
N3610 G1 X-204.279
N3615 X-204.567 Y-767.742
N3620 X-204.855 Y-767.493
N3625 X-206.005 Y-766.495
N3630 X-206.292 Y-766.245
N3635 X-206.579 Y-765.995
N3640 X-206.866 Y-765.745
N3645 X-207.44 Y-765.245
N3650 X-207.727 Y-764.994
N3655 X-208.299 Y-764.493
N3660 X-208.586 Y-764.242
N3665 X-208.872 Y-763.991
N3670 X-1193.398
N3675 G3 X-1193.684 Z-5.95 K0.65
N3680 G2 X-1193.97 Z-5.883 I-0.286 K-0.584
N3685 G1 X-1193.971
N3690 G17 G2 X-1195.921 Y-762.041 J1.95
N3695 G1 Y-761.941
N3700 G2 X-1193.971 Y-759.991 I1.95
N3705 G18 G3 X-1193.685 Z-5.95 K-0.65
N3710 G2 X-1193.398 Z-6.016 I0.286 K0.584
N3715 G1 X-213.394
N3720 X-213.673 Y-759.742
N3725 X-213.953 Y-759.493
N3730 X-214.232 Y-759.243
N3735 X-215.069 Y-758.495
N3740 X-215.347 Y-758.245
N3745 X-215.626 Y-757.995
N3750 X-215.904 Y-757.745
N3755 X-216.461 Y-757.244
N3760 X-216.739 Y-756.994
N3765 X-217.573 Y-756.242
N3770 X-217.851 Y-755.991
N3775 X-1193.398
N3780 G3 X-1193.684 Z-5.95 K0.65
N3785 G2 X-1193.97 Z-5.883 I-0.286 K-0.584
N3790 G17 G2 X-1195.92 Y-754.041 J1.95
N3795 G1 Y-753.941
N3800 G2 X-1193.97 Y-751.991 I1.95
N3805 G18 G3 X-1193.684 Z-5.95 K-0.65
N3810 G2 X-1193.398 Z-6.016 I0.286 K0.584
N3815 G1 X-222.245
N3820 X-222.517 Y-751.742
N3825 X-222.789 Y-751.493
N3830 X-223.06 Y-751.243
N3835 X-223.331 Y-750.994
N3840 X-223.874 Y-750.494
N3845 X-224.145 Y-750.245
N3850 X-224.687 Y-749.745
N3855 X-224.958 Y-749.495
N3860 X-225.499 Y-748.994
N3865 X-226.58 Y-747.991
N3870 X-1193.398
N3875 G17 G2 X-1195.348 Y-746.041 J1.95
N3880 G1 Y-745.941
N3885 G2 X-1193.398 Y-743.991 I1.95
N3890 G1 X-230.857
N3895 X-231.387 Y-743.493
N3900 X-231.651 Y-743.243
N3905 X-232.18 Y-742.744
N3910 X-232.444 Y-742.494
N3915 X-234.026 Y-740.994
N3920 X-234.29 Y-740.744
N3925 X-234.553 Y-740.493
N3930 X-235.079 Y-739.991
N3935 X-1193.187
N3940 X-1193.122 Y-739.74
N3945 X-1192.921 Y-738.99
N3950 X-1192.853 Y-738.74
N3955 X-1192.718 Y-738.24
N3960 X-1192.447 Y-737.24
N3965 X-1192.311 Y-736.741
N3970 X-1192.243 Y-736.491
N3975 X-1192.107 Y-735.991
N3980 X-239.248
N3985 X-239.764 Y-735.492
N3990 X-240.28 Y-734.994
N3995 X-241.052 Y-734.244
N4000 X-241.309 Y-733.994
N4005 X-242.851 Y-732.492
N4010 X-243.108 Y-732.242
N4015 X-243.364 Y-731.991
N4020 X-1191.003
N4025 X-1190.936 Y-731.74
N4030 X-1190.866 Y-731.49
N4035 X-1190.587 Y-730.49
N4040 X-1190.517 Y-730.24
N4045 X-1190.447 Y-729.99
N4050 X-1190.377 Y-729.74
N4055 X-1190.166 Y-728.99
N4060 X-1190.096 Y-728.74
N4065 X-1190.026 Y-728.49
N4070 X-1189.955 Y-728.24
N4075 X-1189.882 Y-727.991
N4080 X-247.429
N4085 X-247.68 Y-727.741
N4090 X-248.183 Y-727.243
N4095 X-248.435 Y-726.994
N4100 X-248.937 Y-726.494
N4105 X-249.188 Y-726.244
N4110 X-249.94 Y-725.494
N4115 X-250.191 Y-725.244
N4120 X-251.442 Y-723.991
N4125 X-1188.745
N4130 X-1188.673 Y-723.741
N4135 X-1188.601 Y-723.491
N4140 X-1188.384 Y-722.741
N4145 X-1188.24 Y-722.241
N4150 X-1188.167 Y-721.991
N4155 X-1187.876 Y-720.991
N4160 X-1187.804 Y-720.741
N4165 X-1187.731 Y-720.491
N4170 X-1187.658 Y-720.241
N4175 X-1187.583 Y-719.991
N4180 X-255.408
N4185 X-255.653 Y-719.742
N4190 X-257.123 Y-718.245
N4195 X-257.368 Y-717.995
N4200 X-257.613 Y-717.745
N4205 X-258.835 Y-716.493
N4210 X-259.079 Y-716.242
N4215 X-259.322 Y-715.992
N4220 X-1186.403
N4225 Z0.984
N4230 G0 X-1185.199 Y-711.992
N4235 G1 Z-6.016 F2328
N4240 X-263.19
N4245 X-263.429 Y-711.742
N4250 X-264.147 Y-710.994
N4255 X-264.624 Y-710.495
N4260 X-264.863 Y-710.245
N4265 X-265.817 Y-709.244
N4270 X-266.055 Y-708.994
N4275 X-266.294 Y-708.744
N4280 X-267.007 Y-707.992
N4285 X-1183.981
N4290 Z0.984
N4295 G0 X-1182.747 Y-703.992
N4300 G1 Z-6.016 F2328
N4305 X-270.777
N4310 X-271.477 Y-703.244
N4315 X-271.71 Y-702.994
N4320 X-272.641 Y-701.995
N4325 X-272.873 Y-701.745
N4330 X-273.106 Y-701.495
N4335 X-274.266 Y-700.243
N4340 X-274.498 Y-699.992
N4345 X-1181.495
N4350 X-1181.493 Y-699.986 Z-5.923
N4355 X-1181.487 Y-699.967 Z-5.833
N4360 X-1181.477 Y-699.936 Z-5.746
N4365 X-1181.464 Y-699.893 Z-5.665
N4370 X-1181.447 Y-699.84 Z-5.59
N4375 X-1181.427 Y-699.778 Z-5.525
N4380 X-1181.405 Y-699.707 Z-5.469
N4385 X-1181.38 Y-699.63 Z-5.425
N4390 X-1181.354 Y-699.547 Z-5.392
N4395 X-1181.326 Y-699.46 Z-5.373
N4400 X-1181.298 Y-699.372 Z-5.366
N4405 X-1180.424 Y-696.612
N4410 X-1180.396 Y-696.523 Z-5.373
N4415 X-1180.368 Y-696.437 Z-5.392
N4420 X-1180.342 Y-696.354 Z-5.425
N4425 X-1180.317 Y-696.277 Z-5.469
N4430 X-1180.295 Y-696.206 Z-5.525
N4435 X-1180.275 Y-696.143 Z-5.59
N4440 X-1180.258 Y-696.09 Z-5.665
N4445 X-1180.245 Y-696.048 Z-5.746
N4450 X-1180.235 Y-696.017 Z-5.833
N4455 X-1180.229 Y-695.998 Z-5.923
N4460 X-1180.227 Y-695.992 Z-6.016
N4465 X-278.169
N4470 X-278.397 Y-695.743
N4475 X-278.851 Y-695.244
N4480 X-279.078 Y-694.994
N4485 X-279.531 Y-694.495
N4490 X-279.757 Y-694.245
N4495 X-280.889 Y-692.995
N4500 X-281.114 Y-692.744
N4505 X-281.791 Y-691.992
N4510 X-1178.946
N4515 X-1178.866 Y-691.742
N4520 X-1178.623 Y-690.992
N4525 X-1178.38 Y-690.242
N4530 X-1178.299 Y-689.992
N4535 X-1177.974 Y-688.992
N4540 X-1177.73 Y-688.242
N4545 X-1177.648 Y-687.992
N4550 X-285.363
N4555 X-285.584 Y-687.743
N4560 X-286.026 Y-687.244
N4565 X-286.247 Y-686.995
N4570 X-286.908 Y-686.245
N4575 X-287.348 Y-685.745
N4580 X-287.568 Y-685.495
N4585 X-287.788 Y-685.245
N4590 X-288.007 Y-684.995
N4595 X-288.666 Y-684.243
N4600 X-288.885 Y-683.992
N4605 X-1176.336
N4610 X-1176.334 Y-683.986 Z-5.923
N4615 X-1176.328 Y-683.967 Z-5.833
N4620 X-1176.318 Y-683.936 Z-5.746
N4625 X-1176.304 Y-683.894 Z-5.665
N4630 X-1176.286 Y-683.841 Z-5.59
N4635 X-1176.266 Y-683.779 Z-5.525
N4640 X-1176.242 Y-683.709 Z-5.469
N4645 X-1176.217 Y-683.631 Z-5.425
N4650 X-1176.19 Y-683.549 Z-5.392
N4655 X-1176.161 Y-683.463 Z-5.373
N4660 X-1176.132 Y-683.375 Z-5.366
N4665 X-1175.218 Y-680.609
N4670 X-1175.189 Y-680.522 Z-5.373
N4675 X-1175.16 Y-680.435 Z-5.392
N4680 X-1175.133 Y-680.353 Z-5.425
N4685 X-1175.108 Y-680.276 Z-5.469
N4690 X-1175.084 Y-680.205 Z-5.525
N4695 X-1175.064 Y-680.143 Z-5.59
N4700 X-1175.046 Y-680.09 Z-5.665
N4705 X-1175.032 Y-680.048 Z-5.746
N4710 X-1175.022 Y-680.017 Z-5.833
N4715 X-1175.016 Y-679.998 Z-5.923
N4720 X-1175.014 Y-679.992 Z-6.016
N4725 X-292.354
N4730 X-292.569 Y-679.743
N4735 X-292.783 Y-679.494
N4740 X-293.639 Y-678.495
N4745 X-293.852 Y-678.245
N4750 X-294.493 Y-677.495
N4755 X-294.706 Y-677.245
N4760 X-294.919 Y-676.995
N4765 X-295.132 Y-676.744
N4770 X-295.558 Y-676.243
N4775 X-295.77 Y-675.992
N4780 X-1173.689
N4785 Z0.984
N4790 G0 X-1172.363 Y-671.992
N4795 G1 Z-6.016 F2328
N4800 X-299.131
N4805 X-299.339 Y-671.743
N4810 X-299.754 Y-671.245
N4815 X-300.168 Y-670.745
N4820 X-300.375 Y-670.496
N4825 X-300.788 Y-669.996
N4830 X-300.995 Y-669.746
N4835 X-301.201 Y-669.496
N4840 X-302.025 Y-668.494
N4845 X-302.231 Y-668.243
N4850 X-302.436 Y-667.992
N4855 X-1171.036
N4860 X-1170.955 Y-667.742
N4865 X-1170.209 Y-665.492
N4870 X-1170.126 Y-665.242
N4875 X-1170.043 Y-664.992
N4880 X-1169.795 Y-664.241
N4885 X-1169.708 Y-663.992
N4890 X-305.683
N4895 X-305.884 Y-663.743
N4900 X-306.284 Y-663.245
N4905 X-306.484 Y-662.995
N4910 X-306.683 Y-662.746
N4915 X-306.883 Y-662.496
N4920 X-307.281 Y-661.996
N4925 X-307.481 Y-661.746
N4930 X-307.68 Y-661.496
N4935 X-307.878 Y-661.246
N4940 X-308.077 Y-660.995
N4945 X-308.275 Y-660.745
N4950 X-308.87 Y-659.993
N4955 X-1168.39
N4960 X-1168.31 Y-659.742
N4965 X-1167.817 Y-658.243
N4970 X-1167.735 Y-657.993
N4975 X-1167.653 Y-657.743
N4980 X-1167.572 Y-657.493
N4985 X-1167.081 Y-655.993
N4990 X-311.994
N4995 X-312.186 Y-655.744
N5000 X-312.378 Y-655.495
N5005 X-312.57 Y-655.245
N5010 X-313.145 Y-654.496
N5015 X-313.337 Y-654.247
N5020 X-313.91 Y-653.496
N5025 X-314.101 Y-653.246
N5030 X-314.291 Y-652.996
N5035 X-314.672 Y-652.495
N5040 X-314.862 Y-652.244
N5045 X-315.051 Y-651.993
N5050 X-1165.781
N5055 X-1165.379 Y-650.743
N5060 X-1165.298 Y-650.493
N5065 X-1165.137 Y-649.993
N5070 X-1164.897 Y-649.243
N5075 X-1164.657 Y-648.493
N5080 X-1164.577 Y-648.243
N5085 X-1164.497 Y-647.993
N5090 X-318.042
N5095 X-318.224 Y-647.743
N5100 X-318.408 Y-647.494
N5105 X-318.591 Y-647.245
N5110 X-318.774 Y-646.995
N5115 X-319.322 Y-646.247
N5120 X-319.505 Y-645.997
N5125 X-320.232 Y-644.996
N5130 X-320.413 Y-644.745
N5135 X-320.956 Y-643.993
N5140 X-1163.229
N5145 X-1163.151 Y-643.743
N5150 X-1162.994 Y-643.243
N5155 X-1162.916 Y-642.993
N5160 X-1162.838 Y-642.744
N5165 X-1162.681 Y-642.244
N5170 X-1162.525 Y-641.744
N5175 X-1162.214 Y-640.743
N5180 X-1162.137 Y-640.493
N5185 X-1161.982 Y-639.993
N5190 X-323.794
N5195 X-324.319 Y-639.245
N5200 X-324.493 Y-638.995
N5205 X-325.538 Y-637.495
N5210 X-325.711 Y-637.245
N5215 X-325.885 Y-636.995
N5220 X-326.404 Y-636.243
N5225 X-326.579 Y-635.993
N5230 X-1160.755
N5235 X-1160.68 Y-635.743
N5240 X-1160.604 Y-635.493
N5245 X-1160.528 Y-635.243
N5250 X-1160.377 Y-634.744
N5255 X-1160.301 Y-634.494
N5260 X-1160.151 Y-633.994
N5265 X-1160.075 Y-633.744
N5270 X-1159.775 Y-632.743
N5275 X-1159.701 Y-632.493
N5280 X-1159.626 Y-632.243
N5285 X-1159.55 Y-631.993
N5290 X-329.314
N5295 X-329.484 Y-631.744
N5300 X-330.496 Y-630.246
N5305 X-330.665 Y-629.996
N5310 X-330.833 Y-629.746
N5315 X-331.84 Y-628.244
N5320 X-332.007 Y-627.993
N5325 X-1158.371
N5330 X-1158.299 Y-627.743
N5335 X-1158.153 Y-627.244
N5340 X-1158.081 Y-626.994
N5345 X-1158.008 Y-626.744
N5350 X-1157.936 Y-626.494
N5355 X-1157.791 Y-625.994
N5360 X-1157.719 Y-625.744
N5365 X-1157.647 Y-625.494
N5370 X-1157.575 Y-625.244
N5375 X-1157.36 Y-624.494
N5380 X-1157.288 Y-624.243
N5385 X-1157.217 Y-623.993
N5390 X-334.657
N5395 X-334.82 Y-623.743
N5400 X-335.474 Y-622.745
N5405 X-335.637 Y-622.496
N5410 X-336.614 Y-620.995
N5415 X-336.777 Y-620.745
N5420 X-336.939 Y-620.495
N5425 X-337.1 Y-620.244
N5430 X-337.262 Y-619.993
N5435 X-1156.085
N5440 X-1156.018 Y-619.743
N5445 X-1155.879 Y-619.243
N5450 X-1155.809 Y-618.993
N5455 X-1155.74 Y-618.743
N5460 X-1155.601 Y-618.244
N5465 X-1155.532 Y-617.994
N5470 X-1155.326 Y-617.243
N5475 X-1155.257 Y-616.993
N5480 X-1155.189 Y-616.743
N5485 X-1155.052 Y-616.243
N5490 X-1154.981 Y-615.993
N5495 X-339.828
N5500 X-339.987 Y-615.744
N5505 X-340.304 Y-615.245
N5510 X-340.462 Y-614.995
N5515 X-341.41 Y-613.496
N5520 X-341.567 Y-613.245
N5525 X-341.725 Y-612.995
N5530 X-342.196 Y-612.244
N5535 X-342.353 Y-611.993
N5540 X-1153.902
N5545 X-1153.839 Y-611.743
N5550 X-1153.772 Y-611.493
N5555 X-1153.706 Y-611.243
N5560 X-1153.442 Y-610.244
N5565 X-1153.376 Y-609.994
N5570 X-1153.31 Y-609.744
N5575 X-1153.179 Y-609.244
N5580 X-1153.114 Y-608.994
N5585 X-1152.983 Y-608.494
N5590 X-1152.918 Y-608.244
N5595 X-1152.853 Y-607.994
N5600 X-344.838
N5605 X-344.992 Y-607.744
N5610 X-345.145 Y-607.495
N5615 X-345.298 Y-607.245
N5620 X-346.064 Y-605.995
N5625 X-346.217 Y-605.746
N5630 X-346.37 Y-605.495
N5635 X-347.132 Y-604.244
N5640 X-347.285 Y-603.994
N5645 X-1151.824
N5650 X-1151.762 Y-603.744
N5655 X-1151.699 Y-603.494
N5660 X-1151.636 Y-603.244
N5665 X-1151.447 Y-602.494
N5670 X-1151.384 Y-602.244
N5675 X-1151.321 Y-601.994
N5680 X-1151.071 Y-600.994
N5685 X-1151.009 Y-600.744
N5690 X-1150.947 Y-600.494
N5695 X-1150.885 Y-600.244
N5700 X-1150.823 Y-599.994
N5705 X-349.691
N5710 X-349.84 Y-599.744
N5715 X-350.732 Y-598.246
N5720 X-350.88 Y-597.996
N5725 X-351.028 Y-597.746
N5730 X-351.766 Y-596.495
N5735 X-351.914 Y-596.244
N5740 X-352.061 Y-595.994
N5745 X-1149.843
N5750 X-1149.784 Y-595.744
N5755 X-1149.603 Y-594.994
N5760 X-1149.543 Y-594.744
N5765 X-1149.424 Y-594.244
N5770 X-1149.304 Y-593.744
N5775 X-1149.245 Y-593.494
N5780 X-1149.067 Y-592.744
N5785 X-1149.007 Y-592.494
N5790 X-1148.948 Y-592.244
N5795 X-1148.889 Y-591.994
N5800 X-354.394
N5805 X-355.259 Y-590.496
N5810 X-355.402 Y-590.246
N5815 X-355.546 Y-589.996
N5820 X-356.262 Y-588.745
N5825 X-356.405 Y-588.495
N5830 X-356.548 Y-588.244
N5835 X-356.691 Y-587.994
N5840 X-1147.956
N5845 X-1147.842 Y-587.494
N5850 X-1147.728 Y-586.994
N5855 X-1147.613 Y-586.494
N5860 X-1147.499 Y-585.994
N5865 X-1147.386 Y-585.494
N5870 X-1147.273 Y-584.994
N5875 X-1147.16 Y-584.494
N5880 X-1147.047 Y-583.994
N5885 X-358.952
N5890 X-359.092 Y-583.744
N5895 X-359.651 Y-582.746
N5900 X-359.79 Y-582.496
N5905 X-359.929 Y-582.246
N5910 X-360.069 Y-581.996
N5915 X-360.763 Y-580.745
N5920 X-361.04 Y-580.245
N5925 X-361.178 Y-579.994
N5930 X-1146.156
N5935 X-1146.048 Y-579.494
N5940 X-1145.939 Y-578.994
N5945 X-1145.83 Y-578.494
N5950 X-1145.722 Y-577.994
N5955 X-1145.613 Y-577.494
N5960 X-1145.505 Y-576.994
N5965 X-1145.397 Y-576.494
N5970 X-1145.289 Y-575.994
N5975 X-363.37
N5980 X-363.506 Y-575.744
N5985 X-363.912 Y-574.995
N5990 X-364.047 Y-574.746
N5995 X-364.318 Y-574.246
N6000 X-364.587 Y-573.746
N6005 X-364.991 Y-572.995
N6010 X-365.125 Y-572.745
N6015 X-365.394 Y-572.245
N6020 X-365.528 Y-571.994
N6025 X-1144.442
N6030 X-1144.337 Y-571.494
N6035 X-1144.232 Y-570.994
N6040 X-1144.025 Y-569.994
N6045 X-1143.921 Y-569.494
N6050 X-1143.818 Y-568.994
N6055 X-1143.715 Y-568.494
N6060 X-1143.608 Y-567.994
N6065 X-367.653
N6070 X-367.784 Y-567.745
N6075 X-368.178 Y-566.996
N6080 X-368.309 Y-566.746
N6085 X-368.571 Y-566.246
N6090 X-368.702 Y-565.996
N6095 X-369.224 Y-564.996
N6100 X-369.354 Y-564.745
N6105 X-369.614 Y-564.245
N6110 X-369.744 Y-563.994
N6115 X-1142.801
N6120 X-1142.701 Y-563.495
N6125 X-1142.601 Y-562.995
N6130 X-1142.501 Y-562.495
N6135 X-1142.402 Y-561.995
N6140 X-1142.303 Y-561.495
N6145 X-1142.204 Y-560.995
N6150 X-1142.106 Y-560.495
N6155 X-1142.008 Y-559.994
N6160 X-371.804
N6165 X-371.931 Y-559.745
N6170 X-372.313 Y-558.996
N6175 X-372.44 Y-558.746
N6180 X-372.694 Y-558.246
N6185 X-372.82 Y-557.996
N6190 X-373.327 Y-556.996
N6195 X-373.453 Y-556.745
N6200 X-373.705 Y-556.245
N6205 X-373.831 Y-555.994
N6210 X-1141.231
N6215 X-1141.039 Y-554.995
N6220 X-1140.944 Y-554.495
N6225 X-1140.754 Y-553.495
N6230 X-1140.659 Y-552.995
N6235 X-1140.565 Y-552.495
N6240 X-1140.47 Y-551.995
N6245 X-375.827
N6250 X-375.951 Y-551.745
N6255 X-376.321 Y-550.996
N6260 X-376.444 Y-550.746
N6265 X-376.813 Y-549.996
N6270 X-376.935 Y-549.746
N6275 X-377.426 Y-548.746
N6280 X-377.792 Y-547.995
N6285 X-1139.724
N6290 X-1139.633 Y-547.495
N6295 X-1139.541 Y-546.995
N6300 X-1139.45 Y-546.495
N6305 X-1139.358 Y-545.995
N6310 X-1139.267 Y-545.495
N6315 X-1139.176 Y-544.994
N6320 X-1139.086 Y-544.494
N6325 X-1138.992 Y-543.995
N6330 X-379.726
N6335 X-379.846 Y-543.745
N6340 X-380.324 Y-542.746
N6345 X-380.443 Y-542.496
N6350 X-380.8 Y-541.746
N6355 X-380.919 Y-541.496
N6360 X-381.275 Y-540.746
N6365 X-381.394 Y-540.495
N6370 X-381.512 Y-540.245
N6375 X-381.63 Y-539.995
N6380 X-1138.279
N6385 X-1138.191 Y-539.495
N6390 X-1138.014 Y-538.495
N6395 X-1137.839 Y-537.495
N6400 X-1137.751 Y-536.995
N6405 X-1137.577 Y-535.995
N6410 X-383.505
N6415 X-383.621 Y-535.745
N6420 X-383.737 Y-535.495
N6425 X-384.199 Y-534.496
N6430 X-384.315 Y-534.246
N6435 X-384.661 Y-533.496
N6440 X-384.776 Y-533.246
N6445 X-385.12 Y-532.495
N6450 X-385.235 Y-532.245
N6455 X-385.349 Y-531.995
N6460 X-1136.888
N6465 X-1136.803 Y-531.495
N6470 X-1136.718 Y-530.995
N6475 X-1136.633 Y-530.495
N6480 X-1136.548 Y-529.995
N6485 X-1136.38 Y-528.995
N6490 X-1136.295 Y-528.495
N6495 X-1136.211 Y-527.995
N6500 X-387.165
N6505 X-387.502 Y-527.246
N6510 X-387.614 Y-526.996
N6515 X-387.95 Y-526.246
N6520 X-388.062 Y-525.996
N6525 X-388.396 Y-525.246
N6530 X-388.508 Y-524.996
N6535 X-388.841 Y-524.245
N6540 X-388.954 Y-523.995
N6545 X-1135.547
N6550 X-1135.383 Y-522.995
N6555 X-1135.301 Y-522.495
N6560 X-1135.219 Y-521.995
N6565 X-1135.138 Y-521.495
N6570 X-1135.057 Y-520.995
N6575 X-1134.975 Y-520.495
N6580 X-1134.894 Y-519.995
N6585 X-390.711
N6590 X-390.819 Y-519.745
N6595 X-391.254 Y-518.746
N6600 X-391.362 Y-518.496
N6605 X-391.687 Y-517.746
N6610 X-391.795 Y-517.496
N6615 X-392.118 Y-516.746
N6620 X-392.226 Y-516.496
N6625 X-392.333 Y-516.245
N6630 X-392.441 Y-515.995
N6635 X-1134.25
N6640 X-1134.173 Y-515.495
N6645 X-1134.094 Y-514.995
N6650 X-1134.015 Y-514.495
N6655 X-1133.936 Y-513.995
N6660 X-1133.857 Y-513.495
N6665 X-1133.779 Y-512.995
N6670 X-1133.622 Y-511.995
N6675 X-394.143
N6680 X-394.354 Y-511.496
N6685 X-394.459 Y-511.246
N6690 X-394.774 Y-510.496
N6695 X-394.879 Y-510.247
N6700 X-395.193 Y-509.496
N6705 X-395.297 Y-509.246
N6710 X-395.714 Y-508.246
N6715 X-395.818 Y-507.995
N6720 X-1133.001
N6725 X-1132.925 Y-507.495
N6730 X-1132.771 Y-506.495
N6735 X-1132.695 Y-505.995
N6740 X-1132.619 Y-505.495
N6745 X-1132.543 Y-504.995
N6750 X-1132.467 Y-504.495
N6755 X-1132.39 Y-503.995
N6760 X-397.466
N6765 X-397.873 Y-502.996
N6770 X-397.975 Y-502.746
N6775 X-398.279 Y-501.997
N6780 X-398.38 Y-501.747
N6785 X-398.683 Y-500.996
N6790 X-398.784 Y-500.746
N6795 X-399.086 Y-499.995
N6800 X-1131.79
N6805 X-1131.715 Y-499.496
N6810 X-1131.567 Y-498.496
N6815 X-1131.493 Y-497.996
N6820 X-1131.419 Y-497.496
N6825 X-1131.345 Y-496.996
N6830 X-1131.198 Y-495.996
N6835 X-400.68
N6840 X-400.779 Y-495.746
N6845 X-400.877 Y-495.496
N6850 X-401.27 Y-494.497
N6855 X-401.368 Y-494.247
N6860 X-401.662 Y-493.497
N6865 X-401.76 Y-493.247
N6870 X-402.053 Y-492.496
N6875 X-402.15 Y-492.246
N6880 X-402.247 Y-491.996
N6885 X-1130.615
N6890 X-1130.543 Y-491.496
N6895 X-1130.399 Y-490.496
N6900 X-1130.327 Y-489.996
N6905 X-1130.255 Y-489.496
N6910 X-1130.112 Y-488.496
N6915 X-1130.041 Y-487.996
N6920 X-403.788
N6925 X-404.074 Y-487.246
N6930 X-404.169 Y-486.997
N6935 X-404.548 Y-485.997
N6940 X-404.643 Y-485.747
N6945 X-404.927 Y-484.997
N6950 X-405.021 Y-484.746
N6955 X-405.303 Y-483.996
N6960 X-1129.472
N6965 X-1129.404 Y-483.496
N6970 X-1129.334 Y-482.996
N6975 X-1129.125 Y-481.496
N6980 X-1129.055 Y-480.996
N6985 X-1128.916 Y-479.996
N6990 X-406.792
N6995 X-406.884 Y-479.746
N7000 X-406.976 Y-479.496
N7005 X-407.068 Y-479.247
N7010 X-407.344 Y-478.497
N7015 X-407.435 Y-478.247
N7020 X-407.801 Y-477.247
N7025 X-407.892 Y-476.997
N7030 X-408.074 Y-476.496
N7035 X-408.165 Y-476.246
N7040 X-408.256 Y-475.996
N7045 X-1128.366
N7050 X-1128.297 Y-475.496
N7055 X-1128.161 Y-474.496
N7060 X-1128.093 Y-473.996
N7065 X-1127.89 Y-472.496
N7070 X-1127.819 Y-471.996
N7075 X-409.694
N7080 X-410.138 Y-470.747
N7085 X-410.226 Y-470.497
N7090 X-410.403 Y-469.997
N7095 X-410.491 Y-469.747
N7100 X-410.931 Y-468.497
N7105 X-411.107 Y-467.996
N7110 X-1127.285
N7115 X-1127.22 Y-467.496
N7120 X-1127.087 Y-466.496
N7125 X-1126.955 Y-465.496
N7130 X-1126.889 Y-464.996
N7135 X-1126.823 Y-464.496
N7140 X-1126.755 Y-463.996
N7145 X-412.495
N7150 X-412.58 Y-463.746
N7155 X-412.666 Y-463.496
N7160 X-412.752 Y-463.247
N7165 X-413.179 Y-461.997
N7170 X-413.264 Y-461.747
N7175 X-413.434 Y-461.247
N7180 X-413.519 Y-460.997
N7185 X-413.857 Y-459.996
N7190 X-1126.233
N7195 X-1126.17 Y-459.496
N7200 X-1126.041 Y-458.496
N7205 X-1125.976 Y-457.996
N7210 X-1125.847 Y-456.996
N7215 X-1125.719 Y-455.996
N7220 X-415.195
N7225 X-415.278 Y-455.747
N7230 X-415.361 Y-455.497
N7235 X-415.443 Y-455.247
N7240 X-415.608 Y-454.747
N7245 X-415.691 Y-454.497
N7250 X-416.101 Y-453.247
N7255 X-416.183 Y-452.997
N7260 X-416.346 Y-452.497
N7265 X-416.427 Y-452.247
N7270 X-416.509 Y-451.996
N7275 X-1125.209
N7280 X-1125.083 Y-450.996
N7285 X-1124.957 Y-449.996
N7290 X-1124.831 Y-448.996
N7295 X-1124.768 Y-448.496
N7300 X-1124.705 Y-447.996
N7305 X-417.798
N7310 X-417.878 Y-447.747
N7315 X-418.196 Y-446.747
N7320 X-418.275 Y-446.497
N7325 X-418.434 Y-445.997
N7330 X-418.513 Y-445.747
N7335 X-418.906 Y-444.497
N7340 X-418.985 Y-444.247
N7345 X-419.064 Y-443.996
N7350 X-1124.205
N7355 X-1124.146 Y-443.496
N7360 X-1123.961 Y-441.996
N7365 X-1123.838 Y-440.996
N7370 X-1123.777 Y-440.496
N7375 X-1123.712 Y-439.997
N7380 X-420.305
N7385 X-420.381 Y-439.747
N7390 X-420.458 Y-439.497
N7395 X-420.534 Y-439.247
N7400 X-420.992 Y-437.747
N7405 X-421.068 Y-437.497
N7410 X-421.144 Y-437.247
N7415 X-421.219 Y-436.997
N7420 X-421.521 Y-435.997
N7425 X-1123.226
N7430 X-1123.169 Y-435.496
N7435 X-1123.108 Y-434.996
N7440 X-1122.928 Y-433.496
N7445 X-1122.808 Y-432.496
N7450 X-1122.745 Y-431.997
N7455 X-422.715
N7460 X-422.788 Y-431.747
N7465 X-422.936 Y-431.247
N7470 X-423.009 Y-430.997
N7475 X-423.083 Y-430.747
N7480 X-423.156 Y-430.497
N7485 X-423.594 Y-428.997
N7490 X-423.667 Y-428.747
N7495 X-423.739 Y-428.497
N7500 X-423.812 Y-428.247
N7505 X-423.884 Y-427.997
N7510 X-1122.272
N7515 X-1122.095 Y-426.497
N7520 X-1121.977 Y-425.497
N7525 X-1121.801 Y-423.997
N7530 X-425.031
N7535 X-425.101 Y-423.747
N7540 X-425.524 Y-422.248
N7545 X-425.594 Y-421.998
N7550 X-425.665 Y-421.748
N7555 X-425.734 Y-421.498
N7560 X-426.083 Y-420.247
N7565 X-426.153 Y-419.997
N7570 X-1121.332
N7575 X-1121.277 Y-419.497
N7580 X-1121.219 Y-418.997
N7585 X-1121.104 Y-417.997
N7590 X-1121.046 Y-417.497
N7595 X-1120.931 Y-416.497
N7600 X-1120.871 Y-415.997
N7605 X-427.252
N7610 X-427.388 Y-415.497
N7615 X-427.456 Y-415.248
N7620 X-427.523 Y-414.998
N7625 X-427.994 Y-413.248
N7630 X-428.061 Y-412.998
N7635 X-428.128 Y-412.748
N7640 X-428.328 Y-411.997
N7645 X-1120.413
N7650 X-1120.36 Y-411.497
N7655 X-1120.19 Y-409.997
N7660 X-1120.021 Y-408.497
N7665 X-1119.964 Y-407.997
N7670 X-429.382
N7675 X-429.446 Y-407.747
N7680 X-429.77 Y-406.498
N7685 X-429.834 Y-406.248
N7690 X-429.899 Y-405.998
N7695 X-430.347 Y-404.247
N7700 X-430.411 Y-403.997
N7705 X-1119.515
N7710 X-1119.461 Y-403.497
N7715 X-1119.405 Y-402.997
N7720 X-1119.35 Y-402.497
N7725 X-1119.239 Y-401.497
N7730 X-1119.183 Y-400.997
N7735 X-1119.128 Y-400.497
N7740 X-1119.071 Y-399.997
N7745 X-431.417
N7750 X-431.48 Y-399.747
N7755 X-431.542 Y-399.498
N7760 X-431.604 Y-399.248
N7765 X-432.035 Y-397.498
N7770 X-432.097 Y-397.248
N7775 X-432.158 Y-396.998
N7780 X-432.34 Y-396.247
N7785 X-432.403 Y-395.997
N7790 X-1118.628
N7795 X-1118.627 Y-395.991 Z-5.923
N7800 X-1118.625 Y-395.971 Z-5.833
N7805 X-1118.622 Y-395.939 Z-5.746
N7810 X-1118.617 Y-395.895 Z-5.665
N7815 X-1118.611 Y-395.84 Z-5.59
N7820 X-1118.604 Y-395.774 Z-5.525
N7825 X-1118.596 Y-395.701 Z-5.469
N7830 X-1118.588 Y-395.62 Z-5.425
N7835 X-1118.578 Y-395.533 Z-5.392
N7840 X-1118.569 Y-395.443 Z-5.373
N7845 X-1118.559 Y-395.351 Z-5.366
N7850 X-1118.267 Y-392.644
N7855 X-1118.258 Y-392.552 Z-5.373
N7860 X-1118.248 Y-392.462 Z-5.392
N7865 X-1118.239 Y-392.375 Z-5.425
N7870 X-1118.23 Y-392.294 Z-5.469
N7875 X-1118.222 Y-392.22 Z-5.525
N7880 X-1118.215 Y-392.155 Z-5.59
N7885 X-1118.209 Y-392.1 Z-5.665
N7890 X-1118.204 Y-392.056 Z-5.746
N7895 X-1118.201 Y-392.024 Z-5.833
N7900 X-1118.199 Y-392.004 Z-5.923
N7905 X-1118.198 Y-391.997 Z-6.016
N7910 X-433.362
N7915 X-433.599 Y-390.998
N7920 X-433.718 Y-390.498
N7925 X-433.835 Y-389.998
N7930 X-434.185 Y-388.498
N7935 X-434.301 Y-387.998
N7940 X-1117.766
N7945 X-1117.659 Y-386.998
N7950 X-1117.605 Y-386.498
N7955 X-1117.499 Y-385.498
N7960 X-1117.339 Y-383.998
N7965 X-435.217
N7970 X-435.33 Y-383.498
N7975 X-435.778 Y-381.498
N7980 X-435.889 Y-380.998
N7985 X-436 Y-380.498
N7990 X-436.11 Y-379.998
N7995 X-1116.911
N8000 X-1116.862 Y-379.497
N8005 X-1116.651 Y-377.498
N8010 X-1116.599 Y-376.998
N8015 X-1116.546 Y-376.498
N8020 X-1116.494 Y-375.998
N8025 X-436.981
N8030 X-437.195 Y-374.999
N8035 X-437.302 Y-374.499
N8040 X-437.408 Y-373.999
N8045 X-437.512 Y-373.499
N8050 X-437.616 Y-372.999
N8055 X-437.719 Y-372.499
N8060 X-437.82 Y-371.998
N8065 X-1116.077
N8070 X-1116.025 Y-371.498
N8075 X-1115.87 Y-369.998
N8080 X-1115.767 Y-368.998
N8085 X-1115.664 Y-367.998
N8090 X-438.598
N8095 X-438.691 Y-367.498
N8100 X-438.783 Y-366.999
N8105 X-438.875 Y-366.499
N8110 X-438.965 Y-365.999
N8115 X-439.055 Y-365.499
N8120 X-439.144 Y-364.999
N8125 X-439.232 Y-364.498
N8130 X-439.32 Y-363.998
N8135 X-1115.254
N8140 X-1115.203 Y-363.498
N8145 X-1115.101 Y-362.498
N8150 X-1114.948 Y-360.998
N8155 X-1114.897 Y-360.498
N8160 X-1114.847 Y-359.998
N8165 X-439.994
N8170 X-440.073 Y-359.498
N8175 X-440.153 Y-358.998
N8180 X-440.232 Y-358.499
N8185 X-440.311 Y-357.999
N8190 X-440.389 Y-357.499
N8195 X-440.466 Y-356.999
N8200 X-440.543 Y-356.498
N8205 X-440.619 Y-355.998
N8210 X-1114.443
N8215 X-1114.393 Y-355.498
N8220 X-1114.091 Y-352.498
N8225 X-1114.038 Y-351.998
N8230 X-441.207
N8235 X-441.277 Y-351.498
N8240 X-441.347 Y-350.999
N8245 X-441.417 Y-350.499
N8250 X-441.486 Y-349.999
N8255 X-441.555 Y-349.499
N8260 X-441.622 Y-348.999
N8265 X-441.69 Y-348.499
N8270 X-441.757 Y-347.998
N8275 X-1113.637
N8280 X-1113.589 Y-347.498
N8285 X-1113.287 Y-344.498
N8290 X-1113.237 Y-343.998
N8295 X-442.273
N8300 X-442.335 Y-343.499
N8305 X-442.397 Y-342.999
N8310 X-442.458 Y-342.499
N8315 X-442.519 Y-341.999
N8320 X-442.579 Y-341.499
N8325 X-442.639 Y-340.999
N8330 X-442.698 Y-340.499
N8335 X-442.758 Y-339.998
N8340 X-1112.83
N8345 X-1112.784 Y-339.498
N8350 X-1112.483 Y-336.498
N8355 X-1112.429 Y-335.998
N8360 X-443.213
N8365 X-443.268 Y-335.499
N8370 X-443.322 Y-334.999
N8375 X-443.43 Y-333.999
N8380 X-443.483 Y-333.499
N8385 X-443.536 Y-332.999
N8390 X-443.589 Y-332.499
N8395 X-443.641 Y-331.999
N8400 X-1112.029
N8405 X-1111.98 Y-331.498
N8410 X-1111.678 Y-328.498
N8415 X-1111.623 Y-327.999
N8420 X-444.043
N8425 X-444.091 Y-327.499
N8430 X-444.139 Y-326.999
N8435 X-444.187 Y-326.499
N8440 X-444.234 Y-325.999
N8445 X-444.281 Y-325.499
N8450 X-444.328 Y-324.999
N8455 X-444.374 Y-324.499
N8460 X-444.42 Y-323.999
N8465 X-1111.223
N8470 X-1111.175 Y-323.498
N8475 X-1110.874 Y-320.499
N8480 X-1110.824 Y-319.999
N8485 X-444.773
N8490 X-444.816 Y-319.499
N8495 X-444.9 Y-318.499
N8500 X-444.942 Y-317.999
N8505 X-444.983 Y-317.499
N8510 X-445.065 Y-316.499
N8515 X-445.105 Y-315.999
N8520 X-1110.417
N8525 X-1110.371 Y-315.498
N8530 X-1110.069 Y-312.499
N8535 X-1110.016 Y-311.999
N8540 X-445.415
N8545 X-445.526 Y-310.499
N8550 X-445.563 Y-309.999
N8555 X-445.599 Y-309.499
N8560 X-445.67 Y-308.499
N8565 X-445.705 Y-307.999
N8570 X-1109.614
N8575 X-1109.567 Y-307.499
N8580 X-1109.265 Y-304.499
N8585 X-1109.215 Y-303.999
N8590 X-445.975
N8595 X-446.071 Y-302.499
N8600 X-446.103 Y-301.999
N8605 X-446.134 Y-301.499
N8610 X-446.195 Y-300.499
N8615 X-446.226 Y-299.999
N8620 X-1108.824
N8625 X-1108.754 Y-298.999
N8630 X-1108.719 Y-298.499
N8635 X-1108.684 Y-297.999
N8640 X-1108.614 Y-296.999
N8645 X-1108.578 Y-296.499
N8650 X-1108.542 Y-295.999
N8655 X-446.458
N8660 X-446.486 Y-295.499
N8665 X-446.567 Y-293.999
N8670 X-446.594 Y-293.499
N8675 X-446.672 Y-291.999
N8680 X-1108.246
N8685 X-1108.212 Y-291.499
N8690 X-1108.174 Y-290.999
N8695 X-1108.137 Y-290.499
N8700 X-1108.099 Y-289.999
N8705 X-1108.061 Y-289.499
N8710 X-1108.023 Y-288.999
N8715 X-1107.984 Y-288.499
N8720 X-1107.942 Y-287.999
N8725 X-446.869
N8730 X-446.892 Y-287.499
N8735 X-446.96 Y-285.999
N8740 X-446.983 Y-285.499
N8745 X-447.005 Y-284.999
N8750 X-447.026 Y-284.499
N8755 X-447.048 Y-283.999
N8760 X-1107.629
N8765 X-1107.592 Y-283.499
N8770 X-1107.512 Y-282.499
N8775 X-1107.471 Y-281.999
N8780 X-1107.431 Y-281.499
N8785 X-1107.39 Y-280.999
N8790 X-1107.349 Y-280.499
N8795 X-1107.308 Y-279.999
N8800 X-447.21
N8805 X-447.229 Y-279.5
N8810 X-447.248 Y-279
N8815 X-447.285 Y-278
N8820 X-447.303 Y-277.5
N8825 X-447.321 Y-277
N8830 X-447.338 Y-276.5
N8835 X-447.355 Y-276
N8840 X-1106.974
N8845 X-1106.889 Y-274.999
N8850 X-1106.847 Y-274.499
N8855 X-1106.804 Y-273.999
N8860 X-1106.718 Y-272.999
N8865 X-1106.674 Y-272.499
N8870 X-1106.629 Y-272
N8875 X-447.485
N8880 X-447.557 Y-269.5
N8885 X-447.571 Y-269
N8890 X-447.584 Y-268.5
N8895 X-447.597 Y-268
N8900 X-1106.277
N8905 X-1106.233 Y-267.5
N8910 X-1106.188 Y-267
N8915 X-1106.143 Y-266.5
N8920 X-1106.098 Y-266
N8925 X-1106.007 Y-265
N8930 X-1105.962 Y-264.5
N8935 X-1105.916 Y-264
N8940 X-447.694
N8945 X-447.705 Y-263.5
N8950 X-447.756 Y-261
N8955 X-447.775 Y-260
N8960 X-1105.545
N8965 X-1105.451 Y-259
N8970 X-1105.403 Y-258.5
N8975 X-1105.356 Y-258
N8980 X-1105.308 Y-257.5
N8985 X-1105.26 Y-257
N8990 X-1105.213 Y-256.5
N8995 X-1105.164 Y-256
N9000 X-447.839
N9005 X-447.846 Y-255.5
N9010 X-447.853 Y-255
N9015 X-447.877 Y-253
N9020 X-447.883 Y-252.5
N9025 X-447.888 Y-252
N9030 X-1104.773
N9035 X-1104.727 Y-251.5
N9040 X-1104.677 Y-251
N9045 X-1104.628 Y-250.5
N9050 X-1104.528 Y-249.5
N9055 X-1104.428 Y-248.5
N9060 X-1104.376 Y-248
N9065 X-447.92
N9070 X-447.923 Y-247.5
N9075 X-447.926 Y-247
N9080 X-447.932 Y-245.5
N9085 X-447.934 Y-245
N9090 X-447.936 Y-244.5
N9095 X-447.937 Y-244
N9100 X-1103.972
N9105 X-1103.869 Y-243
N9110 X-1103.818 Y-242.5
N9115 X-1103.766 Y-242
N9120 X-1103.61 Y-240.5
N9125 X-1103.557 Y-240
N9130 X-447.938
N9135 X-447.936 Y-239.5
N9140 X-447.935 Y-239
N9145 X-447.933 Y-238.5
N9150 X-447.931 Y-238
N9155 X-447.924 Y-236.5
N9160 X-447.921 Y-236
N9165 X-1103.131
N9170 Z0.984
N9175 G0 X-1102.696 Y-232
N9180 G1 Z-6.016 F2328
N9185 X-447.889
N9190 X-447.878 Y-231
N9195 X-447.873 Y-230.5
N9200 X-447.867 Y-230
N9205 X-447.84 Y-228
N9210 X-1102.259
N9215 X-1102.208 Y-227.5
N9220 X-1102.152 Y-227
N9225 X-1102.096 Y-226.5
N9230 X-1102.04 Y-226
N9235 X-1101.928 Y-225
N9240 X-1101.872 Y-224.5
N9245 X-1101.814 Y-224.001
N9250 X-447.773
N9255 X-447.764 Y-223.5
N9260 X-447.744 Y-222.5
N9265 X-447.734 Y-222
N9270 X-447.723 Y-221.501
N9275 X-447.701 Y-220.501
N9280 X-447.69 Y-220.001
N9285 X-1101.357
N9290 X-1101.301 Y-219.5
N9295 X-1101.243 Y-219
N9300 X-1101.186 Y-218.5
N9305 X-1101.128 Y-218
N9310 X-1101.069 Y-217.5
N9315 X-1101.011 Y-217
N9320 X-1100.953 Y-216.5
N9325 X-1100.891 Y-216.001
N9330 X-447.589
N9335 X-447.575 Y-215.501
N9340 X-447.561 Y-215.001
N9345 X-447.546 Y-214.501
N9350 X-447.531 Y-214.001
N9355 X-447.516 Y-213.501
N9360 X-447.501 Y-213.001
N9365 X-447.47 Y-212.001
N9370 X-1100.421
N9375 X-1100.302 Y-211.001
N9380 X-1100.242 Y-210.501
N9385 X-1100.182 Y-210.001
N9390 X-1100 Y-208.501
N9395 X-1099.94 Y-208.001
N9400 X-447.331
N9405 X-447.313 Y-207.501
N9410 X-447.294 Y-207.001
N9415 X-447.255 Y-206.001
N9420 X-447.236 Y-205.501
N9425 X-447.215 Y-205.001
N9430 X-447.195 Y-204.501
N9435 X-447.174 Y-204.001
N9440 X-1099.449
N9445 X-1099.389 Y-203.501
N9450 X-1099.141 Y-201.5
N9455 X-1099.078 Y-201
N9460 X-1099.016 Y-200.5
N9465 X-1098.949 Y-200.001
N9470 X-446.997
N9475 X-446.973 Y-199.501
N9480 X-446.95 Y-199.001
N9485 X-446.925 Y-198.501
N9490 X-446.876 Y-197.501
N9495 X-446.851 Y-197.001
N9500 X-446.825 Y-196.501
N9505 X-446.799 Y-196.001
N9510 X-1098.445
N9515 X-1098.384 Y-195.501
N9520 X-1098.32 Y-195.001
N9525 X-1098.063 Y-193.001
N9530 X-1097.999 Y-192.501
N9535 X-1097.934 Y-192.001
N9540 X-446.58
N9545 X-446.551 Y-191.501
N9550 X-446.521 Y-191.001
N9555 X-446.492 Y-190.501
N9560 X-446.431 Y-189.501
N9565 X-446.4 Y-189.001
N9570 X-446.338 Y-188.001
N9575 X-1097.412
N9580 X-1097.28 Y-187.001
N9585 X-1097.214 Y-186.501
N9590 X-1096.948 Y-184.501
N9595 X-1096.879 Y-184.001
N9600 X-446.072
N9605 X-446.037 Y-183.501
N9610 X-446.002 Y-183.001
N9615 X-445.966 Y-182.501
N9620 X-445.93 Y-182.001
N9625 X-445.894 Y-181.501
N9630 X-445.857 Y-181.001
N9635 X-445.782 Y-180.001
N9640 X-1096.338
N9645 X-1096.274 Y-179.501
N9650 X-1096.138 Y-178.501
N9655 X-1096.07 Y-178.001
N9660 X-1095.864 Y-176.501
N9665 X-1095.791 Y-176.001
N9670 X-445.465
N9675 X-445.423 Y-175.501
N9680 X-445.339 Y-174.501
N9685 X-445.296 Y-174.001
N9690 X-445.252 Y-173.501
N9695 X-445.209 Y-173.001
N9700 X-445.164 Y-172.501
N9705 X-445.12 Y-172.001
N9710 X-1095.239
N9715 X-1095.169 Y-171.501
N9720 X-1094.888 Y-169.501
N9725 X-1094.817 Y-169.001
N9730 X-1094.675 Y-168.002
N9735 X-444.746
N9740 X-444.695 Y-167.501
N9745 X-444.646 Y-167.001
N9750 X-444.596 Y-166.501
N9755 X-444.545 Y-166.001
N9760 X-444.494 Y-165.501
N9765 X-444.442 Y-165.001
N9770 X-444.39 Y-164.501
N9775 X-444.337 Y-164.002
N9780 X-1094.101
N9785 X-1093.957 Y-163.001
N9790 X-1093.884 Y-162.501
N9795 X-1093.593 Y-160.501
N9800 X-1093.518 Y-160.002
N9805 X-443.894
N9810 X-443.836 Y-159.501
N9815 X-443.778 Y-159.001
N9820 X-443.719 Y-158.501
N9825 X-443.659 Y-158.001
N9830 X-443.598 Y-157.501
N9835 X-443.537 Y-157.001
N9840 X-443.476 Y-156.501
N9845 X-443.413 Y-156.002
N9850 X-1092.926
N9855 X-1092.854 Y-155.501
N9860 X-1092.63 Y-154.001
N9865 X-1092.555 Y-153.501
N9870 X-1092.404 Y-152.501
N9875 X-1092.328 Y-152.002
N9880 X-442.891
N9885 X-442.822 Y-151.502
N9890 X-442.752 Y-151.001
N9895 X-442.682 Y-150.501
N9900 X-442.611 Y-150.001
N9905 X-442.539 Y-149.501
N9910 X-442.467 Y-149.001
N9915 X-442.394 Y-148.502
N9920 X-442.321 Y-148.002
N9925 X-1091.716
N9930 X-1091.643 Y-147.501
N9935 X-1091.49 Y-146.501
N9940 X-1091.258 Y-145.001
N9945 X-1091.181 Y-144.501
N9950 X-1091.1 Y-144.002
N9955 X-441.697
N9960 X-441.615 Y-143.501
N9965 X-441.532 Y-143.001
N9970 X-441.448 Y-142.501
N9975 X-441.363 Y-142.001
N9980 X-441.277 Y-141.501
N9985 X-441.191 Y-141.001
N9990 X-441.103 Y-140.502
N9995 X-441.015 Y-140.002
N10000 X-1090.476
N10005 X-1090.079 Y-137.502
N10010 X-1089.839 Y-136.002
N10015 X-440.261
N10020 X-440.162 Y-135.501
N10025 X-440.061 Y-135.001
N10030 X-439.959 Y-134.5
N10035 X-439.855 Y-134
N10040 X-439.75 Y-133.5
N10045 X-439.644 Y-133.001
N10050 X-439.536 Y-132.501
N10055 X-439.428 Y-132.002
N10060 X-1089.191
N10065 X-1089.111 Y-131.502
N10070 X-1089.03 Y-131.002
N10075 X-1088.948 Y-130.502
N10080 X-1088.619 Y-128.502
N10085 X-1088.535 Y-128.002
N10090 X-438.541
N10095 X-438.427 Y-127.502
N10100 X-438.086 Y-126.002
N10105 X-437.971 Y-125.502
N10110 X-437.74 Y-124.502
N10115 X-437.625 Y-124.002
N10120 X-1087.87
N10125 X-1087.787 Y-123.502
N10130 X-1087.535 Y-122.002
N10135 X-1087.45 Y-121.502
N10140 X-1087.28 Y-120.502
N10145 X-1087.194 Y-120.002
N10150 X-436.678
N10155 X-436.558 Y-119.502
N10160 X-436.498 Y-119.252
N10165 X-436.437 Y-119.002
N10170 X-436.376 Y-118.752
N10175 X-436.01 Y-117.252
N10180 X-435.949 Y-117.002
N10185 X-435.887 Y-116.752
N10190 X-435.826 Y-116.502
N10195 X-435.764 Y-116.252
N10200 X-435.702 Y-116.002
N10205 X-1086.507
N10210 X-1086.422 Y-115.502
N10215 X-1086.075 Y-113.502
N10220 X-1085.988 Y-113.002
N10225 X-1085.9 Y-112.502
N10230 X-1085.807 Y-112.003
N10235 X-434.697
N10240 X-434.632 Y-111.753
N10245 X-434.375 Y-110.752
N10250 X-434.311 Y-110.502
N10255 X-434.181 Y-110.002
N10260 X-434.116 Y-109.752
N10265 X-433.79 Y-108.502
N10270 X-433.725 Y-108.252
N10275 X-433.659 Y-108.003
N10280 X-1085.1
N10285 X-1085.015 Y-107.502
N10290 X-1084.925 Y-107.002
N10295 X-1084.477 Y-104.502
N10300 X-1084.383 Y-104.003
N10305 X-432.592
N10310 X-432.456 Y-103.502
N10315 X-432.388 Y-103.252
N10320 X-432.046 Y-102.002
N10325 X-431.977 Y-101.752
N10330 X-431.84 Y-101.252
N10335 X-431.771 Y-101.002
N10340 X-431.562 Y-100.253
N10345 X-431.493 Y-100.003
N10350 X-1083.651
N10355 Z0.984
N10360 G0 X-1082.91 Y-96.003
N10365 G1 Z-6.016 F2328
N10370 X-430.363
N10375 X-430.292 Y-95.753
N10380 X-430.22 Y-95.502
N10385 X-429.931 Y-94.502
N10390 X-429.859 Y-94.252
N10395 X-429.641 Y-93.502
N10400 X-429.568 Y-93.252
N10405 X-429.203 Y-92.003
N10410 X-1082.16
N10415 X-1082.069 Y-91.502
N10420 X-1081.974 Y-91.002
N10425 X-1081.398 Y-88.003
N10430 X-428.009
N10435 X-427.934 Y-87.753
N10440 X-427.782 Y-87.252
N10445 X-427.706 Y-87.002
N10450 X-427.324 Y-85.752
N10455 X-427.247 Y-85.502
N10460 X-427.093 Y-85.002
N10465 X-427.016 Y-84.752
N10470 X-426.861 Y-84.253
N10475 X-426.784 Y-84.003
N10480 X-1080.621
N10485 X-1080.524 Y-83.503
N10490 X-1080.426 Y-83.003
N10495 X-1080.229 Y-82.003
N10500 X-1080.031 Y-81.003
N10505 X-1079.932 Y-80.503
N10510 X-1079.832 Y-80.003
N10515 X-425.526
N10520 X-425.446 Y-79.753
N10525 X-425.287 Y-79.252
N10530 X-425.207 Y-79.002
N10535 X-425.127 Y-78.752
N10540 X-425.046 Y-78.502
N10545 X-424.562 Y-77.002
N10550 X-424.481 Y-76.752
N10555 X-424.399 Y-76.502
N10560 X-424.318 Y-76.253
N10565 X-424.236 Y-76.003
N10570 X-1079.03
N10575 X-1078.929 Y-75.503
N10580 X-1078.827 Y-75.003
N10585 X-1078.726 Y-74.503
N10590 X-1078.624 Y-74.003
N10595 X-1078.317 Y-72.503
N10600 X-1078.214 Y-72.003
N10605 X-422.913
N10610 X-422.829 Y-71.753
N10615 X-422.408 Y-70.502
N10620 X-422.324 Y-70.252
N10625 X-422.238 Y-70.002
N10630 X-421.728 Y-68.503
N10635 X-421.642 Y-68.253
N10640 X-421.557 Y-68.003
N10645 X-1077.382
N10650 X-1077.28 Y-67.503
N10655 X-1077.175 Y-67.003
N10660 X-1076.964 Y-66.002
N10665 X-1076.859 Y-65.502
N10670 X-1076.753 Y-65.002
N10675 X-1076.647 Y-64.502
N10680 X-1076.536 Y-64.003
N10685 X-420.167
N10690 X-420.078 Y-63.753
N10695 X-419.458 Y-62.002
N10700 X-419.369 Y-61.752
N10705 X-418.742 Y-60.003
N10710 X-1075.679
N10715 X-1075.574 Y-59.503
N10720 X-1075.465 Y-59.003
N10725 X-1075.356 Y-58.503
N10730 X-1075.247 Y-58.003
N10735 X-1075.138 Y-57.503
N10740 X-1075.029 Y-57.003
N10745 X-1074.919 Y-56.503
N10750 X-1074.808 Y-56.004
N10755 X-417.284
N10760 X-417.191 Y-55.753
N10765 X-417.099 Y-55.503
N10770 X-416.447 Y-53.752
N10775 X-416.354 Y-53.502
N10780 X-416.26 Y-53.252
N10785 X-415.79 Y-52.004
N10790 X-1073.916
N10795 X-1073.914 Y-51.997 Z-5.923
N10800 X-1073.91 Y-51.978 Z-5.833
N10805 X-1073.903 Y-51.946 Z-5.746
N10810 X-1073.893 Y-51.903 Z-5.665
N10815 X-1073.881 Y-51.849 Z-5.59
N10820 X-1073.866 Y-51.785 Z-5.525
N10825 X-1073.85 Y-51.712 Z-5.469
N10830 X-1073.832 Y-51.633 Z-5.425
N10835 X-1073.813 Y-51.548 Z-5.392
N10840 X-1073.793 Y-51.46 Z-5.373
N10845 X-1073.772 Y-51.37 Z-5.366
N10850 X-1073.153 Y-48.638
N10855 X-1073.132 Y-48.547 Z-5.373
N10860 X-1073.112 Y-48.459 Z-5.392
N10865 X-1073.093 Y-48.374 Z-5.425
N10870 X-1073.075 Y-48.295 Z-5.469
N10875 X-1073.059 Y-48.222 Z-5.525
N10880 X-1073.044 Y-48.159 Z-5.59
N10885 X-1073.032 Y-48.104 Z-5.665
N10890 X-1073.022 Y-48.061 Z-5.746
N10895 X-1073.015 Y-48.029 Z-5.833
N10900 X-1073.011 Y-48.01 Z-5.923
N10905 X-1073.009 Y-48.004 Z-6.016
N10910 X-414.262
N10915 X-414.165 Y-47.753
N10920 X-414.068 Y-47.503
N10925 X-413.971 Y-47.253
N10930 X-413.874 Y-47.003
N10935 X-413.288 Y-45.502
N10940 X-413.19 Y-45.252
N10945 X-413.092 Y-45.002
N10950 X-412.697 Y-44.004
N10955 X-1072.092
N10960 X-1071.976 Y-43.503
N10965 X-1071.742 Y-42.503
N10970 X-1071.625 Y-42.003
N10975 X-1071.507 Y-41.503
N10980 X-1071.271 Y-40.503
N10985 X-1071.151 Y-40.004
N10990 X-411.098
N10995 X-410.996 Y-39.753
N11000 X-410.895 Y-39.503
N11005 X-410.794 Y-39.253
N11010 X-410.59 Y-38.752
N11015 X-410.488 Y-38.502
N11020 X-410.079 Y-37.502
N11025 X-409.976 Y-37.252
N11030 X-409.771 Y-36.753
N11035 X-409.668 Y-36.503
N11040 X-409.565 Y-36.254
N11045 X-409.461 Y-36.004
N11050 X-1070.193
N11055 X-1070.135 Y-35.753
N11060 X-1070.075 Y-35.503
N11065 X-1069.649 Y-33.753
N11070 X-1069.588 Y-33.503
N11075 X-1069.281 Y-32.254
N11080 X-1069.219 Y-32.004
N11085 X-407.788
N11090 X-407.682 Y-31.754
N11095 X-407.576 Y-31.503
N11100 X-407.47 Y-31.253
N11105 X-407.151 Y-30.502
N11110 X-407.044 Y-30.252
N11115 X-406.723 Y-29.502
N11120 X-406.616 Y-29.253
N11125 X-406.294 Y-28.503
N11130 X-406.186 Y-28.254
N11135 X-406.078 Y-28.004
N11140 X-1068.227
N11145 X-1067.283 Y-24.254
N11150 X-1067.219 Y-24.004
N11155 X-404.33
N11160 X-404.109 Y-23.503
N11165 X-403.998 Y-23.253
N11170 X-403.553 Y-22.252
N11175 X-403.218 Y-21.502
N11180 X-403.106 Y-21.253
N11185 X-402.657 Y-20.254
N11190 X-402.544 Y-20.004
N11195 X-1066.195
N11200 X-1066.132 Y-19.754
N11205 X-1066.068 Y-19.504
N11210 X-1065.939 Y-19.003
N11215 X-1065.874 Y-18.753
N11220 X-1065.223 Y-16.254
N11225 X-1065.157 Y-16.004
N11230 X-400.719
N11235 X-400.488 Y-15.503
N11240 X-400.372 Y-15.253
N11245 X-399.908 Y-14.253
N11250 X-399.791 Y-14.002
N11255 X-399.675 Y-13.753
N11260 X-399.558 Y-13.503
N11265 X-398.973 Y-12.254
N11270 X-398.855 Y-12.004
N11275 X-1064.104
N11280 X-1063.574 Y-10.003
N11285 X-1063.507 Y-9.753
N11290 X-1063.44 Y-9.503
N11295 X-1063.373 Y-9.254
N11300 X-1063.103 Y-8.254
N11305 X-1063.036 Y-8.004
N11310 X-396.952
N11315 X-396.831 Y-7.754
N11320 X-396.71 Y-7.504
N11325 X-396.105 Y-6.253
N11330 X-395.984 Y-6.002
N11335 X-395.862 Y-5.752
N11340 X-395.74 Y-5.503
N11345 X-395.13 Y-4.254
N11350 X-395.008 Y-4.004
N11355 X-1061.948
N11360 X-1061.884 Y-3.754
N11365 X-1060.992 Y-0.504
N11370 X-1060.923 Y-0.254
N11375 X-1060.854 Y-0.005
N11380 X-393.024
N11385 X-392.897 Y0.245
N11390 X-392.14 Y1.747
N11395 X-392.014 Y1.997
N11400 X-391.887 Y2.247
N11405 X-391.124 Y3.746
N11410 X-390.997 Y3.995
N11415 X-1059.736
N11420 X-1059.668 Y4.246
N11425 X-1059.598 Y4.496
N11430 X-1059.527 Y4.746
N11435 X-1059.456 Y4.996
N11440 X-1058.606 Y7.995
N11445 X-388.928
N11450 X-388.797 Y8.245
N11455 X-388.14 Y9.497
N11460 X-388.009 Y9.748
N11465 X-387.877 Y9.997
N11470 X-387.083 Y11.496
N11475 X-386.95 Y11.746
N11480 X-386.817 Y11.995
N11485 X-1057.458
N11490 X-1056.953 Y13.747
N11495 X-1056.881 Y13.997
N11500 X-1056.808 Y14.247
N11505 X-1056.369 Y15.746
N11510 X-1056.293 Y15.995
N11515 X-384.663
N11520 X-384.116 Y16.997
N11525 X-383.98 Y17.247
N11530 X-383.843 Y17.497
N11535 X-383.705 Y17.747
N11540 X-383.018 Y18.997
N11545 X-382.88 Y19.247
N11550 X-382.742 Y19.496
N11555 X-382.603 Y19.746
N11560 X-382.465 Y19.995
N11565 X-1055.118
N11570 X-1054.225 Y22.996
N11575 X-1054.15 Y23.246
N11580 X-1054.076 Y23.496
N11585 X-1053.925 Y23.995
N11590 X-380.221
N11595 X-379.938 Y24.496
N11600 X-379.796 Y24.747
N11605 X-379.511 Y25.247
N11610 X-379.368 Y25.497
N11615 X-378.796 Y26.497
N11620 X-378.652 Y26.747
N11625 X-378.509 Y26.997
N11630 X-378.365 Y27.246
N11635 X-378.077 Y27.745
N11640 X-377.934 Y27.995
N11645 X-1052.715
N11650 X-1052.639 Y28.245
N11655 X-1052.485 Y28.745
N11660 X-1051.564 Y31.746
N11665 X-1051.485 Y31.995
N11670 X-375.599
N11675 X-375.451 Y32.245
N11680 X-375.155 Y32.746
N11685 X-375.007 Y32.997
N11690 X-374.561 Y33.747
N11695 X-374.413 Y33.997
N11700 X-373.966 Y34.747
N11705 X-373.816 Y34.997
N11710 X-373.367 Y35.745
N11715 X-373.217 Y35.995
N11720 X-1050.241
N11725 X-1050.166 Y36.246
N11730 X-1049.932 Y36.996
N11735 X-1049.854 Y37.246
N11740 X-1049.697 Y37.746
N11745 X-1048.986 Y39.995
N11750 X-370.789
N11755 X-370.634 Y40.245
N11760 X-370.48 Y40.496
N11765 X-370.018 Y41.247
N11770 X-369.863 Y41.497
N11775 X-369.399 Y42.247
N11780 X-369.243 Y42.497
N11785 X-368.933 Y42.997
N11790 X-368.777 Y43.246
N11795 X-368.31 Y43.995
N11800 X-1047.711
N11805 X-1046.908 Y46.496
N11810 X-1046.746 Y46.996
N11815 X-1046.665 Y47.245
N11820 X-1046.502 Y47.745
N11825 X-1046.42 Y47.995
N11830 X-365.782
N11835 X-365.462 Y48.496
N11840 X-364.659 Y49.747
N11845 X-364.337 Y50.247
N11850 X-364.175 Y50.497
N11855 X-363.529 Y51.495
N11860 X-363.367 Y51.745
N11865 X-363.205 Y51.994
N11870 X-1045.115
N11875 X-1043.875 Y55.745
N11880 X-1043.791 Y55.994
N11885 X-360.574
N11890 X-359.907 Y56.997
N11895 X-359.74 Y57.247
N11900 X-359.573 Y57.498
N11905 X-358.734 Y58.747
N11910 X-358.566 Y58.997
N11915 X-358.398 Y59.247
N11920 X-358.06 Y59.745
N11925 X-357.892 Y59.994
N11930 X-1042.447
N11935 X-1042.367 Y60.246
N11940 X-1042.283 Y60.496
N11945 X-1042.198 Y60.746
N11950 X-1042.114 Y60.996
N11955 X-1041.094 Y63.994
N11960 X-355.157
N11965 X-354.983 Y64.245
N11970 X-354.81 Y64.496
N11975 X-353.766 Y65.997
N11980 X-353.592 Y66.247
N11985 X-352.541 Y67.745
N11990 X-352.366 Y67.994
N11995 X-1039.718
N12000 X-1039.634 Y68.245
N12005 X-1039.116 Y69.746
N12010 X-1039.029 Y69.996
N12015 X-1038.417 Y71.745
N12020 X-1038.329 Y71.994
N12025 X-349.519
N12030 X-348.797 Y72.997
N12035 X-348.617 Y73.247
N12040 X-348.435 Y73.497
N12045 X-347.528 Y74.747
N12050 X-347.346 Y74.997
N12055 X-347.163 Y75.246
N12060 X-346.798 Y75.745
N12065 X-346.616 Y75.994
N12070 X-1036.923
N12075 X-1036.835 Y76.244
N12080 X-1035.948 Y78.746
N12085 X-1035.859 Y78.996
N12090 X-1035.77 Y79.245
N12095 X-1035.591 Y79.745
N12100 X-1035.499 Y79.994
N12105 X-343.656
N12110 X-343.468 Y80.244
N12115 X-343.28 Y80.495
N12120 X-342.527 Y81.497
N12125 X-342.338 Y81.747
N12130 X-342.149 Y81.997
N12135 X-341.96 Y82.247
N12140 X-341.203 Y83.246
N12145 X-341.014 Y83.496
N12150 X-340.824 Y83.745
N12155 X-340.634 Y83.994
N12160 X-1034.058
N12165 X-1033.97 Y84.245
N12170 X-1032.696 Y87.744
N12175 X-1032.605 Y87.994
N12180 X-337.551
N12185 X-337.356 Y88.245
N12190 X-337.16 Y88.496
N12195 X-336.965 Y88.746
N12200 X-336.769 Y88.997
N12205 X-336.18 Y89.748
N12210 X-335.984 Y89.998
N12215 X-335.59 Y90.497
N12220 X-335.394 Y90.747
N12225 X-334.802 Y91.495
N12230 X-334.604 Y91.745
N12235 X-334.407 Y91.994
N12240 X-1031.127
N12245 X-1031.037 Y92.245
N12250 X-1030.945 Y92.495
N12255 X-1030.759 Y92.995
N12260 X-1030.666 Y93.245
N12265 X-1029.731 Y95.744
N12270 X-1029.636 Y95.994
N12275 X-331.198
N12280 X-330.994 Y96.245
N12285 X-330.79 Y96.495
N12290 X-330.587 Y96.746
N12295 X-330.179 Y97.247
N12300 X-329.974 Y97.497
N12305 X-329.565 Y97.997
N12310 X-329.361 Y98.248
N12315 X-328.746 Y98.996
N12320 X-328.54 Y99.246
N12325 X-328.129 Y99.744
N12330 X-327.924 Y99.994
N12335 X-1028.129
N12340 X-1027.56 Y101.495
N12345 X-1027.465 Y101.746
N12350 X-1027.37 Y101.996
N12355 X-1027.274 Y102.246
N12360 X-1026.699 Y103.745
N12365 X-1026.599 Y103.994
N12370 X-324.581
N12375 X-324.369 Y104.245
N12380 X-324.157 Y104.495
N12385 X-323.944 Y104.746
N12390 X-323.094 Y105.748
N12395 X-322.88 Y105.998
N12400 X-322.667 Y106.248
N12405 X-322.454 Y106.497
N12410 X-321.812 Y107.246
N12415 X-321.598 Y107.495
N12420 X-321.384 Y107.745
N12425 X-321.17 Y107.993
N12430 X-1025.056
N12435 X-1025.053 Y108 Z-5.923
N12440 X-1025.046 Y108.018 Z-5.833
N12445 X-1025.035 Y108.048 Z-5.746
N12450 X-1025.018 Y108.09 Z-5.665
N12455 X-1024.998 Y108.141 Z-5.59
N12460 X-1024.974 Y108.202 Z-5.525
N12465 X-1024.947 Y108.272 Z-5.469
N12470 X-1024.918 Y108.347 Z-5.425
N12475 X-1024.886 Y108.428 Z-5.392
N12480 X-1024.853 Y108.513 Z-5.373
N12485 X-1024.819 Y108.599 Z-5.366
N12490 X-1023.73 Y111.388
N12495 X-1023.697 Y111.474 Z-5.373
N12500 X-1023.664 Y111.558 Z-5.392
N12505 X-1023.632 Y111.639 Z-5.425
N12510 X-1023.603 Y111.715 Z-5.469
N12515 X-1023.576 Y111.784 Z-5.525
N12520 X-1023.552 Y111.846 Z-5.59
N12525 X-1023.532 Y111.897 Z-5.665
N12530 X-1023.515 Y111.939 Z-5.746
N12535 X-1023.504 Y111.969 Z-5.833
N12540 X-1023.496 Y111.987 Z-5.923
N12545 X-1023.494 Y111.993 Z-6.016
N12550 X-317.687
N12555 X-317.466 Y112.245
N12560 X-317.245 Y112.496
N12565 X-317.024 Y112.746
N12570 X-315.915 Y113.998
N12575 X-315.692 Y114.248
N12580 X-315.47 Y114.498
N12585 X-314.578 Y115.495
N12590 X-314.355 Y115.745
N12595 X-314.132 Y115.993
N12600 X-1021.92
N12605 X-1021.918 Y115.999 Z-5.923
N12610 X-1021.91 Y116.018 Z-5.833
N12615 X-1021.898 Y116.048 Z-5.746
N12620 X-1021.882 Y116.089 Z-5.665
N12625 X-1021.861 Y116.141 Z-5.59
N12630 X-1021.837 Y116.202 Z-5.525
N12635 X-1021.809 Y116.271 Z-5.469
N12640 X-1021.779 Y116.346 Z-5.425
N12645 X-1021.747 Y116.427 Z-5.392
N12650 X-1021.713 Y116.511 Z-5.373
N12655 X-1021.679 Y116.597 Z-5.366
N12660 X-1020.563 Y119.39
N12665 X-1020.529 Y119.476 Z-5.373
N12670 X-1020.495 Y119.56 Z-5.392
N12675 X-1020.463 Y119.64 Z-5.425
N12680 X-1020.433 Y119.716 Z-5.469
N12685 X-1020.405 Y119.785 Z-5.525
N12690 X-1020.381 Y119.846 Z-5.59
N12695 X-1020.36 Y119.897 Z-5.665
N12700 X-1020.344 Y119.939 Z-5.746
N12705 X-1020.332 Y119.969 Z-5.833
N12710 X-1020.325 Y119.987 Z-5.923
N12715 X-1020.322 Y119.993 Z-6.016
N12720 X-310.5
N12725 X-310.27 Y120.245
N12730 X-310.04 Y120.496
N12735 X-309.808 Y120.746
N12740 X-308.883 Y121.748
N12745 X-308.652 Y121.999
N12750 X-308.42 Y122.248
N12755 X-307.491 Y123.246
N12760 X-307.258 Y123.496
N12765 X-307.025 Y123.745
N12770 X-306.792 Y123.993
N12775 X-1018.71
N12780 X-1018.613 Y124.245
N12785 X-1018.511 Y124.495
N12790 X-1017.185 Y127.744
N12795 X-1017.082 Y127.993
N12800 X-303.005
N12805 X-302.764 Y128.244
N12810 X-301.8 Y129.248
N12815 X-301.558 Y129.498
N12820 X-301.316 Y129.748
N12825 X-300.348 Y130.748
N12830 X-300.105 Y130.997
N12835 X-299.863 Y131.246
N12840 X-299.377 Y131.744
N12845 X-299.134 Y131.993
N12850 X-1015.431
N12855 X-1015.329 Y132.244
N12860 X-1015.123 Y132.745
N12865 X-1015.019 Y132.995
N12870 X-1014.915 Y133.245
N12875 X-1014.811 Y133.495
N12880 X-1013.87 Y135.743
N12885 X-1013.766 Y135.993
N12890 X-295.178
N12895 X-294.675 Y136.495
N12900 X-294.423 Y136.746
N12905 X-294.171 Y136.997
N12910 X-293.919 Y137.248
N12915 X-293.161 Y137.999
N12920 X-292.909 Y138.248
N12925 X-292.656 Y138.498
N12930 X-292.402 Y138.748
N12935 X-291.895 Y139.246
N12940 X-291.642 Y139.495
N12945 X-291.388 Y139.744
N12950 X-291.134 Y139.993
N12955 X-1012.081
N12960 X-1011.975 Y140.243
N12965 X-1011.339 Y141.745
N12970 X-1011.233 Y141.995
N12975 X-1011.126 Y142.245
N12980 X-1011.02 Y142.495
N12985 X-1010.485 Y143.744
N12990 X-1010.376 Y143.993
N12995 X-286.999
N13000 X-286.736 Y144.244
N13005 X-286.473 Y144.496
N13010 X-286.209 Y144.747
N13015 X-285.946 Y144.997
N13020 X-285.682 Y145.248
N13025 X-284.89 Y145.999
N13030 X-284.625 Y146.249
N13035 X-284.361 Y146.498
N13040 X-284.096 Y146.748
N13045 X-283.566 Y147.246
N13050 X-283.301 Y147.495
N13055 X-283.035 Y147.744
N13060 X-282.77 Y147.993
N13065 X-1008.655
N13070 X-1008.548 Y148.243
N13075 X-1007.464 Y150.745
N13080 X-1007.246 Y151.244
N13085 X-1007.136 Y151.494
N13090 X-1007.027 Y151.744
N13095 X-1006.916 Y151.993
N13100 X-278.442
N13105 X-278.166 Y152.244
N13110 X-277.339 Y152.997
N13115 X-277.063 Y153.248
N13120 X-276.787 Y153.499
N13125 X-275.679 Y154.499
N13130 X-275.402 Y154.748
N13135 X-275.125 Y154.997
N13140 X-274.013 Y155.993
N13145 X-1005.154
N13150 X-1005.151 Y155.999 Z-5.923
N13155 X-1005.143 Y156.017 Z-5.833
N13160 X-1005.13 Y156.046 Z-5.746
N13165 X-1005.112 Y156.087 Z-5.665
N13170 X-1005.089 Y156.138 Z-5.59
N13175 X-1005.062 Y156.198 Z-5.525
N13180 X-1005.032 Y156.266 Z-5.469
N13185 X-1004.999 Y156.34 Z-5.425
N13190 X-1004.964 Y156.419 Z-5.392
N13195 X-1004.927 Y156.502 Z-5.373
N13200 X-1004.89 Y156.587 Z-5.366
N13205 X-1003.642 Y159.398
N13210 X-1003.604 Y159.483 Z-5.373
N13215 X-1003.567 Y159.566 Z-5.392
N13220 X-1003.532 Y159.645 Z-5.425
N13225 X-1003.499 Y159.72 Z-5.469
N13230 X-1003.469 Y159.787 Z-5.525
N13235 X-1003.443 Y159.847 Z-5.59
N13240 X-1003.42 Y159.898 Z-5.665
N13245 X-1003.402 Y159.939 Z-5.746
N13250 X-1003.389 Y159.968 Z-5.833
N13255 X-1003.381 Y159.986 Z-5.923
N13260 X-1003.378 Y159.993 Z-6.016
N13265 X-269.479
N13270 X-269.19 Y160.244
N13275 X-267.742 Y161.499
N13280 X-267.452 Y161.749
N13285 X-266.29 Y162.748
N13290 X-265.999 Y162.997
N13295 X-265.124 Y163.743
N13300 X-264.834 Y163.992
N13305 X-1001.581
N13310 Z0.984
N13315 G0 X-999.767 Y167.992
N13320 G1 Z-6.016 F2328
N13325 X-260.072
N13330 X-259.769 Y168.244
N13335 X-259.465 Y168.496
N13340 X-258.553 Y169.249
N13345 X-258.248 Y169.5
N13350 X-257.944 Y169.75
N13355 X-256.723 Y170.749
N13360 X-256.417 Y170.998
N13365 X-256.111 Y171.247
N13370 X-255.499 Y171.744
N13375 X-255.193 Y171.992
N13380 X-997.942
N13385 X-997.712 Y172.493
N13390 X-997.597 Y172.744
N13395 X-997.481 Y172.994
N13400 X-996.205 Y175.744
N13405 X-996.086 Y175.992
N13410 X-250.187
N13415 X-249.868 Y176.244
N13420 X-249.548 Y176.496
N13425 X-248.907 Y176.998
N13430 X-248.587 Y177.249
N13435 X-248.267 Y177.5
N13440 X-247.946 Y177.75
N13445 X-247.303 Y178.25
N13450 X-246.982 Y178.5
N13455 X-246.661 Y178.749
N13460 X-246.339 Y178.998
N13465 X-245.695 Y179.496
N13470 X-245.372 Y179.744
N13475 X-245.05 Y179.992
N13480 X-994.215
N13485 X-994.1 Y180.244
N13490 X-993.631 Y181.245
N13495 X-993.513 Y181.495
N13500 X-993.395 Y181.745
N13505 X-993.277 Y181.994
N13510 X-992.328 Y183.992
N13515 X-239.774
N13520 X-239.437 Y184.244
N13525 X-239.099 Y184.496
N13530 X-238.762 Y184.747
N13535 X-238.086 Y185.25
N13540 X-237.747 Y185.5
N13545 X-237.409 Y185.751
N13550 X-237.07 Y186.001
N13555 X-236.392 Y186.5
N13560 X-236.053 Y186.75
N13565 X-235.713 Y186.999
N13570 X-235.373 Y187.247
N13575 X-234.693 Y187.744
N13580 X-234.353 Y187.992
N13585 X-990.417
N13590 X-990.299 Y188.243
N13595 X-989.578 Y189.745
N13600 X-989.458 Y189.995
N13605 X-989.217 Y190.495
N13610 X-989.096 Y190.745
N13615 X-988.611 Y191.743
N13620 X-988.488 Y191.992
N13625 X-228.778
N13630 X-228.064 Y192.496
N13635 X-227.707 Y192.748
N13640 X-227.349 Y192.999
N13645 X-226.275 Y193.752
N13650 X-225.917 Y194.002
N13655 X-225.558 Y194.252
N13660 X-224.481 Y194.999
N13665 X-224.121 Y195.248
N13670 X-223.761 Y195.496
N13675 X-223.401 Y195.744
N13680 X-223.041 Y195.992
N13685 X-986.543
N13690 X-986.42 Y196.242
N13695 X-985.316 Y198.494
N13700 X-985.193 Y198.744
N13705 X-985.07 Y198.994
N13710 X-984.946 Y199.244
N13715 X-984.699 Y199.743
N13720 X-984.572 Y199.992
N13725 X-217.132
N13730 X-215.615 Y201
N13735 X-215.235 Y201.251
N13740 X-214.094 Y202.002
N13745 X-213.713 Y202.252
N13750 X-212.188 Y203.248
N13755 X-211.806 Y203.496
N13760 X-211.423 Y203.743
N13765 X-211.042 Y203.992
N13770 X-982.585
N13775 X-982.463 Y204.243
N13780 X-980.96 Y207.243
N13785 X-980.834 Y207.493
N13790 X-980.708 Y207.742
N13795 X-980.582 Y207.992
N13800 X-204.754
N13805 X-203.541 Y208.749
N13810 X-203.136 Y209.001
N13815 X-202.73 Y209.252
N13820 X-201.919 Y209.753
N13825 X-201.514 Y210.004
N13830 X-201.108 Y210.253
N13835 X-199.888 Y211.001
N13840 X-199.481 Y211.249
N13845 X-199.074 Y211.497
N13850 X-198.259 Y211.992
N13855 X-978.549
N13860 X-978.546 Y211.997 Z-5.923
N13865 X-978.538 Y212.015 Z-5.833
N13870 X-978.523 Y212.044 Z-5.746
N13875 X-978.503 Y212.083 Z-5.665
N13880 X-978.477 Y212.133 Z-5.59
N13885 X-978.447 Y212.191 Z-5.525
N13890 X-978.413 Y212.257 Z-5.469
N13895 X-978.376 Y212.33 Z-5.425
N13900 X-978.337 Y212.407 Z-5.392
N13905 X-978.296 Y212.488 Z-5.373
N13910 X-978.253 Y212.57 Z-5.366
N13915 X-976.799 Y215.413
N13920 X-976.757 Y215.495 Z-5.373
N13925 X-976.715 Y215.576 Z-5.392
N13930 X-976.676 Y215.653 Z-5.425
N13935 X-976.639 Y215.726 Z-5.469
N13940 X-976.605 Y215.792 Z-5.525
N13945 X-976.575 Y215.85 Z-5.59
N13950 X-976.55 Y215.9 Z-5.665
N13955 X-976.53 Y215.939 Z-5.746
N13960 X-976.515 Y215.968 Z-5.833
N13965 X-976.506 Y215.986 Z-5.923
N13970 X-976.503 Y215.992 Z-6.016
N13975 X-191.54
N13980 X-191.106 Y216.245
N13985 X-190.673 Y216.497
N13990 X-190.239 Y216.75
N13995 X-189.371 Y217.253
N14000 X-188.936 Y217.504
N14005 X-188.502 Y217.755
N14010 X-188.067 Y218.005
N14015 X-187.632 Y218.255
N14020 X-187.196 Y218.504
N14025 X-186.76 Y218.753
N14030 X-186.324 Y219.001
N14035 X-185.888 Y219.25
N14040 X-185.452 Y219.497
N14045 X-185.015 Y219.745
N14050 X-184.578 Y219.991
N14055 X-974.44
N14060 X-974.311 Y220.242
N14065 X-974.18 Y220.492
N14070 X-972.482 Y223.743
N14075 X-972.348 Y223.991
N14080 X-177.356
N14085 X-177.122 Y224.118
N14090 X-176.655 Y224.372
N14095 X-176.421 Y224.498
N14100 X-175.485 Y225.003
N14105 X-175.251 Y225.129
N14110 X-175.017 Y225.255
N14115 X-174.783 Y225.38
N14120 X-173.61 Y226.007
N14125 X-173.376 Y226.132
N14130 X-173.141 Y226.257
N14135 X-172.906 Y226.381
N14140 X-171.731 Y227.003
N14145 X-171.496 Y227.127
N14150 X-171.261 Y227.251
N14155 X-171.026 Y227.374
N14160 X-169.848 Y227.991
N14165 X-970.238
N14170 X-970.11 Y228.244
N14175 X-969.978 Y228.494
N14180 X-969.845 Y228.744
N14185 X-969.712 Y228.994
N14190 X-968.247 Y231.742
N14195 X-968.113 Y231.991
N14200 X-162.029
N14205 X-161.775 Y232.118
N14210 X-160.25 Y232.878
N14215 X-159.995 Y233.004
N14220 X-158.467 Y233.758
N14225 X-158.212 Y233.884
N14230 X-157.957 Y234.008
N14235 X-156.425 Y234.756
N14240 X-156.17 Y234.88
N14245 X-154.635 Y235.621
N14250 X-154.38 Y235.745
N14255 X-154.123 Y235.867
N14260 X-153.868 Y235.991
N14265 X-965.96
N14270 X-965.828 Y236.243
N14275 X-965.558 Y236.744
N14280 X-965.423 Y236.994
N14285 X-965.287 Y237.244
N14290 X-965.152 Y237.494
N14295 X-963.928 Y239.743
N14300 X-963.788 Y239.991
N14305 X-145.32
N14310 X-145.041 Y240.119
N14315 X-144.761 Y240.246
N14320 X-144.482 Y240.373
N14325 X-143.364 Y240.881
N14330 X-143.084 Y241.007
N14335 X-142.804 Y241.133
N14340 X-142.524 Y241.259
N14345 X-141.404 Y241.762
N14350 X-141.123 Y241.887
N14355 X-140.843 Y242.013
N14360 X-140.563 Y242.137
N14365 X-139.44 Y242.635
N14370 X-139.159 Y242.76
N14375 X-138.878 Y242.883
N14380 X-138.597 Y243.007
N14385 X-137.473 Y243.501
N14390 X-137.192 Y243.623
N14395 X-136.91 Y243.746
N14400 X-136.629 Y243.869
N14405 X-136.347 Y243.991
N14410 X-961.599
N14415 X-961.463 Y244.242
N14420 X-960.912 Y245.243
N14425 X-960.635 Y245.744
N14430 X-959.526 Y247.742
N14435 X-959.386 Y247.991
N14440 X-126.892
N14445 X-126.58 Y248.119
N14450 X-125.957 Y248.374
N14455 X-125.645 Y248.502
N14460 X-125.021 Y248.756
N14465 X-124.709 Y248.883
N14470 X-124.084 Y249.136
N14475 X-123.772 Y249.263
N14480 X-123.147 Y249.515
N14485 X-122.835 Y249.64
N14490 X-122.209 Y249.891
N14495 X-121.897 Y250.016
N14500 X-120.958 Y250.39
N14505 X-120.645 Y250.515
N14510 X-120.018 Y250.763
N14515 X-119.705 Y250.886
N14520 X-119.078 Y251.133
N14525 X-118.764 Y251.256
N14530 X-118.137 Y251.502
N14535 X-117.823 Y251.624
N14540 X-117.195 Y251.868
N14545 X-116.881 Y251.991
N14550 X-957.149
N14555 X-957.012 Y252.243
N14560 X-956.31 Y253.494
N14565 X-956.169 Y253.744
N14570 X-956.028 Y253.994
N14575 X-955.038 Y255.742
N14580 X-954.896 Y255.991
N14585 X-106.226
N14590 Z0.984
N14595 G0 X-94.81 Y259.991
N14600 G1 Z-6.016 F2328
N14605 X-952.619
N14610 X-951.616 Y261.743
N14615 X-951.473 Y261.994
N14620 X-951.329 Y262.244
N14625 X-950.463 Y263.742
N14630 X-950.316 Y263.991
N14635 X-82.474
N14640 Z0.984
N14645 G0 X-68.996 Y267.991
N14650 G1 Z-6.016 F2328
N14655 X-947.995
N14660 X-947.852 Y268.242
N14665 X-946.976 Y269.743
N14670 X-946.83 Y269.993
N14675 X-946.683 Y270.243
N14680 X-946.537 Y270.493
N14685 X-945.802 Y271.741
N14690 X-945.655 Y271.99
N14695 X-53.993
N14700 Z0.984
N14705 G0 X-36.802 Y275.99
N14710 G1 Z-6.016 F2328
N14715 X-943.285
N14720 X-943.139 Y276.242
N14725 X-942.097 Y277.994
N14730 X-941.948 Y278.244
N14735 X-941.798 Y278.494
N14740 X-941.649 Y278.744
N14745 X-941.049 Y279.742
N14750 X-940.896 Y279.99
N14755 X-16.078
N14760 Z0.984
N14765 G0 X12.104 Y283.99
N14770 G1 Z-6.016 F2328
N14775 X-938.489
N14780 Z0.984
N14785 G0 X-1059.106 Y403.988
N14790 G1 Z-6.016 F2328
N14795 X-1109.141
N14800 Z0.984
N14805 G0 X-1125.01 Y407.988
N14810 G1 Z-6.016 F2328
N14815 X-1044.665
N14820 X-1044.327 Y408.101
N14825 X-1043.989 Y408.215
N14830 X-1043.315 Y408.446
N14835 X-1042.978 Y408.562
N14840 X-1042.641 Y408.68
N14845 X-1042.305 Y408.799
N14850 X-1041.969 Y408.917
N14855 X-1041.633 Y409.036
N14860 X-1041.298 Y409.158
N14865 X-1040.627 Y409.4
N14870 X-1040.293 Y409.523
N14875 X-1039.959 Y409.647
N14880 X-1039.625 Y409.771
N14885 X-1039.29 Y409.895
N14890 X-1038.957 Y410.021
N14895 X-1038.624 Y410.147
N14900 X-1038.291 Y410.274
N14905 X-1037.958 Y410.401
N14910 X-1037.626 Y410.53
N14915 X-1037.293 Y410.66
N14920 X-1036.961 Y410.789
N14925 X-1036.63 Y410.919
N14930 X-1036.298 Y411.051
N14935 X-1035.967 Y411.183
N14940 X-1035.636 Y411.315
N14945 X-1035.305 Y411.448
N14950 X-1034.975 Y411.582
N14955 X-1034.645 Y411.717
N14960 X-1034.315 Y411.851
N14965 X-1033.985 Y411.988
N14970 X-1137.661
N14975 Z0.984
N14980 G0 X-1149.296 Y415.988
N14985 G1 Z-6.016 F2328
N14990 X-1024.987
N14995 X-1024.733 Y416.106
N15000 X-1024.228 Y416.347
N15005 X-1023.976 Y416.468
N15010 X-1023.724 Y416.589
N15015 X-1022.969 Y416.955
N15020 X-1022.718 Y417.078
N15025 X-1022.216 Y417.325
N15030 X-1021.965 Y417.448
N15035 X-1021.714 Y417.572
N15040 X-1021.464 Y417.696
N15045 X-1021.214 Y417.821
N15050 X-1020.714 Y418.071
N15055 X-1020.214 Y418.322
N15060 X-1019.964 Y418.448
N15065 X-1019.466 Y418.702
N15070 X-1018.967 Y418.956
N15075 X-1018.719 Y419.083
N15080 X-1018.222 Y419.34
N15085 X-1017.725 Y419.597
N15090 X-1017.477 Y419.726
N15095 X-1017.229 Y419.856
N15100 X-1016.982 Y419.988
N15105 X-1160.775
N15110 Z0.984
N15115 G0 X-1172.673 Y423.988
N15120 G1 Z-6.016 F2328
N15125 X-1009.656
N15130 X-1009.225 Y424.23
N15135 X-1008.796 Y424.475
N15140 X-1007.938 Y424.968
N15145 X-1007.509 Y425.215
N15150 X-1007.082 Y425.464
N15155 X-1006.654 Y425.713
N15160 X-1006.227 Y425.962
N15165 X-1005.375 Y426.464
N15170 X-1004.949 Y426.716
N15175 X-1004.524 Y426.969
N15180 X-1004.099 Y427.222
N15185 X-1003.674 Y427.476
N15190 X-1003.25 Y427.731
N15195 X-1002.828 Y427.988
N15200 X-1185.658
N15205 Z0.984
N15210 G0 X-1193.398 Y431.988
N15215 G1 Z-0.135 F2328
N15220 Z-6.016
N15225 X-996.386
N15230 X-995.999 Y432.232
N15235 X-995.614 Y432.479
N15240 X-995.228 Y432.726
N15245 X-994.843 Y432.974
N15250 X-994.458 Y433.222
N15255 X-994.074 Y433.471
N15260 X-993.69 Y433.72
N15265 X-993.307 Y433.97
N15270 X-992.924 Y434.22
N15275 X-992.541 Y434.471
N15280 X-992.158 Y434.722
N15285 X-991.776 Y434.974
N15290 X-991.394 Y435.226
N15295 X-991.012 Y435.479
N15300 X-990.631 Y435.732
N15305 X-990.251 Y435.987
N15310 X-1193.398
N15315 G18 G3 X-1193.684 Z-5.95 K0.65
N15320 G2 X-1193.97 Z-5.883 I-0.286 K-0.584
N15325 G1 X-1193.971
N15330 G17 G2 X-1195.921 Y437.938 J1.95
N15335 G1 Y438.037
N15340 G2 X-1193.971 Y439.987 I1.95
N15345 G18 G3 X-1193.685 Z-5.95 K-0.65
N15350 G2 X-1193.398 Z-6.016 I0.286 K0.584
N15355 G1 X-984.37
N15360 X-984.012 Y440.233
N15365 X-983.656 Y440.48
N15370 X-983.3 Y440.728
N15375 X-982.944 Y440.977
N15380 X-982.589 Y441.226
N15385 X-982.234 Y441.475
N15390 X-981.879 Y441.724
N15395 X-981.525 Y441.974
N15400 X-981.17 Y442.225
N15405 X-980.816 Y442.475
N15410 X-980.462 Y442.726
N15415 X-979.756 Y443.229
N15420 X-979.403 Y443.481
N15425 X-979.05 Y443.734
N15430 X-978.698 Y443.987
N15435 X-1193.398
N15440 G3 X-1193.684 Z-5.95 K0.65
N15445 G2 X-1193.97 Z-5.883 I-0.286 K-0.584
N15450 G1 X-1193.971
N15455 G17 G2 X-1195.921 Y445.937 J1.95
N15460 G1 Y446.037
N15465 G2 X-1193.971 Y447.987 I1.95
N15470 G18 G3 X-1193.685 Z-5.95 K-0.65
N15475 G2 X-1193.398 Z-6.016 I0.286 K0.584
N15480 G1 X-973.212
N15485 X-972.875 Y448.234
N15490 X-972.541 Y448.482
N15495 X-972.206 Y448.73
N15500 X-971.872 Y448.979
N15505 X-971.538 Y449.228
N15510 X-971.204 Y449.478
N15515 X-970.871 Y449.728
N15520 X-970.537 Y449.977
N15525 X-970.204 Y450.228
N15530 X-969.871 Y450.478
N15535 X-969.538 Y450.729
N15540 X-969.206 Y450.98
N15545 X-968.873 Y451.232
N15550 X-968.541 Y451.483
N15555 X-968.209 Y451.735
N15560 X-967.877 Y451.987
N15565 X-1193.398
N15570 G3 X-1193.684 Z-5.95 K0.65
N15575 G2 X-1193.97 Z-5.883 I-0.286 K-0.584
N15580 G17 G2 X-1195.921 Y453.937 J1.95
N15585 G1 Y454.037
N15590 G2 X-1193.97 Y455.987 I1.95
N15595 G18 G3 X-1193.684 Z-5.95 K-0.65
N15600 G2 X-1193.398 Z-6.016 I0.286 K0.584
N15605 G1 X-962.687
N15610 X-962.368 Y456.234
N15615 X-962.05 Y456.482
N15620 X-961.414 Y456.98
N15625 X-961.096 Y457.229
N15630 X-960.462 Y457.728
N15635 X-960.145 Y457.978
N15640 X-959.828 Y458.229
N15645 X-959.511 Y458.479
N15650 X-959.195 Y458.729
N15655 X-958.878 Y458.98
N15660 X-958.562 Y459.231
N15665 X-958.246 Y459.482
N15670 X-957.93 Y459.734
N15675 X-957.616 Y459.987
N15680 X-1193.398
N15685 G3 X-1193.684 Z-5.95 K0.65
N15690 G2 X-1193.97 Z-5.883 I-0.286 K-0.584
N15695 G17 G2 X-1195.92 Y461.937 J1.95
N15700 G1 Y462.037
N15705 G2 X-1193.97 Y463.987 I1.95
N15710 G18 G3 X-1193.684 Z-5.95 K-0.65
N15715 G2 X-1193.398 Z-6.016 I0.286 K0.584
N15720 G1 X-952.653
N15725 X-952.346 Y464.234
N15730 X-952.041 Y464.483
N15735 X-951.736 Y464.732
N15740 X-951.431 Y464.981
N15745 X-950.518 Y465.729
N15750 X-950.214 Y465.979
N15755 X-949.606 Y466.48
N15760 X-949.302 Y466.73
N15765 X-948.999 Y466.981
N15770 X-948.695 Y467.232
N15775 X-948.392 Y467.483
N15780 X-948.089 Y467.734
N15785 X-947.787 Y467.987
N15790 X-1193.398
N15795 G3 X-1193.684 Z-5.95 K0.65
N15800 G2 X-1193.97 Z-5.883 I-0.286 K-0.584
N15805 G17 G2 X-1195.92 Y469.937 J1.95
N15810 G1 Y470.037
N15815 G2 X-1193.97 Y471.987 I1.95
N15820 G18 G3 X-1193.684 Z-5.95 K-0.65
N15825 G2 X-1193.398 Z-6.016 I0.286 K0.584
N15830 G1 X-943.009
N15835 X-942.713 Y472.234
N15840 X-942.419 Y472.483
N15845 X-941.83 Y472.982
N15850 X-941.536 Y473.231
N15855 X-941.242 Y473.481
N15860 X-940.655 Y473.981
N15865 X-940.361 Y474.231
N15870 X-939.482 Y474.982
N15875 X-939.189 Y475.232
N15880 X-938.896 Y475.483
N15885 X-938.603 Y475.734
N15890 X-938.312 Y475.987
N15895 X-1193.398
N15900 G3 X-1193.684 Z-5.95 K0.65
N15905 G2 X-1193.97 Z-5.883 I-0.286 K-0.584
N15910 G1 X-1193.971
N15915 G17 G2 X-1195.921 Y477.937 J1.95
N15920 G1 Y478.037
N15925 G2 X-1193.971 Y479.987 I1.95
N15930 G18 G3 X-1193.685 Z-5.95 K-0.65
N15935 G2 X-1193.398 Z-6.016 I0.286 K0.584
N15940 G1 X-933.687
N15945 X-933.4 Y480.235
N15950 X-933.115 Y480.484
N15955 X-932.544 Y480.983
N15960 X-932.259 Y481.232
N15965 X-931.974 Y481.482
N15970 X-931.404 Y481.982
N15975 X-931.119 Y482.232
N15980 X-930.834 Y482.482
N15985 X-930.55 Y482.732
N15990 X-930.266 Y482.983
N15995 X-929.981 Y483.233
N16000 X-929.697 Y483.484
N16005 X-929.413 Y483.735
N16010 X-929.13 Y483.987
N16015 X-1193.398
N16020 G3 X-1193.684 Z-5.95 K0.65
N16025 G2 X-1193.97 Z-5.883 I-0.286 K-0.584
N16030 G17 G2 X-1195.92 Y485.937 J1.95
N16035 G1 Y486.037
N16040 G2 X-1193.97 Y487.987 I1.95
N16045 G18 G3 X-1193.684 Z-5.95 K-0.65
N16050 G2 X-1193.398 Z-6.016 I0.286 K0.584
N16055 G1 X-924.637
N16060 X-924.357 Y488.234
N16065 X-924.079 Y488.483
N16070 X-923.801 Y488.733
N16075 X-922.968 Y489.482
N16080 X-922.691 Y489.731
N16085 X-921.859 Y490.482
N16090 X-921.582 Y490.732
N16095 X-921.305 Y490.982
N16100 X-920.751 Y491.484
N16105 X-920.474 Y491.734
N16110 X-920.199 Y491.986
N16115 X-1193.398
N16120 G3 X-1193.684 Z-5.95 K0.65
N16125 G2 X-1193.97 Z-5.883 I-0.286 K-0.584
N16130 G17 G2 X-1195.92 Y493.936 J1.95
N16135 G1 Y494.036
N16140 G2 X-1193.97 Y495.986 I1.95
N16145 G18 G3 X-1193.684 Z-5.95 K-0.65
N16150 G2 X-1193.398 Z-6.016 I0.286 K0.584
N16155 G1 X-915.815
N16160 X-915.542 Y496.234
N16165 X-915.271 Y496.484
N16170 X-914.999 Y496.733
N16175 X-914.457 Y497.232
N16180 X-914.186 Y497.482
N16185 X-913.915 Y497.732
N16190 X-913.373 Y498.232
N16195 X-913.102 Y498.482
N16200 X-912.832 Y498.732
N16205 X-912.561 Y498.983
N16210 X-912.02 Y499.484
N16215 X-911.75 Y499.734
N16220 X-911.481 Y499.986
N16225 X-1193.398
N16230 G3 X-1193.684 Z-5.95 K0.65
N16235 G2 X-1193.97 Z-5.883 I-0.286 K-0.584
N16240 G17 G2 X-1195.92 Y501.936 J1.95
N16245 G1 Y502.036
N16250 G2 X-1193.97 Y503.986 I1.95
N16255 G18 G3 X-1193.684 Z-5.95 K-0.65
N16260 G2 X-1193.398 Z-6.016 I0.286 K0.584
N16265 G1 X-907.192
N16270 X-906.925 Y504.235
N16275 X-906.659 Y504.484
N16280 X-906.394 Y504.734
N16285 X-905.597 Y505.483
N16290 X-905.332 Y505.733
N16295 X-905.066 Y505.983
N16300 X-904.271 Y506.733
N16305 X-904.006 Y506.983
N16310 X-903.741 Y507.233
N16315 X-903.212 Y507.734
N16320 X-902.948 Y507.986
N16325 X-1193.398
N16330 G3 X-1193.684 Z-5.95 K0.65
N16335 G2 X-1193.97 Z-5.883 I-0.286 K-0.584
N16340 G17 G2 X-1195.92 Y509.936 J1.95
N16345 G1 Y510.036
N16350 G2 X-1193.97 Y511.986 I1.95
N16355 G18 G3 X-1193.684 Z-5.95 K-0.65
N16360 G2 X-1193.398 Z-6.016 I0.286 K0.584
N16365 G1 X-898.743
N16370 X-898.482 Y512.235
N16375 X-897.7 Y512.983
N16380 X-897.439 Y513.233
N16385 X-897.179 Y513.483
N16390 X-896.398 Y514.232
N16395 X-896.138 Y514.482
N16400 X-895.878 Y514.733
N16405 X-895.358 Y515.233
N16410 X-895.098 Y515.483
N16415 X-894.838 Y515.734
N16420 X-894.58 Y515.986
N16425 X-1193.399
N16430 G3 X-1193.685 Z-5.95 K0.65
N16435 G2 X-1193.971 Z-5.883 I-0.286 K-0.584
N16440 G17 G2 X-1195.921 Y517.936 J1.95
N16445 G1 Y518.036
N16450 G2 X-1193.971 Y519.986 I1.95
N16455 G1 X-1193.97
N16460 G18 G3 X-1193.684 Z-5.95 K-0.65
N16465 G2 X-1193.398 Z-6.016 I0.286 K0.584
N16470 G1 X-890.449
N16475 X-890.192 Y520.235
N16480 X-889.679 Y520.734
N16485 X-889.423 Y520.983
N16490 X-889.167 Y521.233
N16495 X-888.399 Y521.983
N16500 X-888.143 Y522.233
N16505 X-887.887 Y522.483
N16510 X-887.12 Y523.234
N16515 X-886.864 Y523.484
N16520 X-886.608 Y523.735
N16525 X-886.354 Y523.986
N16530 X-1193.398
N16535 G3 X-1193.684 Z-5.95 K0.65
N16540 G2 X-1193.97 Z-5.883 I-0.286 K-0.584
N16545 G17 G2 X-1195.92 Y525.936 J1.95
N16550 G1 Y526.036
N16555 G2 X-1193.97 Y527.986 I1.95
N16560 G18 G3 X-1193.684 Z-5.95 K-0.65
N16565 G2 X-1193.398 Z-6.016 I0.286 K0.584
N16570 G1 X-882.292
N16575 X-882.039 Y528.234
N16580 X-881.786 Y528.484
N16585 X-881.534 Y528.733
N16590 X-881.281 Y528.983
N16595 X-881.029 Y529.233
N16600 X-880.273 Y529.983
N16605 X-880.021 Y530.233
N16610 X-879.769 Y530.483
N16615 X-878.762 Y531.484
N16620 X-878.51 Y531.734
N16625 X-878.259 Y531.986
N16630 X-1193.398
N16635 G3 X-1193.684 Z-5.95 K0.65
N16640 G2 X-1193.97 Z-5.883 I-0.286 K-0.584
N16645 G17 G2 X-1195.92 Y533.936 J1.95
N16650 G1 Y534.036
N16655 G2 X-1193.97 Y535.986 I1.95
N16660 G18 G3 X-1193.684 Z-5.95 K-0.65
N16665 G2 X-1193.398 Z-6.016 I0.286 K0.584
N16670 G1 X-874.255
N16675 X-874.006 Y536.235
N16680 X-873.26 Y536.984
N16685 X-873.011 Y537.233
N16690 X-872.763 Y537.483
N16695 X-871.521 Y538.733
N16700 X-871.273 Y538.983
N16705 X-870.528 Y539.734
N16710 X-870.281 Y539.986
N16715 X-1193.398
N16720 G3 X-1193.684 Z-5.95 K0.65
N16725 G2 X-1193.97 Z-5.883 I-0.286 K-0.584
N16730 G17 G2 X-1195.92 Y541.936 J1.95
N16735 G1 Y542.036
N16740 G2 X-1193.97 Y543.986 I1.95
N16745 G18 G3 X-1193.684 Z-5.95 K-0.65
N16750 G2 X-1193.398 Z-6.016 I0.286 K0.584
N16755 G1 X-866.332
N16760 X-866.085 Y544.234
N16765 X-865.84 Y544.483
N16770 X-865.594 Y544.733
N16775 X-865.103 Y545.233
N16780 X-864.367 Y545.983
N16785 X-864.122 Y546.233
N16790 X-863.877 Y546.483
N16795 X-863.142 Y547.233
N16800 X-862.897 Y547.484
N16805 X-862.652 Y547.734
N16810 X-862.408 Y547.985
N16815 X-1193.398
N16820 G3 X-1193.684 Z-5.95 K0.65
N16825 G2 X-1193.97 Z-5.883 I-0.286 K-0.584
N16830 G17 G2 X-1195.92 Y549.935 J1.95
N16835 G1 Y550.035
N16840 G2 X-1193.97 Y551.985 I1.95
N16845 G18 G3 X-1193.684 Z-5.95 K-0.65
N16850 G2 X-1193.398 Z-6.016 I0.286 K0.584
N16855 G1 X-858.507
N16860 X-858.263 Y552.235
N16865 X-856.312 Y554.237
N16870 X-856.067 Y554.487
N16875 X-854.601 Y555.985
N16880 X-1193.398
N16885 G3 X-1193.684 Z-5.95 K0.65
N16890 G2 X-1193.97 Z-5.883 I-0.286 K-0.584
N16895 G1 X-1193.971
N16900 G17 G2 X-1195.921 Y557.935 J1.95
N16905 G1 Y558.035
N16910 G2 X-1193.971 Y559.985 I1.95
N16915 G18 G3 X-1193.685 Z-5.95 K-0.65
N16920 G2 X-1193.399 Z-6.016 I0.286 K0.584
N16925 G1 X-850.663
N16930 X-850.168 Y560.486
N16935 X-849.921 Y560.737
N16940 X-849.673 Y560.987
N16945 X-847.936 Y562.737
N16950 X-847.688 Y562.986
N16955 X-847.439 Y563.236
N16960 X-846.942 Y563.735
N16965 X-846.694 Y563.985
N16970 X-1193.398
N16975 G3 X-1193.684 Z-5.95 K0.65
N16980 G2 X-1193.97 Z-5.883 I-0.286 K-0.584
N16985 G17 G2 X-1195.92 Y565.935 J1.95
N16990 G1 Y566.035
N16995 G2 X-1193.97 Y567.985 I1.95
N17000 G18 G3 X-1193.684 Z-5.95 K-0.65
N17005 G2 X-1193.398 Z-6.016 I0.286 K0.584
N17010 G1 X-842.687
N17015 X-841.678 Y568.987
N17020 X-841.426 Y569.237
N17025 X-841.174 Y569.487
N17030 X-840.921 Y569.737
N17035 X-839.405 Y571.237
N17040 X-839.152 Y571.486
N17045 X-838.899 Y571.736
N17050 X-838.646 Y571.985
N17055 X-1193.398
N17060 G3 X-1193.684 Z-5.95 K0.65
N17065 G2 X-1193.97 Z-5.883 I-0.286 K-0.584
N17070 G17 G2 X-1195.921 Y573.935 J1.95
N17075 G1 Y574.035
N17080 G2 X-1193.97 Y575.985 I1.95
N17085 G18 G3 X-1193.684 Z-5.95 K-0.65
N17090 G2 X-1193.398 Z-6.016 I0.286 K0.584
N17095 G1 X-834.569
N17100 X-834.313 Y576.236
N17105 X-833.029 Y577.487
N17110 X-832.772 Y577.737
N17115 X-832.258 Y578.237
N17120 X-832 Y578.487
N17125 X-830.971 Y579.486
N17130 X-830.713 Y579.735
N17135 X-830.456 Y579.985
N17140 X-1193.398
N17145 G3 X-1193.684 Z-5.95 K0.65
N17150 G2 X-1193.97 Z-5.883 I-0.286 K-0.584
N17155 G1 X-1193.971
N17160 G17 G2 X-1195.921 Y581.935 J1.95
N17165 G1 Y582.035
N17170 G2 X-1193.971 Y583.985 I1.95
N17175 G18 G3 X-1193.685 Z-5.95 K-0.65
N17180 G2 X-1193.398 Z-6.016 I0.286 K0.584
N17185 G1 X-826.307
N17190 X-826.045 Y584.235
N17195 X-825.522 Y584.736
N17200 X-825.261 Y584.986
N17205 X-824.476 Y585.737
N17210 X-824.214 Y585.987
N17215 X-823.428 Y586.737
N17220 X-823.166 Y586.986
N17225 X-822.38 Y587.735
N17230 X-822.117 Y587.985
N17235 X-1193.398
N17240 G3 X-1193.685 Z-5.95 K0.65
N17245 G2 X-1193.971 Z-5.883 I-0.286 K-0.584
N17250 G17 G2 X-1195.921 Y589.935 J1.95
N17255 G1 Y590.035
N17260 G2 X-1193.971 Y591.985 I1.95
N17265 G1 X-1193.97
N17270 G18 G3 X-1193.684 Z-5.95 K-0.65
N17275 G2 X-1193.398 Z-6.016 I0.286 K0.584
N17280 G1 X-817.891
N17285 X-817.359 Y592.486
N17290 X-816.56 Y593.237
N17295 X-815.76 Y593.987
N17300 X-814.426 Y595.236
N17305 X-814.159 Y595.486
N17310 X-813.625 Y595.985
N17315 X-1193.398
N17320 G3 X-1193.684 Z-5.95 K0.65
N17325 G2 X-1193.97 Z-5.883 I-0.286 K-0.584
N17330 G17 G2 X-1195.92 Y597.935 J1.95
N17335 G1 Y598.035
N17340 G2 X-1193.97 Y599.984 I1.95
N17345 G18 G3 X-1193.684 Z-5.95 K-0.65
N17350 G2 X-1193.398 Z-6.016 I0.286 K0.584
N17355 G1 X-809.32
N17360 X-809.049 Y600.235
N17365 X-807.692 Y601.487
N17370 X-807.421 Y601.737
N17375 X-807.149 Y601.987
N17380 X-806.877 Y602.237
N17385 X-805.518 Y603.485
N17390 X-805.246 Y603.735
N17395 X-804.974 Y603.984
N17400 X-1193.398
N17405 G3 X-1193.684 Z-5.95 K0.65
N17410 G2 X-1193.97 Z-5.883 I-0.286 K-0.584
N17415 G17 G2 X-1195.92 Y605.934 J1.95
N17420 G1 Y606.034
N17425 G2 X-1193.97 Y607.984 I1.95
N17430 G18 G3 X-1193.684 Z-5.95 K-0.65
N17435 G2 X-1193.398 Z-6.016 I0.286 K0.584
N17440 G1 X-800.586
N17445 X-800.31 Y608.235
N17450 X-798.651 Y609.737
N17455 X-798.374 Y609.987
N17460 X-798.097 Y610.236
N17465 X-796.435 Y611.734
N17470 X-796.158 Y611.984
N17475 X-1193.398
N17480 G3 X-1193.684 Z-5.95 K0.65
N17485 G2 X-1193.97 Z-5.883 I-0.286 K-0.584
N17490 G17 G2 X-1195.92 Y613.934 J1.95
N17495 G1 Y614.034
N17500 G2 X-1193.97 Y615.984 I1.95
N17505 G18 G3 X-1193.684 Z-5.95 K-0.65
N17510 G2 X-1193.398 Z-6.016 I0.286 K0.584
N17515 G1 X-791.684
N17520 X-791.402 Y616.235
N17525 X-789.711 Y617.737
N17530 X-789.429 Y617.987
N17535 X-787.451 Y619.734
N17540 X-787.169 Y619.984
N17545 X-1193.398
N17550 G3 X-1193.684 Z-5.95 K0.65
N17555 G2 X-1193.97 Z-5.883 I-0.286 K-0.584
N17560 G17 G2 X-1195.92 Y621.934 J1.95
N17565 G1 Y622.034
N17570 G2 X-1193.97 Y623.984 I1.95
N17575 G18 G3 X-1193.684 Z-5.95 K-0.65
N17580 G2 X-1193.398 Z-6.016 I0.286 K0.584
N17585 G1 X-782.607
N17590 X-782.319 Y624.234
N17595 X-780.882 Y625.486
N17600 X-780.594 Y625.737
N17605 X-780.306 Y625.987
N17610 X-780.018 Y626.236
N17615 X-778.577 Y627.485
N17620 X-778.289 Y627.734
N17625 X-778.001 Y627.984
N17630 X-1193.398
N17635 G3 X-1193.684 Z-5.95 K0.65
N17640 G2 X-1193.97 Z-5.883 I-0.286 K-0.584
N17645 G17 G2 X-1195.92 Y629.934 J1.95
N17650 G1 Y630.034
N17655 G2 X-1193.97 Y631.984 I1.95
N17660 G18 G3 X-1193.684 Z-5.95 K-0.65
N17665 G2 X-1193.398 Z-6.016 I0.286 K0.584
N17670 G1 X-773.347
N17675 X-773.053 Y632.234
N17680 X-771.88 Y633.236
N17685 X-771.586 Y633.487
N17690 X-771.293 Y633.737
N17695 X-770.999 Y633.987
N17700 X-769.529 Y635.235
N17705 X-769.235 Y635.485
N17710 X-768.941 Y635.734
N17715 X-768.646 Y635.984
N17720 X-1193.398
N17725 G3 X-1193.684 Z-5.95 K0.65
N17730 G2 X-1193.97 Z-5.883 I-0.286 K-0.584
N17735 G17 G2 X-1195.92 Y637.934 J1.95
N17740 G1 Y638.034
N17745 G2 X-1193.97 Y639.984 I1.95
N17750 G18 G3 X-1193.684 Z-5.95 K-0.65
N17755 G2 X-1193.398 Z-6.016 I0.286 K0.584
N17760 G1 X-763.896
N17765 X-763.297 Y640.485
N17770 X-762.998 Y640.736
N17775 X-762.699 Y640.986
N17780 X-761.799 Y641.737
N17785 X-760.599 Y642.737
N17790 X-760.299 Y642.986
N17795 X-759.698 Y643.485
N17800 X-759.398 Y643.735
N17805 X-759.097 Y643.984
N17810 X-1193.398
N17815 G3 X-1193.685 Z-5.95 K0.65
N17820 G2 X-1193.971 Z-5.883 I-0.286 K-0.584
N17825 G17 G2 X-1195.921 Y645.934 J1.95
N17830 G1 Y646.034
N17835 G2 X-1193.971 Y647.984 I1.95
N17840 G1 X-1193.97
N17845 G18 G3 X-1193.684 Z-5.95 K-0.65
N17850 G2 X-1193.398 Z-6.016 I0.286 K0.584
N17855 G1 X-754.248
N17860 X-753.942 Y648.234
N17865 X-753.636 Y648.485
N17870 X-752.718 Y649.236
N17875 X-752.412 Y649.487
N17880 X-751.493 Y650.237
N17885 X-750.267 Y651.235
N17890 X-749.96 Y651.485
N17895 X-749.346 Y651.984
N17900 X-1193.398
N17905 G3 X-1193.685 Z-5.95 K0.65
N17910 G2 X-1193.971 Z-5.883 I-0.286 K-0.584
N17915 G17 G2 X-1195.921 Y653.934 J1.95
N17920 G1 Y654.034
N17925 G2 X-1193.971 Y655.984 I1.95
N17930 G1 X-1193.97
N17935 G18 G3 X-1193.684 Z-5.95 K-0.65
N17940 G2 X-1193.398 Z-6.016 I0.286 K0.584
N17945 G1 X-744.392
N17950 X-743.767 Y656.485
N17955 X-743.142 Y656.986
N17960 X-742.829 Y657.237
N17965 X-742.516 Y657.487
N17970 X-742.203 Y657.737
N17975 X-740.95 Y658.736
N17980 X-740.637 Y658.986
N17985 X-740.324 Y659.236
N17990 X-740.01 Y659.485
N17995 X-739.383 Y659.983
N18000 X-1193.398
N18005 G3 X-1193.684 Z-5.95 K0.65
N18010 G2 X-1193.97 Z-5.883 I-0.286 K-0.584
N18015 G17 G2 X-1195.92 Y661.933 J1.95
N18020 G1 Y662.033
N18025 G2 X-1193.97 Y663.983 I1.95
N18030 G18 G3 X-1193.684 Z-5.95 K-0.65
N18035 G2 X-1193.398 Z-6.016 I0.286 K0.584
N18040 G1 X-734.321
N18045 X-734.001 Y664.233
N18050 X-733.681 Y664.484
N18055 X-733.362 Y664.735
N18060 X-733.042 Y664.985
N18065 X-731.442 Y666.236
N18070 X-731.122 Y666.486
N18075 X-730.801 Y666.736
N18080 X-729.198 Y667.983
N18085 X-1193.399
N18090 G3 X-1193.685 Z-5.95 K0.65
N18095 G2 X-1193.971 Z-5.883 I-0.286 K-0.584
N18100 G17 G2 X-1195.921 Y669.933 J1.95
N18105 G1 Y670.033
N18110 G2 X-1193.971 Y671.983 I1.95
N18115 G1 X-1193.97
N18120 G18 G3 X-1193.684 Z-5.95 K-0.65
N18125 G2 X-1193.398 Z-6.016 I0.286 K0.584
N18130 G1 X-724.02
N18135 X-723.693 Y672.234
N18140 X-722.058 Y673.486
N18145 X-721.731 Y673.737
N18150 X-719.765 Y675.235
N18155 X-719.437 Y675.485
N18160 X-719.109 Y675.734
N18165 X-718.781 Y675.983
N18170 X-1193.398
N18175 G3 X-1193.684 Z-5.95 K0.65
N18180 G2 X-1193.97 Z-5.883 I-0.286 K-0.584
N18185 G17 G2 X-1195.92 Y677.933 J1.95
N18190 G1 Y678.033
N18195 G2 X-1193.97 Y679.983 I1.95
N18200 G18 G3 X-1193.684 Z-5.95 K-0.65
N18205 G2 X-1193.398 Z-6.016 I0.286 K0.584
N18210 G1 X-713.481
N18215 X-712.812 Y680.485
N18220 X-712.477 Y680.736
N18225 X-712.143 Y680.986
N18230 X-710.468 Y682.237
N18235 X-710.133 Y682.487
N18240 X-709.797 Y682.737
N18245 X-709.462 Y682.986
N18250 X-708.119 Y683.983
N18255 X-1193.398
N18260 G3 X-1193.684 Z-5.95 K0.65
N18265 G2 X-1193.97 Z-5.883 I-0.286 K-0.584
N18270 G17 G2 X-1195.92 Y685.933 J1.95
N18275 G1 Y686.033
N18280 G2 X-1193.97 Y687.983 I1.95
N18285 G18 G3 X-1193.684 Z-5.95 K-0.65
N18290 G2 X-1193.398 Z-6.016 I0.286 K0.584
N18295 G1 X-702.693
N18300 X-702.351 Y688.234
N18305 X-700.98 Y689.236
N18310 X-700.637 Y689.487
N18315 X-700.293 Y689.737
N18320 X-699.95 Y689.987
N18325 X-698.576 Y690.986
N18330 X-698.233 Y691.235
N18335 X-697.889 Y691.485
N18340 X-697.545 Y691.734
N18345 X-697.201 Y691.983
N18350 X-1193.398
N18355 G3 X-1193.684 Z-5.95 K0.65
N18360 G2 X-1193.97 Z-5.883 I-0.286 K-0.584
N18365 G17 G2 X-1195.921 Y693.933 J1.95
N18370 G1 Y694.033
N18375 G2 X-1193.97 Y695.983 I1.95
N18380 G18 G3 X-1193.684 Z-5.95 K-0.65
N18385 G2 X-1193.398 Z-6.016 I0.286 K0.584
N18390 G1 X-691.642
N18395 X-691.29 Y696.234
N18400 X-690.588 Y696.735
N18405 X-690.236 Y696.986
N18410 X-689.182 Y697.737
N18415 X-688.83 Y697.987
N18420 X-688.126 Y698.487
N18425 X-687.774 Y698.736
N18430 X-687.07 Y699.235
N18435 X-686.717 Y699.485
N18440 X-686.012 Y699.983
N18445 X-1193.398
N18450 G3 X-1193.684 Z-5.95 K0.65
N18455 G2 X-1193.97 Z-5.883 I-0.286 K-0.584
N18460 G17 G2 X-1195.92 Y701.933 J1.95
N18465 G1 Y702.033
N18470 G2 X-1193.97 Y703.983 I1.95
N18475 G18 G3 X-1193.684 Z-5.95 K-0.65
